( PCB Contour )
( Generated by Rapid-PCB.com )
( Material Size)
( X= 160.000, Y= 100.000, Z= 1.580)
()
G00
G17
G21
G40
G49
G54
G80
G90
G94
G00 F3000 Z3.000
M03 S9000
G00 F3000 X155.936 Y85.379
G00 F1500 Z0
G01 F30 Z-0.200
G01 F30 X155.799 Y85.350
G01 F30 X155.670 Y85.293
G01 F30 X155.556 Y85.210
G01 F30 X155.534 Y85.185
G01 F30 X155.492 Y85.185
G01 F30 X39.972 Y84.779
G01 F30 X39.859 Y84.861
G01 F30 X39.731 Y84.918
G01 F30 X39.593 Y84.948
G01 F30 X39.452 Y84.948
G01 F30 X39.314 Y84.918
G01 F30 X39.185 Y84.861
G01 F30 X39.071 Y84.778
G01 F30 X38.977 Y84.673
G01 F30 X38.907 Y84.551
G01 F30 X38.863 Y84.417
G01 F30 X38.848 Y84.277
G01 F30 X38.863 Y84.137
G01 F30 X38.907 Y84.003
G01 F30 X38.977 Y83.881
G01 F30 X39.045 Y83.806
G01 F30 X39.045 Y11.088
G01 F30 X38.977 Y11.013
G01 F30 X38.907 Y10.891
G01 F30 X38.863 Y10.757
G01 F30 X38.848 Y10.617
G01 F30 X38.863 Y10.477
G01 F30 X38.907 Y10.343
G01 F30 X38.977 Y10.221
G01 F30 X39.071 Y10.116
G01 F30 X39.185 Y10.034
G01 F30 X39.314 Y9.976
G01 F30 X39.452 Y9.947
G01 F30 X39.593 Y9.947
G01 F30 X39.731 Y9.976
G01 F30 X39.859 Y10.034
G01 F30 X39.973 Y10.116
G01 F30 X39.996 Y10.141
G01 F30 X155.889 Y10.141
G01 F30 X155.911 Y10.116
G01 F30 X156.025 Y10.034
G01 F30 X156.154 Y9.976
G01 F30 X156.292 Y9.947
G01 F30 X156.433 Y9.947
G01 F30 X156.571 Y9.976
G01 F30 X156.699 Y10.034
G01 F30 X156.813 Y10.116
G01 F30 X156.908 Y10.221
G01 F30 X156.978 Y10.343
G01 F30 X157.022 Y10.477
G01 F30 X157.036 Y10.617
G01 F30 X157.022 Y10.757
G01 F30 X156.978 Y10.891
G01 F30 X156.908 Y11.013
G01 F30 X156.840 Y11.088
G01 F30 X156.840 Y11.091
G01 F30 X156.484 Y84.238
G01 F30 X156.552 Y84.313
G01 F30 X156.623 Y84.435
G01 F30 X156.666 Y84.569
G01 F30 X156.681 Y84.709
G01 F30 X156.666 Y84.849
G01 F30 X156.623 Y84.983
G01 F30 X156.552 Y85.105
G01 F30 X156.458 Y85.210
G01 F30 X156.344 Y85.293
G01 F30 X156.215 Y85.350
G01 F30 X156.077 Y85.379
G01 F30 X155.936 Y85.379
G00 F3000 Z3.000
G00 F3000 X3.892 Y84.948
G00 F1500 Z0
G01 F30 Z-0.200
G01 F30 X3.754 Y84.918
G01 F30 X3.625 Y84.861
G01 F30 X3.511 Y84.778
G01 F30 X3.417 Y84.673
G01 F30 X3.347 Y84.551
G01 F30 X3.303 Y84.417
G01 F30 X3.288 Y84.277
G01 F30 X3.303 Y84.137
G01 F30 X3.347 Y84.003
G01 F30 X3.417 Y83.881
G01 F30 X3.485 Y83.806
G01 F30 X3.485 Y33.948
G01 F30 X3.417 Y33.873
G01 F30 X3.347 Y33.751
G01 F30 X3.303 Y33.617
G01 F30 X3.288 Y33.477
G01 F30 X3.303 Y33.337
G01 F30 X3.347 Y33.203
G01 F30 X3.417 Y33.081
G01 F30 X3.511 Y32.976
G01 F30 X3.625 Y32.894
G01 F30 X3.754 Y32.836
G01 F30 X3.892 Y32.807
G01 F30 X4.033 Y32.807
G01 F30 X4.171 Y32.836
G01 F30 X4.299 Y32.894
G01 F30 X4.413 Y32.976
G01 F30 X4.436 Y33.001
G01 F30 X33.969 Y33.001
G01 F30 X33.991 Y32.976
G01 F30 X34.105 Y32.894
G01 F30 X34.234 Y32.836
G01 F30 X34.372 Y32.807
G01 F30 X34.513 Y32.807
G01 F30 X34.651 Y32.836
G01 F30 X34.779 Y32.894
G01 F30 X34.893 Y32.976
G01 F30 X34.988 Y33.081
G01 F30 X35.058 Y33.203
G01 F30 X35.102 Y33.337
G01 F30 X35.116 Y33.477
G01 F30 X35.102 Y33.617
G01 F30 X35.058 Y33.751
G01 F30 X34.988 Y33.873
G01 F30 X34.920 Y33.948
G01 F30 X34.920 Y33.951
G01 F30 X34.920 Y83.806
G01 F30 X34.988 Y83.881
G01 F30 X35.058 Y84.003
G01 F30 X35.102 Y84.137
G01 F30 X35.116 Y84.277
G01 F30 X35.102 Y84.417
G01 F30 X35.058 Y84.551
G01 F30 X34.988 Y84.673
G01 F30 X34.893 Y84.778
G01 F30 X34.779 Y84.861
G01 F30 X34.651 Y84.918
G01 F30 X34.513 Y84.948
G01 F30 X34.372 Y84.948
G01 F30 X34.234 Y84.918
G01 F30 X34.105 Y84.861
G01 F30 X33.991 Y84.778
G01 F30 X33.969 Y84.753
G01 F30 X4.436 Y84.753
G01 F30 X4.413 Y84.778
G01 F30 X4.299 Y84.861
G01 F30 X4.171 Y84.918
G01 F30 X4.033 Y84.948
G01 F30 X3.892 Y84.948
G00 F3000 Z3.000
G00 F3000 X155.529 Y84.233
G00 F1500 Z0
G01 F30 Z-0.200
G01 F30 X155.885 Y11.093
G01 F30 X40.000 Y11.093
G01 F30 X40.000 Y83.806
G01 F30 X40.019 Y83.827
G01 F30 X40.037 Y83.827
G01 F30 X155.529 Y84.233
G00 F3000 Z3.000
G00 F3000 X33.586 Y83.801
G00 F1500 Z0
G01 F30 Z-0.200
G01 F30 X33.965 Y83.801
G01 F30 X33.965 Y83.421
G01 F30 X33.692 Y83.724
G01 F30 X33.586 Y83.801
G00 F3000 Z3.000
G00 F3000 X8.186 Y83.801
G00 F1500 Z0
G01 F30 Z-0.200
G01 F30 X30.219 Y83.801
G01 F30 X30.113 Y83.724
G01 F30 X29.739 Y83.309
G01 F30 X29.460 Y82.825
G01 F30 X29.287 Y82.293
G01 F30 X29.228 Y81.737
G01 F30 X29.287 Y81.181
G01 F30 X29.460 Y80.650
G01 F30 X29.739 Y80.166
G01 F30 X30.113 Y79.750
G01 F30 X30.565 Y79.422
G01 F30 X31.076 Y79.194
G01 F30 X31.623 Y79.078
G01 F30 X32.182 Y79.078
G01 F30 X32.729 Y79.194
G01 F30 X33.239 Y79.422
G01 F30 X33.692 Y79.750
G01 F30 X33.965 Y80.053
G01 F30 X33.965 Y33.953
G01 F30 X4.440 Y33.953
G01 F30 X4.440 Y80.053
G01 F30 X4.713 Y79.750
G01 F30 X5.165 Y79.422
G01 F30 X5.676 Y79.194
G01 F30 X6.223 Y79.078
G01 F30 X6.782 Y79.078
G01 F30 X7.329 Y79.194
G01 F30 X7.839 Y79.422
G01 F30 X8.292 Y79.750
G01 F30 X8.666 Y80.166
G01 F30 X8.945 Y80.650
G01 F30 X9.118 Y81.181
G01 F30 X9.176 Y81.737
G01 F30 X9.118 Y82.293
G01 F30 X8.945 Y82.825
G01 F30 X8.666 Y83.309
G01 F30 X8.292 Y83.724
G01 F30 X8.186 Y83.801
G00 F3000 Z3.000
G00 F3000 X4.440 Y83.801
G00 F1500 Z0
G01 F30 Z-0.200
G01 F30 X4.819 Y83.801
G01 F30 X4.713 Y83.724
G01 F30 X4.440 Y83.421
G01 F30 X4.440 Y83.801
G00 F3000 Z3.000
G00 F3000 X90.201 Y82.895
G00 F1500 Z0
G01 F30 Z-0.200
G01 F30 X89.963 Y82.845
G01 F30 X89.740 Y82.746
G01 F30 X89.543 Y82.603
G01 F30 X89.380 Y82.422
G01 F30 X89.258 Y82.211
G01 F30 X89.183 Y81.979
G01 F30 X89.158 Y81.737
G01 F30 X89.183 Y81.495
G01 F30 X89.258 Y81.264
G01 F30 X89.380 Y81.053
G01 F30 X89.543 Y80.872
G01 F30 X89.740 Y80.729
G01 F30 X89.963 Y80.630
G01 F30 X90.201 Y80.579
G01 F30 X90.444 Y80.579
G01 F30 X90.682 Y80.630
G01 F30 X90.905 Y80.729
G01 F30 X91.102 Y80.872
G01 F30 X91.264 Y81.053
G01 F30 X91.386 Y81.264
G01 F30 X91.394 Y81.288
G01 F30 X95.227 Y81.311
G01 F30 X96.910 Y79.585
G01 F30 X96.866 Y79.451
G01 F30 X96.842 Y79.223
G01 F30 X96.866 Y78.994
G01 F30 X96.938 Y78.775
G01 F30 X97.053 Y78.576
G01 F30 X97.206 Y78.405
G01 F30 X97.392 Y78.270
G01 F30 X97.603 Y78.176
G01 F30 X97.827 Y78.129
G01 F30 X98.057 Y78.129
G01 F30 X98.282 Y78.176
G01 F30 X98.492 Y78.270
G01 F30 X98.678 Y78.405
G01 F30 X98.832 Y78.576
G01 F30 X98.947 Y78.775
G01 F30 X99.018 Y78.994
G01 F30 X99.042 Y79.223
G01 F30 X99.018 Y79.451
G01 F30 X98.947 Y79.670
G01 F30 X98.832 Y79.869
G01 F30 X98.678 Y80.040
G01 F30 X98.492 Y80.175
G01 F30 X98.282 Y80.269
G01 F30 X98.057 Y80.317
G01 F30 X97.827 Y80.317
G01 F30 X97.603 Y80.269
G01 F30 X97.584 Y80.260
G01 F30 X95.745 Y82.146
G01 F30 X95.667 Y82.203
G01 F30 X95.576 Y82.243
G01 F30 X95.478 Y82.264
G01 F30 X95.395 Y82.264
G01 F30 X91.369 Y82.241
G01 F30 X91.264 Y82.422
G01 F30 X91.102 Y82.603
G01 F30 X90.905 Y82.746
G01 F30 X90.682 Y82.845
G01 F30 X90.444 Y82.895
G01 F30 X90.201 Y82.895
G00 F3000 Z3.000
G00 F3000 X85.121 Y82.895
G00 F1500 Z0
G01 F30 Z-0.200
G01 F30 X84.883 Y82.845
G01 F30 X84.660 Y82.746
G01 F30 X84.463 Y82.603
G01 F30 X84.300 Y82.422
G01 F30 X84.178 Y82.211
G01 F30 X84.103 Y81.979
G01 F30 X84.078 Y81.737
G01 F30 X84.103 Y81.495
G01 F30 X84.178 Y81.264
G01 F30 X84.300 Y81.053
G01 F30 X84.463 Y80.872
G01 F30 X84.660 Y80.729
G01 F30 X84.765 Y80.682
G01 F30 X84.765 Y80.207
G01 F30 X84.692 Y80.175
G01 F30 X84.506 Y80.040
G01 F30 X84.353 Y79.869
G01 F30 X84.237 Y79.670
G01 F30 X84.166 Y79.451
G01 F30 X84.142 Y79.223
G01 F30 X84.166 Y78.994
G01 F30 X84.237 Y78.775
G01 F30 X84.353 Y78.576
G01 F30 X84.506 Y78.405
G01 F30 X84.692 Y78.270
G01 F30 X84.765 Y78.238
G01 F30 X84.765 Y77.671
G01 F30 X84.679 Y77.633
G01 F30 X84.489 Y77.494
G01 F30 X84.331 Y77.319
G01 F30 X84.213 Y77.115
G01 F30 X84.141 Y76.891
G01 F30 X84.116 Y76.657
G01 F30 X84.141 Y76.423
G01 F30 X84.213 Y76.199
G01 F30 X84.331 Y75.995
G01 F30 X84.489 Y75.820
G01 F30 X84.679 Y75.682
G01 F30 X84.894 Y75.586
G01 F30 X85.125 Y75.537
G01 F30 X85.360 Y75.537
G01 F30 X85.591 Y75.586
G01 F30 X85.806 Y75.682
G01 F30 X85.996 Y75.820
G01 F30 X86.154 Y75.995
G01 F30 X86.272 Y76.199
G01 F30 X86.344 Y76.423
G01 F30 X86.369 Y76.657
G01 F30 X86.344 Y76.891
G01 F30 X86.272 Y77.115
G01 F30 X86.154 Y77.319
G01 F30 X85.996 Y77.494
G01 F30 X85.806 Y77.633
G01 F30 X85.720 Y77.671
G01 F30 X85.720 Y78.238
G01 F30 X85.792 Y78.270
G01 F30 X85.978 Y78.405
G01 F30 X86.132 Y78.576
G01 F30 X86.247 Y78.775
G01 F30 X86.318 Y78.994
G01 F30 X86.342 Y79.223
G01 F30 X86.318 Y79.451
G01 F30 X86.247 Y79.670
G01 F30 X86.132 Y79.869
G01 F30 X85.978 Y80.040
G01 F30 X85.792 Y80.175
G01 F30 X85.720 Y80.207
G01 F30 X85.721 Y80.683
G01 F30 X85.825 Y80.729
G01 F30 X86.022 Y80.872
G01 F30 X86.184 Y81.053
G01 F30 X86.306 Y81.264
G01 F30 X86.382 Y81.495
G01 F30 X86.407 Y81.737
G01 F30 X86.382 Y81.979
G01 F30 X86.306 Y82.211
G01 F30 X86.184 Y82.422
G01 F30 X86.022 Y82.603
G01 F30 X85.825 Y82.746
G01 F30 X85.602 Y82.845
G01 F30 X85.364 Y82.895
G01 F30 X85.121 Y82.895
G00 F3000 Z3.000
G00 F3000 X87.661 Y82.895
G00 F1500 Z0
G01 F30 Z-0.200
G01 F30 X87.422 Y82.845
G01 F30 X87.200 Y82.746
G01 F30 X87.003 Y82.603
G01 F30 X86.840 Y82.422
G01 F30 X86.719 Y82.211
G01 F30 X86.643 Y81.979
G01 F30 X86.618 Y81.737
G01 F30 X86.643 Y81.495
G01 F30 X86.719 Y81.264
G01 F30 X86.840 Y81.053
G01 F30 X87.003 Y80.872
G01 F30 X87.200 Y80.729
G01 F30 X87.305 Y80.682
G01 F30 X87.305 Y80.207
G01 F30 X87.232 Y80.175
G01 F30 X87.046 Y80.040
G01 F30 X86.892 Y79.869
G01 F30 X86.778 Y79.670
G01 F30 X86.706 Y79.451
G01 F30 X86.682 Y79.223
G01 F30 X86.706 Y78.994
G01 F30 X86.778 Y78.775
G01 F30 X86.892 Y78.576
G01 F30 X87.046 Y78.405
G01 F30 X87.232 Y78.270
G01 F30 X87.305 Y78.238
G01 F30 X87.305 Y74.644
G01 F30 X77.547 Y74.644
G01 F30 X77.449 Y74.623
G01 F30 X77.358 Y74.583
G01 F30 X77.279 Y74.526
G01 F30 X75.460 Y72.661
G01 F30 X75.431 Y72.674
G01 F30 X75.200 Y72.723
G01 F30 X74.965 Y72.723
G01 F30 X74.734 Y72.674
G01 F30 X74.519 Y72.578
G01 F30 X74.329 Y72.440
G01 F30 X74.171 Y72.265
G01 F30 X74.053 Y72.061
G01 F30 X73.981 Y71.837
G01 F30 X73.956 Y71.603
G01 F30 X73.981 Y71.368
G01 F30 X74.053 Y71.144
G01 F30 X74.171 Y70.941
G01 F30 X74.329 Y70.766
G01 F30 X74.519 Y70.627
G01 F30 X74.734 Y70.531
G01 F30 X74.965 Y70.482
G01 F30 X75.200 Y70.482
G01 F30 X75.431 Y70.531
G01 F30 X75.646 Y70.627
G01 F30 X75.836 Y70.766
G01 F30 X75.994 Y70.941
G01 F30 X76.112 Y71.144
G01 F30 X76.184 Y71.368
G01 F30 X76.209 Y71.603
G01 F30 X76.184 Y71.837
G01 F30 X76.136 Y71.986
G01 F30 X77.799 Y73.692
G01 F30 X87.624 Y73.692
G01 F30 X87.635 Y73.687
G01 F30 X87.732 Y73.666
G01 F30 X87.832 Y73.666
G01 F30 X87.930 Y73.687
G01 F30 X88.022 Y73.728
G01 F30 X88.099 Y73.784
G01 F30 X88.137 Y73.822
G01 F30 X88.195 Y73.887
G01 F30 X88.245 Y73.973
G01 F30 X88.276 Y74.069
G01 F30 X88.287 Y74.168
G01 F30 X88.276 Y74.268
G01 F30 X88.260 Y74.316
G01 F30 X88.260 Y78.238
G01 F30 X88.332 Y78.270
G01 F30 X88.518 Y78.405
G01 F30 X88.672 Y78.576
G01 F30 X88.787 Y78.775
G01 F30 X88.858 Y78.994
G01 F30 X88.882 Y79.223
G01 F30 X88.858 Y79.451
G01 F30 X88.787 Y79.670
G01 F30 X88.672 Y79.869
G01 F30 X88.518 Y80.040
G01 F30 X88.332 Y80.175
G01 F30 X88.260 Y80.207
G01 F30 X88.261 Y80.683
G01 F30 X88.365 Y80.729
G01 F30 X88.562 Y80.872
G01 F30 X88.725 Y81.053
G01 F30 X88.846 Y81.264
G01 F30 X88.922 Y81.495
G01 F30 X88.947 Y81.737
G01 F30 X88.922 Y81.979
G01 F30 X88.846 Y82.211
G01 F30 X88.725 Y82.422
G01 F30 X88.562 Y82.603
G01 F30 X88.365 Y82.746
G01 F30 X88.142 Y82.845
G01 F30 X87.904 Y82.895
G01 F30 X87.661 Y82.895
G00 F3000 Z3.000
G00 F3000 X54.738 Y82.239
G00 F1500 Z0
G01 F30 Z-0.200
G01 F30 X54.640 Y82.218
G01 F30 X54.548 Y82.177
G01 F30 X54.479 Y82.127
G01 F30 X41.739 Y71.904
G01 F30 X41.675 Y71.833
G01 F30 X41.625 Y71.746
G01 F30 X41.594 Y71.651
G01 F30 X41.585 Y71.561
G01 F30 X41.559 Y28.397
G01 F30 X41.558 Y26.430
G01 F30 X41.548 Y26.418
G01 F30 X41.498 Y26.331
G01 F30 X41.467 Y26.236
G01 F30 X41.457 Y26.137
G01 F30 X41.467 Y26.038
G01 F30 X41.574 Y25.691
G01 F30 X41.600 Y25.612
G01 F30 X41.650 Y25.525
G01 F30 X41.708 Y25.460
G01 F30 X49.366 Y17.929
G01 F30 X49.443 Y17.873
G01 F30 X49.535 Y17.833
G01 F30 X49.632 Y17.812
G01 F30 X89.243 Y17.812
G01 F30 X89.258 Y17.764
G01 F30 X89.380 Y17.553
G01 F30 X89.543 Y17.372
G01 F30 X89.740 Y17.229
G01 F30 X89.963 Y17.130
G01 F30 X90.201 Y17.079
G01 F30 X90.444 Y17.079
G01 F30 X90.682 Y17.130
G01 F30 X90.905 Y17.229
G01 F30 X91.102 Y17.372
G01 F30 X91.264 Y17.553
G01 F30 X91.386 Y17.764
G01 F30 X91.462 Y17.995
G01 F30 X91.487 Y18.237
G01 F30 X91.462 Y18.479
G01 F30 X91.386 Y18.711
G01 F30 X91.264 Y18.922
G01 F30 X91.102 Y19.103
G01 F30 X90.905 Y19.246
G01 F30 X90.682 Y19.345
G01 F30 X90.450 Y19.394
G01 F30 X90.435 Y19.395
G01 F30 X90.409 Y19.414
G01 F30 X90.318 Y19.454
G01 F30 X90.220 Y19.475
G01 F30 X90.120 Y19.475
G01 F30 X90.022 Y19.454
G01 F30 X89.931 Y19.414
G01 F30 X89.850 Y19.355
G01 F30 X89.783 Y19.281
G01 F30 X89.770 Y19.259
G01 F30 X89.740 Y19.246
G01 F30 X89.543 Y19.103
G01 F30 X89.380 Y18.922
G01 F30 X89.289 Y18.764
G01 F30 X49.879 Y18.764
G01 F30 X42.515 Y26.006
G01 F30 X42.540 Y71.323
G01 F30 X54.957 Y81.286
G01 F30 X77.450 Y81.236
G01 F30 X79.128 Y79.580
G01 F30 X79.086 Y79.451
G01 F30 X79.062 Y79.223
G01 F30 X79.086 Y78.994
G01 F30 X79.157 Y78.775
G01 F30 X79.273 Y78.576
G01 F30 X79.426 Y78.405
G01 F30 X79.612 Y78.270
G01 F30 X79.685 Y78.238
G01 F30 X79.685 Y76.648
G01 F30 X79.694 Y76.558
G01 F30 X79.725 Y76.463
G01 F30 X79.775 Y76.376
G01 F30 X79.842 Y76.301
G01 F30 X79.923 Y76.243
G01 F30 X80.001 Y76.208
G01 F30 X80.466 Y76.022
G01 F30 X80.483 Y75.864
G01 F30 X80.556 Y75.640
G01 F30 X80.674 Y75.436
G01 F30 X80.831 Y75.261
G01 F30 X81.022 Y75.123
G01 F30 X81.237 Y75.027
G01 F30 X81.467 Y74.978
G01 F30 X81.703 Y74.978
G01 F30 X81.933 Y75.027
G01 F30 X82.148 Y75.123
G01 F30 X82.339 Y75.261
G01 F30 X82.496 Y75.436
G01 F30 X82.614 Y75.640
G01 F30 X82.687 Y75.864
G01 F30 X82.711 Y76.098
G01 F30 X82.687 Y76.333
G01 F30 X82.614 Y76.557
G01 F30 X82.496 Y76.761
G01 F30 X82.339 Y76.936
G01 F30 X82.148 Y77.074
G01 F30 X81.933 Y77.170
G01 F30 X81.703 Y77.219
G01 F30 X81.467 Y77.219
G01 F30 X81.237 Y77.170
G01 F30 X81.022 Y77.074
G01 F30 X80.831 Y76.936
G01 F30 X80.810 Y76.912
G01 F30 X80.640 Y76.980
G01 F30 X80.640 Y78.238
G01 F30 X80.712 Y78.270
G01 F30 X80.898 Y78.405
G01 F30 X81.052 Y78.576
G01 F30 X81.167 Y78.775
G01 F30 X81.238 Y78.994
G01 F30 X81.262 Y79.223
G01 F30 X81.238 Y79.451
G01 F30 X81.167 Y79.670
G01 F30 X81.052 Y79.869
G01 F30 X80.898 Y80.040
G01 F30 X80.712 Y80.175
G01 F30 X80.502 Y80.269
G01 F30 X80.277 Y80.317
G01 F30 X80.047 Y80.317
G01 F30 X79.823 Y80.269
G01 F30 X79.800 Y80.259
G01 F30 X77.964 Y82.071
G01 F30 X77.887 Y82.126
G01 F30 X77.796 Y82.167
G01 F30 X77.698 Y82.188
G01 F30 X54.820 Y82.239
G01 F30 X54.738 Y82.239
G00 F3000 Z3.000
G00 F3000 X11.532 Y82.213
G00 F1500 Z0
G01 F30 Z-0.200
G01 F30 X11.434 Y82.193
G01 F30 X11.343 Y82.152
G01 F30 X11.266 Y82.096
G01 F30 X6.198 Y77.003
G01 F30 X6.141 Y76.939
G01 F30 X6.090 Y76.852
G01 F30 X6.059 Y76.757
G01 F30 X6.050 Y76.666
G01 F30 X6.025 Y63.974
G01 F30 X6.034 Y63.883
G01 F30 X6.065 Y63.788
G01 F30 X6.115 Y63.701
G01 F30 X6.179 Y63.630
G01 F30 X18.750 Y53.569
G01 F30 X18.725 Y42.097
G01 F30 X18.646 Y42.062
G01 F30 X18.457 Y41.925
G01 F30 X18.301 Y41.752
G01 F30 X18.185 Y41.550
G01 F30 X18.113 Y41.329
G01 F30 X18.089 Y41.097
G01 F30 X18.113 Y40.866
G01 F30 X18.185 Y40.644
G01 F30 X18.301 Y40.443
G01 F30 X18.320 Y40.422
G01 F30 X16.718 Y37.175
G01 F30 X16.541 Y37.175
G01 F30 X16.303 Y37.125
G01 F30 X16.080 Y37.026
G01 F30 X15.883 Y36.883
G01 F30 X15.720 Y36.702
G01 F30 X15.599 Y36.491
G01 F30 X15.523 Y36.259
G01 F30 X15.498 Y36.017
G01 F30 X15.523 Y35.775
G01 F30 X15.599 Y35.544
G01 F30 X15.720 Y35.333
G01 F30 X15.883 Y35.152
G01 F30 X16.080 Y35.009
G01 F30 X16.303 Y34.910
G01 F30 X16.541 Y34.859
G01 F30 X16.784 Y34.859
G01 F30 X17.022 Y34.910
G01 F30 X17.245 Y35.009
G01 F30 X17.442 Y35.152
G01 F30 X17.605 Y35.333
G01 F30 X17.726 Y35.544
G01 F30 X17.802 Y35.775
G01 F30 X17.827 Y36.017
G01 F30 X17.802 Y36.259
G01 F30 X17.726 Y36.491
G01 F30 X17.605 Y36.702
G01 F30 X17.569 Y36.741
G01 F30 X19.171 Y39.989
G01 F30 X19.319 Y39.989
G01 F30 X19.547 Y40.038
G01 F30 X19.759 Y40.133
G01 F30 X19.948 Y40.270
G01 F30 X20.103 Y40.443
G01 F30 X20.220 Y40.644
G01 F30 X20.292 Y40.866
G01 F30 X20.316 Y41.097
G01 F30 X20.292 Y41.329
G01 F30 X20.220 Y41.550
G01 F30 X20.103 Y41.752
G01 F30 X19.948 Y41.925
G01 F30 X19.759 Y42.062
G01 F30 X19.681 Y42.097
G01 F30 X19.706 Y53.806
G01 F30 X19.696 Y53.897
G01 F30 X19.665 Y53.992
G01 F30 X19.615 Y54.079
G01 F30 X19.551 Y54.150
G01 F30 X6.981 Y64.211
G01 F30 X7.005 Y76.460
G01 F30 X11.782 Y81.261
G01 F30 X26.623 Y81.261
G01 F30 X31.425 Y76.460
G01 F30 X31.425 Y67.536
G01 F30 X31.339 Y67.498
G01 F30 X31.149 Y67.360
G01 F30 X30.991 Y67.185
G01 F30 X30.873 Y66.981
G01 F30 X30.801 Y66.757
G01 F30 X30.776 Y66.523
G01 F30 X30.801 Y66.288
G01 F30 X30.873 Y66.064
G01 F30 X30.991 Y65.861
G01 F30 X31.149 Y65.686
G01 F30 X31.339 Y65.547
G01 F30 X31.554 Y65.451
G01 F30 X31.785 Y65.402
G01 F30 X32.020 Y65.402
G01 F30 X32.251 Y65.451
G01 F30 X32.466 Y65.547
G01 F30 X32.656 Y65.686
G01 F30 X32.814 Y65.861
G01 F30 X32.931 Y66.064
G01 F30 X33.004 Y66.288
G01 F30 X33.029 Y66.523
G01 F30 X33.004 Y66.757
G01 F30 X32.931 Y66.981
G01 F30 X32.814 Y67.185
G01 F30 X32.656 Y67.360
G01 F30 X32.466 Y67.498
G01 F30 X32.380 Y67.536
G01 F30 X32.380 Y76.666
G01 F30 X32.371 Y76.757
G01 F30 X32.340 Y76.852
G01 F30 X32.290 Y76.939
G01 F30 X32.232 Y77.003
G01 F30 X27.139 Y82.096
G01 F30 X27.062 Y82.152
G01 F30 X26.970 Y82.193
G01 F30 X26.872 Y82.213
G01 F30 X11.532 Y82.213
G00 F3000 Z3.000
G00 F3000 X151.003 Y81.856
G00 F1500 Z0
G01 F30 Z-0.200
G01 F30 X150.456 Y81.740
G01 F30 X149.945 Y81.513
G01 F30 X149.493 Y81.184
G01 F30 X149.119 Y80.769
G01 F30 X148.840 Y80.285
G01 F30 X148.667 Y79.753
G01 F30 X148.608 Y79.197
G01 F30 X148.667 Y78.641
G01 F30 X148.840 Y78.110
G01 F30 X149.119 Y77.626
G01 F30 X149.493 Y77.210
G01 F30 X149.945 Y76.882
G01 F30 X150.456 Y76.654
G01 F30 X151.003 Y76.538
G01 F30 X151.562 Y76.538
G01 F30 X152.109 Y76.654
G01 F30 X152.619 Y76.882
G01 F30 X153.072 Y77.210
G01 F30 X153.446 Y77.626
G01 F30 X153.725 Y78.110
G01 F30 X153.898 Y78.641
G01 F30 X153.956 Y79.197
G01 F30 X153.898 Y79.753
G01 F30 X153.725 Y80.285
G01 F30 X153.446 Y80.769
G01 F30 X153.072 Y81.184
G01 F30 X152.619 Y81.513
G01 F30 X152.109 Y81.740
G01 F30 X151.562 Y81.856
G01 F30 X151.003 Y81.856
G00 F3000 Z3.000
G00 F3000 X44.323 Y81.856
G00 F1500 Z0
G01 F30 Z-0.200
G01 F30 X43.776 Y81.740
G01 F30 X43.265 Y81.513
G01 F30 X42.813 Y81.184
G01 F30 X42.439 Y80.769
G01 F30 X42.160 Y80.285
G01 F30 X41.987 Y79.753
G01 F30 X41.928 Y79.197
G01 F30 X41.987 Y78.641
G01 F30 X42.160 Y78.110
G01 F30 X42.439 Y77.626
G01 F30 X42.813 Y77.210
G01 F30 X43.265 Y76.882
G01 F30 X43.776 Y76.654
G01 F30 X44.323 Y76.538
G01 F30 X44.882 Y76.538
G01 F30 X45.429 Y76.654
G01 F30 X45.939 Y76.882
G01 F30 X46.392 Y77.210
G01 F30 X46.766 Y77.626
G01 F30 X47.045 Y78.110
G01 F30 X47.218 Y78.641
G01 F30 X47.276 Y79.197
G01 F30 X47.218 Y79.753
G01 F30 X47.045 Y80.285
G01 F30 X46.766 Y80.769
G01 F30 X46.392 Y81.184
G01 F30 X45.939 Y81.513
G01 F30 X45.429 Y81.740
G01 F30 X44.882 Y81.856
G01 F30 X44.323 Y81.856
G00 F3000 Z3.000
G00 F3000 X18.390 Y81.045
G00 F1500 Z0
G01 F30 Z-0.200
G01 F30 X18.293 Y81.024
G01 F30 X18.201 Y80.983
G01 F30 X18.120 Y80.925
G01 F30 X18.053 Y80.850
G01 F30 X18.003 Y80.764
G01 F30 X17.972 Y80.668
G01 F30 X17.963 Y80.578
G01 F30 X17.963 Y80.534
G01 F30 X17.972 Y80.444
G01 F30 X17.988 Y80.395
G01 F30 X17.988 Y78.829
G01 F30 X17.921 Y78.799
G01 F30 X17.853 Y78.749
G01 F30 X17.795 Y78.723
G01 F30 X17.717 Y78.667
G01 F30 X17.700 Y78.649
G01 F30 X17.696 Y78.647
G01 F30 X17.658 Y78.625
G01 F30 X17.591 Y78.596
G01 F30 X17.510 Y78.537
G01 F30 X17.498 Y78.523
G01 F30 X17.490 Y78.520
G01 F30 X17.408 Y78.460
G01 F30 X17.376 Y78.424
G01 F30 X17.363 Y78.418
G01 F30 X17.286 Y78.362
G01 F30 X17.251 Y78.327
G01 F30 X17.167 Y78.243
G01 F30 X17.154 Y78.236
G01 F30 X17.082 Y78.184
G01 F30 X17.043 Y78.144
G01 F30 X17.004 Y78.100
G01 F30 X17.001 Y78.097
G01 F30 X16.976 Y78.084
G01 F30 X16.897 Y78.026
G01 F30 X16.843 Y77.959
G01 F30 X16.795 Y77.925
G01 F30 X16.741 Y77.857
G01 F30 X16.698 Y77.826
G01 F30 X16.631 Y77.751
G01 F30 X16.599 Y77.696
G01 F30 X16.582 Y77.677
G01 F30 X16.548 Y77.623
G01 F30 X16.506 Y77.576
G01 F30 X16.474 Y77.525
G01 F30 X16.460 Y77.511
G01 F30 X16.402 Y77.447
G01 F30 X16.351 Y77.358
G01 F30 X16.337 Y77.312
G01 F30 X16.333 Y77.308
G01 F30 X16.275 Y77.243
G01 F30 X16.226 Y77.159
G01 F30 X16.206 Y77.101
G01 F30 X16.174 Y77.066
G01 F30 X16.142 Y77.010
G01 F30 X16.120 Y76.987
G01 F30 X16.074 Y76.898
G01 F30 X16.048 Y76.853
G01 F30 X16.028 Y76.794
G01 F30 X16.021 Y76.786
G01 F30 X15.969 Y76.697
G01 F30 X15.948 Y76.620
G01 F30 X15.923 Y76.578
G01 F30 X15.904 Y76.532
G01 F30 X15.869 Y76.471
G01 F30 X15.838 Y76.375
G01 F30 X15.832 Y76.306
G01 F30 X15.814 Y76.252
G01 F30 X15.809 Y76.217
G01 F30 X15.803 Y76.202
G01 F30 X15.768 Y76.141
G01 F30 X15.738 Y76.048
G01 F30 X15.732 Y76.007
G01 F30 X15.712 Y75.947
G01 F30 X15.707 Y75.906
G01 F30 X15.686 Y75.841
G01 F30 X15.681 Y75.785
G01 F30 X15.666 Y75.760
G01 F30 X15.635 Y75.665
G01 F30 X15.626 Y75.574
G01 F30 X15.626 Y75.510
G01 F30 X15.610 Y75.461
G01 F30 X15.600 Y75.371
G01 F30 X15.600 Y75.307
G01 F30 X15.585 Y75.258
G01 F30 X15.575 Y75.168
G01 F30 X15.575 Y74.895
G01 F30 X15.577 Y74.879
G01 F30 X15.575 Y74.863
G01 F30 X15.575 Y74.641
G01 F30 X15.577 Y74.625
G01 F30 X15.575 Y74.609
G01 F30 X15.575 Y74.540
G01 F30 X15.577 Y74.524
G01 F30 X15.575 Y74.507
G01 F30 X15.575 Y74.413
G01 F30 X15.585 Y74.321
G01 F30 X15.602 Y74.270
G01 F30 X15.600 Y74.253
G01 F30 X15.600 Y74.210
G01 F30 X15.610 Y74.122
G01 F30 X15.626 Y74.067
G01 F30 X15.626 Y73.981
G01 F30 X15.635 Y73.891
G01 F30 X15.647 Y73.854
G01 F30 X15.631 Y73.837
G01 F30 X15.625 Y73.836
G01 F30 X15.534 Y73.795
G01 F30 X15.451 Y73.735
G01 F30 X15.405 Y73.680
G01 F30 X15.381 Y73.663
G01 F30 X15.239 Y73.522
G01 F30 X15.201 Y73.477
G01 F30 X15.177 Y73.460
G01 F30 X15.142 Y73.425
G01 F30 X15.105 Y73.387
G01 F30 X15.051 Y73.363
G01 F30 X14.971 Y73.305
G01 F30 X14.904 Y73.230
G01 F30 X14.853 Y73.144
G01 F30 X14.850 Y73.132
G01 F30 X14.831 Y73.113
G01 F30 X14.786 Y73.057
G01 F30 X14.745 Y73.028
G01 F30 X14.706 Y72.988
G01 F30 X14.668 Y72.944
G01 F30 X14.640 Y72.924
G01 F30 X14.573 Y72.849
G01 F30 X14.546 Y72.802
G01 F30 X14.533 Y72.790
G01 F30 X14.472 Y72.722
G01 F30 X14.440 Y72.667
G01 F30 X14.423 Y72.648
G01 F30 X14.391 Y72.597
G01 F30 X14.377 Y72.583
G01 F30 X14.319 Y72.519
G01 F30 X14.287 Y72.464
G01 F30 X14.267 Y72.442
G01 F30 X14.242 Y72.396
G01 F30 X14.234 Y72.390
G01 F30 X14.164 Y72.313
G01 F30 X14.117 Y72.222
G01 F30 X14.095 Y72.178
G01 F30 X14.085 Y72.163
G01 F30 X14.042 Y72.115
G01 F30 X14.008 Y72.060
G01 F30 X13.964 Y72.011
G01 F30 X13.917 Y71.930
G01 F30 X13.898 Y71.883
G01 F30 X13.881 Y71.854
G01 F30 X13.862 Y71.833
G01 F30 X13.815 Y71.752
G01 F30 X13.796 Y71.705
G01 F30 X13.780 Y71.677
G01 F30 X13.761 Y71.656
G01 F30 X13.709 Y71.566
G01 F30 X13.687 Y71.490
G01 F30 X13.658 Y71.439
G01 F30 X13.636 Y71.359
G01 F30 X13.609 Y71.308
G01 F30 X13.587 Y71.265
G01 F30 X13.576 Y71.248
G01 F30 X13.532 Y71.198
G01 F30 X13.482 Y71.112
G01 F30 X13.451 Y71.016
G01 F30 X13.450 Y71.011
G01 F30 X13.406 Y70.934
G01 F30 X13.376 Y70.841
G01 F30 X13.370 Y70.800
G01 F30 X13.349 Y70.736
G01 F30 X13.346 Y70.701
G01 F30 X13.304 Y70.630
G01 F30 X13.273 Y70.537
G01 F30 X13.250 Y70.465
G01 F30 X13.238 Y70.436
G01 F30 X13.202 Y70.375
G01 F30 X13.171 Y70.280
G01 F30 X13.162 Y70.189
G01 F30 X13.162 Y70.126
G01 F30 X13.146 Y70.079
G01 F30 X13.120 Y69.999
G01 F30 X13.115 Y69.943
G01 F30 X13.101 Y69.918
G01 F30 X13.071 Y69.825
G01 F30 X13.065 Y69.784
G01 F30 X13.045 Y69.721
G01 F30 X13.035 Y69.630
G01 F30 X13.035 Y69.562
G01 F30 X13.043 Y69.490
G01 F30 X13.034 Y69.470
G01 F30 X12.999 Y69.410
G01 F30 X12.968 Y69.315
G01 F30 X12.959 Y69.224
G01 F30 X12.959 Y68.957
G01 F30 X12.943 Y68.908
G01 F30 X12.933 Y68.818
G01 F30 X12.933 Y68.728
G01 F30 X12.918 Y68.680
G01 F30 X12.908 Y68.589
G01 F30 X12.908 Y68.368
G01 F30 X12.911 Y68.339
G01 F30 X12.908 Y68.310
G01 F30 X12.908 Y68.088
G01 F30 X12.915 Y68.025
G01 F30 X12.915 Y68.018
G01 F30 X12.908 Y67.954
G01 F30 X12.908 Y67.834
G01 F30 X12.918 Y67.742
G01 F30 X12.935 Y67.692
G01 F30 X12.933 Y67.675
G01 F30 X12.933 Y67.631
G01 F30 X12.940 Y67.567
G01 F30 X12.940 Y67.561
G01 F30 X12.933 Y67.497
G01 F30 X12.933 Y67.428
G01 F30 X12.943 Y67.340
G01 F30 X12.959 Y67.285
G01 F30 X12.959 Y67.225
G01 F30 X12.968 Y67.134
G01 F30 X12.999 Y67.039
G01 F30 X13.010 Y67.021
G01 F30 X13.010 Y66.996
G01 F30 X13.019 Y66.906
G01 F30 X13.035 Y66.857
G01 F30 X13.035 Y66.844
G01 F30 X13.045 Y66.752
G01 F30 X13.066 Y66.689
G01 F30 X13.070 Y66.652
G01 F30 X13.101 Y66.556
G01 F30 X13.111 Y66.538
G01 F30 X13.120 Y66.451
G01 F30 X13.139 Y66.387
G01 F30 X13.146 Y66.321
G01 F30 X13.168 Y66.257
G01 F30 X13.171 Y66.220
G01 F30 X13.200 Y66.132
G01 F30 X13.232 Y66.065
G01 F30 X13.244 Y66.029
G01 F30 X13.248 Y65.991
G01 F30 X13.279 Y65.896
G01 F30 X13.323 Y65.819
G01 F30 X13.324 Y65.813
G01 F30 X13.345 Y65.749
G01 F30 X13.349 Y65.711
G01 F30 X13.381 Y65.617
G01 F30 X13.406 Y65.541
G01 F30 X13.447 Y65.468
G01 F30 X13.451 Y65.433
G01 F30 X13.480 Y65.342
G01 F30 X13.514 Y65.275
G01 F30 X13.551 Y65.210
G01 F30 X13.566 Y65.189
G01 F30 X13.582 Y65.139
G01 F30 X13.615 Y65.072
G01 F30 X13.653 Y65.007
G01 F30 X13.667 Y64.986
G01 F30 X13.683 Y64.936
G01 F30 X13.717 Y64.869
G01 F30 X13.754 Y64.804
G01 F30 X13.769 Y64.783
G01 F30 X13.787 Y64.728
G01 F30 X13.838 Y64.639
G01 F30 X13.879 Y64.596
G01 F30 X13.892 Y64.569
G01 F30 X13.920 Y64.513
G01 F30 X13.964 Y64.437
G01 F30 X14.007 Y64.391
G01 F30 X14.022 Y64.361
G01 F30 X14.065 Y64.285
G01 F30 X14.086 Y64.263
G01 F30 X14.104 Y64.232
G01 F30 X14.117 Y64.194
G01 F30 X14.167 Y64.108
G01 F30 X14.228 Y64.040
G01 F30 X14.241 Y64.028
G01 F30 X14.269 Y63.980
G01 F30 X14.316 Y63.929
G01 F30 X14.346 Y63.876
G01 F30 X14.416 Y63.805
G01 F30 X14.422 Y63.788
G01 F30 X14.472 Y63.701
G01 F30 X14.532 Y63.634
G01 F30 X14.591 Y63.580
G01 F30 X14.620 Y63.548
G01 F30 X14.650 Y63.498
G01 F30 X14.710 Y63.431
G01 F30 X14.772 Y63.374
G01 F30 X14.829 Y63.317
G01 F30 X14.874 Y63.272
G01 F30 X14.913 Y63.228
G01 F30 X14.975 Y63.171
G01 F30 X15.024 Y63.120
G01 F30 X15.042 Y63.101
G01 F30 X15.067 Y63.073
G01 F30 X15.103 Y63.043
G01 F30 X15.144 Y63.000
G01 F30 X15.169 Y62.972
G01 F30 X15.207 Y62.939
G01 F30 X15.260 Y62.886
G01 F30 X15.282 Y62.863
G01 F30 X15.326 Y62.817
G01 F30 X15.348 Y62.795
G01 F30 X15.377 Y62.763
G01 F30 X15.450 Y62.710
G01 F30 X15.466 Y62.701
G01 F30 X15.478 Y62.687
G01 F30 X15.559 Y62.628
G01 F30 X15.568 Y62.625
G01 F30 X15.573 Y62.618
G01 F30 X15.632 Y62.564
G01 F30 X15.682 Y62.509
G01 F30 X15.765 Y62.449
G01 F30 X15.816 Y62.428
G01 F30 X15.834 Y62.408
G01 F30 X15.911 Y62.352
G01 F30 X15.928 Y62.343
G01 F30 X15.961 Y62.306
G01 F30 X16.045 Y62.245
G01 F30 X16.116 Y62.217
G01 F30 X16.138 Y62.200
G01 F30 X16.163 Y62.187
G01 F30 X16.220 Y62.146
G01 F30 X16.314 Y62.104
G01 F30 X16.352 Y62.097
G01 F30 X16.363 Y62.085
G01 F30 X16.393 Y62.052
G01 F30 X16.468 Y61.997
G01 F30 X16.493 Y61.984
G01 F30 X16.550 Y61.942
G01 F30 X16.641 Y61.902
G01 F30 X16.671 Y61.895
G01 F30 X16.685 Y61.888
G01 F30 X16.698 Y61.874
G01 F30 X16.779 Y61.815
G01 F30 X16.870 Y61.775
G01 F30 X16.911 Y61.766
G01 F30 X16.930 Y61.759
G01 F30 X16.956 Y61.739
G01 F30 X17.048 Y61.699
G01 F30 X17.077 Y61.692
G01 F30 X17.091 Y61.686
G01 F30 X17.102 Y61.679
G01 F30 X17.160 Y61.638
G01 F30 X17.251 Y61.597
G01 F30 X17.288 Y61.589
G01 F30 X17.321 Y61.574
G01 F30 X17.346 Y61.567
G01 F30 X17.388 Y61.536
G01 F30 X17.480 Y61.495
G01 F30 X17.566 Y61.477
G01 F30 X17.630 Y61.468
G01 F30 X17.684 Y61.444
G01 F30 X17.735 Y61.434
G01 F30 X17.769 Y61.409
G01 F30 X17.861 Y61.368
G01 F30 X17.959 Y61.348
G01 F30 X17.977 Y61.348
G01 F30 X18.045 Y61.323
G01 F30 X18.117 Y61.291
G01 F30 X18.192 Y61.278
G01 F30 X18.216 Y61.267
G01 F30 X18.314 Y61.246
G01 F30 X18.409 Y61.246
G01 F30 X18.430 Y61.231
G01 F30 X18.521 Y61.191
G01 F30 X18.619 Y61.170
G01 F30 X18.765 Y61.170
G01 F30 X18.775 Y61.165
G01 F30 X18.873 Y61.144
G01 F30 X18.917 Y61.144
G01 F30 X18.928 Y61.140
G01 F30 X19.008 Y61.123
G01 F30 X19.048 Y61.114
G01 F30 X19.105 Y61.089
G01 F30 X19.203 Y61.068
G01 F30 X19.506 Y61.068
G01 F30 X19.549 Y61.077
G01 F30 X19.563 Y61.075
G01 F30 X19.588 Y61.064
G01 F30 X19.686 Y61.043
G01 F30 X20.497 Y61.043
G01 F30 X20.595 Y61.064
G01 F30 X20.605 Y61.068
G01 F30 X20.827 Y61.068
G01 F30 X20.928 Y61.089
G01 F30 X20.989 Y61.119
G01 F30 X21.107 Y61.119
G01 F30 X21.204 Y61.140
G01 F30 X21.215 Y61.144
G01 F30 X21.335 Y61.144
G01 F30 X21.433 Y61.165
G01 F30 X21.444 Y61.170
G01 F30 X21.488 Y61.170
G01 F30 X21.585 Y61.191
G01 F30 X21.677 Y61.231
G01 F30 X21.700 Y61.248
G01 F30 X21.789 Y61.267
G01 F30 X21.799 Y61.271
G01 F30 X21.869 Y61.271
G01 F30 X21.971 Y61.293
G01 F30 X22.028 Y61.322
G01 F30 X22.046 Y61.322
G01 F30 X22.134 Y61.341
G01 F30 X22.174 Y61.353
G01 F30 X22.236 Y61.366
G01 F30 X22.276 Y61.379
G01 F30 X22.348 Y61.394
G01 F30 X22.441 Y61.435
G01 F30 X22.482 Y61.466
G01 F30 X22.500 Y61.470
G01 F30 X22.540 Y61.488
G01 F30 X22.576 Y61.495
G01 F30 X22.668 Y61.536
G01 F30 X22.691 Y61.553
G01 F30 X22.779 Y61.572
G01 F30 X22.819 Y61.589
G01 F30 X22.856 Y61.597
G01 F30 X22.947 Y61.638
G01 F30 X23.016 Y61.688
G01 F30 X23.022 Y61.691
G01 F30 X23.059 Y61.699
G01 F30 X23.150 Y61.739
G01 F30 X23.219 Y61.790
G01 F30 X23.273 Y61.814
G01 F30 X23.315 Y61.841
G01 F30 X23.366 Y61.852
G01 F30 X23.451 Y61.893
G01 F30 X23.506 Y61.917
G01 F30 X23.587 Y61.976
G01 F30 X23.603 Y61.994
G01 F30 X23.605 Y61.995
G01 F30 X23.658 Y62.019
G01 F30 X23.727 Y62.069
G01 F30 X23.785 Y62.095
G01 F30 X23.842 Y62.136
G01 F30 X23.859 Y62.145
G01 F30 X23.897 Y62.167
G01 F30 X23.954 Y62.193
G01 F30 X23.998 Y62.218
G01 F30 X24.065 Y62.247
G01 F30 X24.149 Y62.309
G01 F30 X24.204 Y62.376
G01 F30 X24.240 Y62.402
G01 F30 X24.269 Y62.428
G01 F30 X24.319 Y62.450
G01 F30 X24.400 Y62.509
G01 F30 X24.412 Y62.523
G01 F30 X24.420 Y62.527
G01 F30 X24.498 Y62.583
G01 F30 X24.533 Y62.618
G01 F30 X24.631 Y62.716
G01 F30 X24.650 Y62.733
G01 F30 X24.700 Y62.755
G01 F30 X24.785 Y62.817
G01 F30 X24.838 Y62.884
G01 F30 X24.882 Y62.916
G01 F30 X24.895 Y62.929
G01 F30 X24.903 Y62.933
G01 F30 X24.988 Y62.995
G01 F30 X25.042 Y63.062
G01 F30 X25.082 Y63.091
G01 F30 X25.120 Y63.129
G01 F30 X25.176 Y63.191
G01 F30 X25.212 Y63.250
G01 F30 X25.244 Y63.290
G01 F30 X25.293 Y63.325
G01 F30 X25.345 Y63.391
G01 F30 X25.390 Y63.424
G01 F30 X25.460 Y63.501
G01 F30 X25.488 Y63.555
G01 F30 X25.517 Y63.576
G01 F30 X25.587 Y63.653
G01 F30 X25.615 Y63.707
G01 F30 X25.644 Y63.728
G01 F30 X25.709 Y63.801
G01 F30 X25.743 Y63.855
G01 F30 X25.789 Y63.907
G01 F30 X25.833 Y63.989
G01 F30 X25.846 Y64.009
G01 F30 X25.871 Y64.039
G01 F30 X25.898 Y64.059
G01 F30 X25.968 Y64.136
G01 F30 X26.011 Y64.218
G01 F30 X26.021 Y64.235
G01 F30 X26.069 Y64.288
G01 F30 X26.112 Y64.371
G01 F30 X26.123 Y64.388
G01 F30 X26.168 Y64.438
G01 F30 X26.218 Y64.524
G01 F30 X26.249 Y64.617
G01 F30 X26.250 Y64.618
G01 F30 X26.273 Y64.644
G01 F30 X26.297 Y64.691
G01 F30 X26.321 Y64.717
G01 F30 X26.353 Y64.772
G01 F30 X26.374 Y64.796
G01 F30 X26.420 Y64.883
G01 F30 X26.447 Y64.930
G01 F30 X26.476 Y65.019
G01 F30 X26.488 Y65.048
G01 F30 X26.523 Y65.109
G01 F30 X26.552 Y65.197
G01 F30 X26.553 Y65.201
G01 F30 X26.575 Y65.225
G01 F30 X26.625 Y65.311
G01 F30 X26.655 Y65.403
G01 F30 X26.672 Y65.433
G01 F30 X26.691 Y65.480
G01 F30 X26.726 Y65.540
G01 F30 X26.757 Y65.633
G01 F30 X26.782 Y65.709
G01 F30 X26.787 Y65.744
G01 F30 X26.793 Y65.759
G01 F30 X26.828 Y65.820
G01 F30 X26.859 Y65.916
G01 F30 X26.864 Y65.973
G01 F30 X26.879 Y65.998
G01 F30 X26.906 Y66.085
G01 F30 X26.930 Y66.125
G01 F30 X26.960 Y66.220
G01 F30 X26.970 Y66.310
G01 F30 X26.970 Y66.335
G01 F30 X26.980 Y66.353
G01 F30 X27.011 Y66.449
G01 F30 X27.021 Y66.539
G01 F30 X27.021 Y66.596
G01 F30 X27.057 Y66.658
G01 F30 X27.088 Y66.753
G01 F30 X27.097 Y66.844
G01 F30 X27.097 Y66.857
G01 F30 X27.113 Y66.906
G01 F30 X27.122 Y66.996
G01 F30 X27.122 Y67.046
G01 F30 X27.133 Y67.064
G01 F30 X27.164 Y67.160
G01 F30 X27.173 Y67.250
G01 F30 X27.173 Y67.314
G01 F30 X27.189 Y67.363
G01 F30 X27.199 Y67.453
G01 F30 X27.199 Y67.548
G01 F30 X27.193 Y67.602
G01 F30 X27.199 Y67.657
G01 F30 X27.199 Y67.822
G01 F30 X27.215 Y67.871
G01 F30 X27.224 Y67.961
G01 F30 X27.224 Y68.056
G01 F30 X27.220 Y68.097
G01 F30 X27.224 Y68.139
G01 F30 X27.224 Y68.183
G01 F30 X27.215 Y68.271
G01 F30 X27.210 Y68.288
G01 F30 X27.215 Y68.303
G01 F30 X27.224 Y68.393
G01 F30 X27.224 Y68.513
G01 F30 X27.214 Y68.604
G01 F30 X27.199 Y68.651
G01 F30 X27.199 Y68.818
G01 F30 X27.194 Y68.859
G01 F30 X27.199 Y68.901
G01 F30 X27.199 Y68.970
G01 F30 X27.189 Y69.061
G01 F30 X27.173 Y69.109
G01 F30 X27.173 Y69.224
G01 F30 X27.164 Y69.315
G01 F30 X27.133 Y69.410
G01 F30 X27.122 Y69.428
G01 F30 X27.122 Y69.478
G01 F30 X27.113 Y69.566
G01 F30 X27.095 Y69.630
G01 F30 X27.088 Y69.693
G01 F30 X27.069 Y69.757
G01 F30 X27.062 Y69.823
G01 F30 X27.031 Y69.918
G01 F30 X27.014 Y69.947
G01 F30 X27.012 Y69.972
G01 F30 X26.993 Y70.036
G01 F30 X26.986 Y70.100
G01 F30 X26.967 Y70.163
G01 F30 X26.960 Y70.229
G01 F30 X26.930 Y70.324
G01 F30 X26.888 Y70.396
G01 F30 X26.884 Y70.433
G01 F30 X26.853 Y70.527
G01 F30 X26.827 Y70.606
G01 F30 X26.789 Y70.669
G01 F30 X26.787 Y70.674
G01 F30 X26.783 Y70.712
G01 F30 X26.761 Y70.776
G01 F30 X26.757 Y70.813
G01 F30 X26.726 Y70.908
G01 F30 X26.676 Y70.995
G01 F30 X26.659 Y71.015
G01 F30 X26.656 Y71.042
G01 F30 X26.625 Y71.137
G01 F30 X26.575 Y71.224
G01 F30 X26.561 Y71.239
G01 F30 X26.545 Y71.272
G01 F30 X26.523 Y71.340
G01 F30 X26.473 Y71.427
G01 F30 X26.458 Y71.444
G01 F30 X26.414 Y71.531
G01 F30 X26.383 Y71.582
G01 F30 X26.370 Y71.622
G01 F30 X26.332 Y71.684
G01 F30 X26.320 Y71.721
G01 F30 X26.270 Y71.808
G01 F30 X26.250 Y71.831
G01 F30 X26.244 Y71.848
G01 F30 X26.196 Y71.931
G01 F30 X26.158 Y71.978
G01 F30 X26.142 Y72.026
G01 F30 X26.092 Y72.113
G01 F30 X26.040 Y72.171
G01 F30 X26.030 Y72.182
G01 F30 X26.015 Y72.229
G01 F30 X25.965 Y72.316
G01 F30 X25.904 Y72.383
G01 F30 X25.891 Y72.395
G01 F30 X25.864 Y72.443
G01 F30 X25.801 Y72.512
G01 F30 X25.768 Y72.541
G01 F30 X25.727 Y72.586
G01 F30 X25.666 Y72.642
G01 F30 X25.666 Y72.643
G01 F30 X25.660 Y72.661
G01 F30 X25.610 Y72.748
G01 F30 X25.591 Y72.769
G01 F30 X25.559 Y72.824
G01 F30 X25.498 Y72.891
G01 F30 X25.439 Y72.946
G01 F30 X25.410 Y72.977
G01 F30 X25.381 Y73.027
G01 F30 X25.321 Y73.094
G01 F30 X25.260 Y73.150
G01 F30 X25.217 Y73.195
G01 F30 X25.194 Y73.221
G01 F30 X25.135 Y73.275
G01 F30 X25.090 Y73.325
G01 F30 X25.056 Y73.354
G01 F30 X25.016 Y73.399
G01 F30 X24.955 Y73.455
G01 F30 X24.913 Y73.499
G01 F30 X24.882 Y73.533
G01 F30 X24.801 Y73.592
G01 F30 X24.793 Y73.596
G01 F30 X24.781 Y73.609
G01 F30 X24.697 Y73.670
G01 F30 X24.683 Y73.676
G01 F30 X24.633 Y73.728
G01 F30 X24.603 Y73.762
G01 F30 X24.522 Y73.821
G01 F30 X24.510 Y73.826
G01 F30 X24.506 Y73.830
G01 F30 X24.479 Y73.860
G01 F30 X24.497 Y73.916
G01 F30 X24.506 Y74.007
G01 F30 X24.506 Y74.096
G01 F30 X24.522 Y74.145
G01 F30 X24.532 Y74.235
G01 F30 X24.532 Y74.330
G01 F30 X24.529 Y74.358
G01 F30 X24.532 Y74.389
G01 F30 X24.532 Y74.401
G01 F30 X24.547 Y74.449
G01 F30 X24.557 Y74.540
G01 F30 X24.557 Y74.609
G01 F30 X24.555 Y74.625
G01 F30 X24.557 Y74.641
G01 F30 X24.557 Y74.761
G01 F30 X24.547 Y74.852
G01 F30 X24.532 Y74.901
G01 F30 X24.532 Y75.066
G01 F30 X24.529 Y75.095
G01 F30 X24.532 Y75.124
G01 F30 X24.532 Y75.320
G01 F30 X24.522 Y75.408
G01 F30 X24.504 Y75.472
G01 F30 X24.503 Y75.476
G01 F30 X24.506 Y75.505
G01 F30 X24.506 Y75.574
G01 F30 X24.497 Y75.665
G01 F30 X24.468 Y75.752
G01 F30 X24.452 Y75.789
G01 F30 X24.446 Y75.840
G01 F30 X24.428 Y75.904
G01 F30 X24.420 Y75.970
G01 F30 X24.399 Y76.034
G01 F30 X24.395 Y76.071
G01 F30 X24.364 Y76.168
G01 F30 X24.325 Y76.231
G01 F30 X24.314 Y76.264
G01 F30 X24.300 Y76.310
G01 F30 X24.294 Y76.376
G01 F30 X24.263 Y76.471
G01 F30 X24.213 Y76.558
G01 F30 X24.197 Y76.575
G01 F30 X24.195 Y76.580
G01 F30 X24.192 Y76.604
G01 F30 X24.161 Y76.700
G01 F30 X24.117 Y76.776
G01 F30 X24.103 Y76.797
G01 F30 X24.085 Y76.852
G01 F30 X24.034 Y76.941
G01 F30 X24.015 Y76.961
G01 F30 X24.008 Y76.981
G01 F30 X23.970 Y77.042
G01 F30 X23.958 Y77.081
G01 F30 X23.908 Y77.167
G01 F30 X23.887 Y77.190
G01 F30 X23.869 Y77.221
G01 F30 X23.856 Y77.258
G01 F30 X23.806 Y77.346
G01 F30 X23.759 Y77.396
G01 F30 X23.729 Y77.449
G01 F30 X23.668 Y77.513
G01 F30 X23.642 Y77.541
G01 F30 X23.607 Y77.572
G01 F30 X23.582 Y77.598
G01 F30 X23.577 Y77.614
G01 F30 X23.527 Y77.701
G01 F30 X23.467 Y77.767
G01 F30 X23.428 Y77.804
G01 F30 X23.400 Y77.853
G01 F30 X23.340 Y77.920
G01 F30 X23.281 Y77.974
G01 F30 X23.238 Y78.022
G01 F30 X23.179 Y78.076
G01 F30 X23.130 Y78.131
G01 F30 X23.046 Y78.191
G01 F30 X22.993 Y78.213
G01 F30 X22.982 Y78.224
G01 F30 X22.957 Y78.252
G01 F30 X22.923 Y78.281
G01 F30 X22.876 Y78.334
G01 F30 X22.809 Y78.382
G01 F30 X22.766 Y78.413
G01 F30 X22.723 Y78.461
G01 F30 X22.642 Y78.520
G01 F30 X22.634 Y78.523
G01 F30 X22.622 Y78.537
G01 F30 X22.538 Y78.598
G01 F30 X22.467 Y78.626
G01 F30 X22.447 Y78.641
G01 F30 X22.431 Y78.650
G01 F30 X22.419 Y78.664
G01 F30 X22.337 Y78.723
G01 F30 X22.246 Y78.764
G01 F30 X22.218 Y78.770
G01 F30 X22.190 Y78.784
G01 F30 X22.134 Y78.824
G01 F30 X22.049 Y78.862
G01 F30 X22.024 Y78.870
G01 F30 X21.985 Y78.898
G01 F30 X21.918 Y78.932
G01 F30 X21.840 Y78.967
G01 F30 X21.795 Y78.976
G01 F30 X21.781 Y78.982
G01 F30 X21.753 Y79.002
G01 F30 X21.662 Y79.043
G01 F30 X21.625 Y79.051
G01 F30 X21.582 Y79.070
G01 F30 X21.502 Y79.084
G01 F30 X21.502 Y79.084
G01 F30 X21.474 Y79.104
G01 F30 X21.382 Y79.145
G01 F30 X21.284 Y79.165
G01 F30 X21.266 Y79.165
G01 F30 X21.253 Y79.171
G01 F30 X21.178 Y79.184
G01 F30 X21.154 Y79.195
G01 F30 X21.068 Y79.214
G01 F30 X21.003 Y79.223
G01 F30 X20.951 Y79.246
G01 F30 X20.853 Y79.267
G01 F30 X20.758 Y79.267
G01 F30 X20.747 Y79.272
G01 F30 X20.649 Y79.292
G01 F30 X20.529 Y79.292
G01 F30 X20.519 Y79.297
G01 F30 X20.421 Y79.318
G01 F30 X20.016 Y79.318
G01 F30 X19.954 Y79.305
G01 F30 X19.950 Y79.305
G01 F30 X19.887 Y79.318
G01 F30 X19.833 Y79.318
G01 F30 X19.833 Y79.333
G01 F30 X19.823 Y79.424
G01 F30 X19.792 Y79.519
G01 F30 X19.742 Y79.606
G01 F30 X19.675 Y79.680
G01 F30 X19.594 Y79.739
G01 F30 X19.503 Y79.779
G01 F30 X19.405 Y79.800
G01 F30 X19.229 Y79.800
G01 F30 X19.131 Y79.779
G01 F30 X19.039 Y79.739
G01 F30 X18.994 Y79.706
G01 F30 X18.994 Y80.553
G01 F30 X18.985 Y80.643
G01 F30 X18.954 Y80.738
G01 F30 X18.904 Y80.825
G01 F30 X18.837 Y80.899
G01 F30 X18.759 Y80.956
G01 F30 X18.692 Y80.989
G01 F30 X18.614 Y81.024
G01 F30 X18.516 Y81.045
G01 F30 X18.390 Y81.045
G00 F3000 Z3.000
G00 F3000 X63.628 Y80.842
G00 F1500 Z0
G01 F30 Z-0.200
G01 F30 X63.527 Y80.820
G01 F30 X63.519 Y80.816
G01 F30 X63.247 Y80.816
G01 F30 X63.233 Y80.814
G01 F30 X63.220 Y80.816
G01 F30 X63.094 Y80.816
G01 F30 X62.992 Y80.795
G01 F30 X62.935 Y80.766
G01 F30 X62.764 Y80.766
G01 F30 X62.662 Y80.744
G01 F30 X62.605 Y80.715
G01 F30 X62.485 Y80.715
G01 F30 X62.387 Y80.694
G01 F30 X62.377 Y80.689
G01 F30 X62.307 Y80.689
G01 F30 X62.209 Y80.669
G01 F30 X62.140 Y80.638
G01 F30 X62.125 Y80.632
G01 F30 X62.057 Y80.618
G01 F30 X62.046 Y80.613
G01 F30 X62.002 Y80.613
G01 F30 X61.900 Y80.591
G01 F30 X61.843 Y80.562
G01 F30 X61.824 Y80.562
G01 F30 X61.727 Y80.541
G01 F30 X61.657 Y80.511
G01 F30 X61.642 Y80.505
G01 F30 X61.574 Y80.491
G01 F30 X61.535 Y80.473
G01 F30 X61.495 Y80.465
G01 F30 X61.434 Y80.435
G01 F30 X61.418 Y80.435
G01 F30 X61.320 Y80.415
G01 F30 X61.280 Y80.397
G01 F30 X61.239 Y80.388
G01 F30 X61.161 Y80.348
G01 F30 X61.112 Y80.337
G01 F30 X61.034 Y80.297
G01 F30 X61.000 Y80.290
G01 F30 X60.960 Y80.277
G01 F30 X60.888 Y80.262
G01 F30 X60.801 Y80.223
G01 F30 X60.759 Y80.196
G01 F30 X60.706 Y80.185
G01 F30 X60.627 Y80.145
G01 F30 X60.583 Y80.135
G01 F30 X60.491 Y80.094
G01 F30 X60.449 Y80.063
G01 F30 X60.431 Y80.059
G01 F30 X60.340 Y80.018
G01 F30 X60.282 Y79.977
G01 F30 X60.266 Y79.968
G01 F30 X60.228 Y79.946
G01 F30 X60.214 Y79.940
G01 F30 X60.177 Y79.932
G01 F30 X60.084 Y79.891
G01 F30 X60.043 Y79.860
G01 F30 X60.025 Y79.856
G01 F30 X59.933 Y79.815
G01 F30 X59.852 Y79.756
G01 F30 X59.820 Y79.719
G01 F30 X59.805 Y79.713
G01 F30 X59.764 Y79.682
G01 F30 X59.742 Y79.677
G01 F30 X59.657 Y79.636
G01 F30 X59.603 Y79.612
G01 F30 X59.546 Y79.570
G01 F30 X59.521 Y79.557
G01 F30 X59.470 Y79.519
G01 F30 X59.445 Y79.506
G01 F30 X59.368 Y79.450
G01 F30 X59.331 Y79.408
G01 F30 X59.288 Y79.398
G01 F30 X59.197 Y79.358
G01 F30 X59.119 Y79.302
G01 F30 X59.059 Y79.241
G01 F30 X59.049 Y79.231
G01 F30 X59.041 Y79.227
G01 F30 X58.993 Y79.205
G01 F30 X58.916 Y79.149
G01 F30 X58.851 Y79.084
G01 F30 X58.813 Y79.039
G01 F30 X58.784 Y79.018
G01 F30 X58.763 Y78.994
G01 F30 X58.755 Y78.992
G01 F30 X58.663 Y78.951
G01 F30 X58.580 Y78.891
G01 F30 X58.533 Y78.836
G01 F30 X58.510 Y78.819
G01 F30 X58.449 Y78.759
G01 F30 X58.427 Y78.736
G01 F30 X58.381 Y78.694
G01 F30 X58.333 Y78.672
G01 F30 X58.250 Y78.612
G01 F30 X58.203 Y78.557
G01 F30 X58.176 Y78.537
G01 F30 X58.117 Y78.472
G01 F30 X58.095 Y78.444
G01 F30 X58.047 Y78.409
G01 F30 X58.000 Y78.354
G01 F30 X57.973 Y78.334
G01 F30 X57.908 Y78.261
G01 F30 X57.873 Y78.206
G01 F30 X57.864 Y78.195
G01 F30 X57.850 Y78.189
G01 F30 X57.773 Y78.133
G01 F30 X57.710 Y78.070
G01 F30 X57.652 Y78.005
G01 F30 X57.602 Y77.919
G01 F30 X57.596 Y77.901
G01 F30 X57.575 Y77.878
G01 F30 X57.560 Y77.851
G01 F30 X57.494 Y77.803
G01 F30 X57.430 Y77.739
G01 F30 X57.370 Y77.672
G01 F30 X57.342 Y77.618
G01 F30 X57.312 Y77.597
G01 F30 X57.245 Y77.523
G01 F30 X57.240 Y77.514
G01 F30 X57.181 Y77.514
G01 F30 X57.171 Y77.519
G01 F30 X57.079 Y77.538
G01 F30 X56.939 Y77.549
G01 F30 X56.892 Y77.570
G01 F30 X56.798 Y77.590
G01 F30 X56.581 Y77.600
G01 F30 X56.536 Y77.621
G01 F30 X56.438 Y77.641
G01 F30 X56.084 Y77.641
G01 F30 X55.982 Y77.620
G01 F30 X55.924 Y77.591
G01 F30 X55.424 Y77.591
G01 F30 X55.326 Y77.570
G01 F30 X55.264 Y77.542
G01 F30 X55.254 Y77.540
G01 F30 X55.119 Y77.540
G01 F30 X55.021 Y77.519
G01 F30 X55.011 Y77.514
G01 F30 X54.916 Y77.514
G01 F30 X54.813 Y77.493
G01 F30 X54.756 Y77.464
G01 F30 X54.738 Y77.464
G01 F30 X54.635 Y77.442
G01 F30 X54.557 Y77.401
G01 F30 X54.523 Y77.394
G01 F30 X54.483 Y77.382
G01 F30 X54.411 Y77.367
G01 F30 X54.328 Y77.330
G01 F30 X54.296 Y77.311
G01 F30 X54.255 Y77.311
G01 F30 X54.157 Y77.290
G01 F30 X54.066 Y77.250
G01 F30 X54.009 Y77.208
G01 F30 X53.984 Y77.195
G01 F30 X53.967 Y77.182
G01 F30 X53.878 Y77.163
G01 F30 X53.791 Y77.124
G01 F30 X53.749 Y77.097
G01 F30 X53.700 Y77.087
G01 F30 X53.609 Y77.046
G01 F30 X53.535 Y76.993
G01 F30 X53.504 Y76.965
G01 F30 X53.460 Y76.944
G01 F30 X53.405 Y76.919
G01 F30 X53.362 Y76.888
G01 F30 X53.344 Y76.884
G01 F30 X53.253 Y76.843
G01 F30 X53.171 Y76.784
G01 F30 X53.139 Y76.748
G01 F30 X53.126 Y76.742
G01 F30 X53.057 Y76.691
G01 F30 X52.999 Y76.665
G01 F30 X52.922 Y76.609
G01 F30 X52.884 Y76.571
G01 F30 X52.834 Y76.516
G01 F30 X52.815 Y76.492
G01 F30 X52.809 Y76.488
G01 F30 X52.760 Y76.478
G01 F30 X52.669 Y76.437
G01 F30 X52.588 Y76.378
G01 F30 X52.521 Y76.304
G01 F30 X52.486 Y76.243
G01 F30 X52.466 Y76.234
G01 F30 X52.385 Y76.175
G01 F30 X52.320 Y76.102
G01 F30 X52.285 Y76.047
G01 F30 X52.276 Y76.036
G01 F30 X52.262 Y76.030
G01 F30 X52.181 Y75.972
G01 F30 X52.114 Y75.897
G01 F30 X52.064 Y75.811
G01 F30 X52.058 Y75.790
G01 F30 X52.056 Y75.788
G01 F30 X52.029 Y75.768
G01 F30 X51.964 Y75.696
G01 F30 X51.930 Y75.642
G01 F30 X51.886 Y75.592
G01 F30 X51.854 Y75.537
G01 F30 X51.843 Y75.525
G01 F30 X51.821 Y75.497
G01 F30 X51.775 Y75.464
G01 F30 X51.710 Y75.391
G01 F30 X51.676 Y75.337
G01 F30 X51.632 Y75.288
G01 F30 X51.582 Y75.201
G01 F30 X51.576 Y75.183
G01 F30 X51.556 Y75.161
G01 F30 X51.524 Y75.105
G01 F30 X51.502 Y75.082
G01 F30 X51.457 Y74.995
G01 F30 X51.448 Y74.978
G01 F30 X51.429 Y74.958
G01 F30 X51.379 Y74.871
G01 F30 X51.348 Y74.776
G01 F30 X51.347 Y74.770
G01 F30 X51.321 Y74.725
G01 F30 X51.302 Y74.704
G01 F30 X51.252 Y74.617
G01 F30 X51.233 Y74.559
G01 F30 X51.226 Y74.551
G01 F30 X51.175 Y74.464
G01 F30 X51.145 Y74.372
G01 F30 X51.141 Y74.337
G01 F30 X51.134 Y74.322
G01 F30 X51.102 Y74.267
G01 F30 X51.083 Y74.220
G01 F30 X51.048 Y74.160
G01 F30 X51.018 Y74.067
G01 F30 X51.012 Y74.022
G01 F30 X51.000 Y73.979
G01 F30 X50.972 Y73.931
G01 F30 X50.941 Y73.836
G01 F30 X50.932 Y73.745
G01 F30 X50.932 Y73.714
G01 F30 X50.931 Y73.712
G01 F30 X50.896 Y73.651
G01 F30 X50.865 Y73.556
G01 F30 X50.856 Y73.466
G01 F30 X50.856 Y73.416
G01 F30 X50.845 Y73.398
G01 F30 X50.814 Y73.302
G01 F30 X50.805 Y73.212
G01 F30 X50.805 Y73.143
G01 F30 X50.808 Y73.112
G01 F30 X50.807 Y73.105
G01 F30 X50.789 Y73.048
G01 F30 X50.779 Y72.958
G01 F30 X50.779 Y72.882
G01 F30 X50.769 Y72.864
G01 F30 X50.738 Y72.769
G01 F30 X50.729 Y72.678
G01 F30 X50.729 Y72.305
G01 F30 X50.738 Y72.214
G01 F30 X50.751 Y72.174
G01 F30 X50.738 Y72.134
G01 F30 X50.729 Y72.044
G01 F30 X50.729 Y71.975
G01 F30 X50.734 Y71.926
G01 F30 X50.598 Y71.926
G01 F30 X50.500 Y71.906
G01 F30 X50.408 Y71.865
G01 F30 X50.327 Y71.806
G01 F30 X50.260 Y71.732
G01 F30 X50.210 Y71.645
G01 F30 X50.179 Y71.550
G01 F30 X50.170 Y71.459
G01 F30 X50.170 Y71.365
G01 F30 X50.179 Y71.275
G01 F30 X50.210 Y71.179
G01 F30 X50.260 Y71.093
G01 F30 X50.327 Y71.018
G01 F30 X50.408 Y70.959
G01 F30 X50.500 Y70.919
G01 F30 X50.539 Y70.910
G01 F30 X49.124 Y70.910
G01 F30 X49.027 Y70.889
G01 F30 X48.935 Y70.849
G01 F30 X48.858 Y70.793
G01 F30 X48.794 Y70.729
G01 F30 X48.736 Y70.665
G01 F30 X48.686 Y70.578
G01 F30 X48.655 Y70.483
G01 F30 X48.646 Y70.392
G01 F30 X48.646 Y70.349
G01 F30 X48.655 Y70.258
G01 F30 X48.686 Y70.163
G01 F30 X48.736 Y70.077
G01 F30 X48.803 Y70.002
G01 F30 X48.884 Y69.943
G01 F30 X48.976 Y69.903
G01 F30 X49.074 Y69.882
G01 F30 X49.224 Y69.882
G01 F30 X49.322 Y69.903
G01 F30 X49.333 Y69.907
G01 F30 X51.297 Y69.907
G01 F30 X51.304 Y69.895
G01 F30 X51.348 Y69.850
G01 F30 X51.354 Y69.834
G01 F30 X51.379 Y69.757
G01 F30 X51.429 Y69.670
G01 F30 X51.444 Y69.653
G01 F30 X51.461 Y69.619
G01 F30 X51.505 Y69.543
G01 F30 X51.524 Y69.522
G01 F30 X51.556 Y69.467
G01 F30 X51.576 Y69.444
G01 F30 X51.582 Y69.427
G01 F30 X51.632 Y69.340
G01 F30 X51.652 Y69.317
G01 F30 X51.658 Y69.300
G01 F30 X51.708 Y69.213
G01 F30 X51.767 Y69.147
G01 F30 X51.807 Y69.110
G01 F30 X51.836 Y69.059
G01 F30 X51.882 Y69.009
G01 F30 X51.911 Y68.959
G01 F30 X51.971 Y68.893
G01 F30 X52.010 Y68.856
G01 F30 X52.040 Y68.803
G01 F30 X52.109 Y68.734
G01 F30 X52.151 Y68.687
G01 F30 X52.185 Y68.658
G01 F30 X52.227 Y68.611
G01 F30 X52.261 Y68.581
G01 F30 X52.310 Y68.528
G01 F30 X52.358 Y68.494
G01 F30 X52.369 Y68.476
G01 F30 X52.438 Y68.400
G01 F30 X52.485 Y68.368
G01 F30 X52.497 Y68.347
G01 F30 X52.564 Y68.276
G01 F30 X52.595 Y68.248
G01 F30 X52.639 Y68.199
G01 F30 X52.716 Y68.143
G01 F30 X52.791 Y68.104
G01 F30 X52.841 Y68.068
G01 F30 X52.859 Y68.058
G01 F30 X52.871 Y68.048
G01 F30 X52.918 Y67.996
G01 F30 X52.999 Y67.937
G01 F30 X53.092 Y67.895
G01 F30 X53.132 Y67.888
G01 F30 X53.172 Y67.843
G01 F30 X53.253 Y67.784
G01 F30 X53.330 Y67.750
G01 F30 X53.353 Y67.741
G01 F30 X53.375 Y67.716
G01 F30 X53.451 Y67.661
G01 F30 X53.475 Y67.648
G01 F30 X53.532 Y67.607
G01 F30 X53.624 Y67.566
G01 F30 X53.665 Y67.557
G01 F30 X53.683 Y67.550
G01 F30 X53.710 Y67.530
G01 F30 X53.802 Y67.490
G01 F30 X53.840 Y67.482
G01 F30 X53.841 Y67.481
G01 F30 X53.858 Y67.462
G01 F30 X53.939 Y67.403
G01 F30 X54.030 Y67.363
G01 F30 X54.128 Y67.342
G01 F30 X54.147 Y67.342
G01 F30 X54.157 Y67.337
G01 F30 X54.225 Y67.323
G01 F30 X54.240 Y67.317
G01 F30 X54.310 Y67.287
G01 F30 X54.408 Y67.266
G01 F30 X54.426 Y67.266
G01 F30 X54.494 Y67.241
G01 F30 X54.553 Y67.215
G01 F30 X54.621 Y67.191
G01 F30 X54.691 Y67.160
G01 F30 X54.789 Y67.139
G01 F30 X54.807 Y67.139
G01 F30 X54.818 Y67.134
G01 F30 X54.904 Y67.116
G01 F30 X54.968 Y67.107
G01 F30 X55.021 Y67.083
G01 F30 X55.119 Y67.063
G01 F30 X55.239 Y67.063
G01 F30 X55.250 Y67.058
G01 F30 X55.347 Y67.037
G01 F30 X55.404 Y67.037
G01 F30 X55.451 Y67.031
G01 F30 X55.504 Y67.007
G01 F30 X55.601 Y66.986
G01 F30 X56.590 Y66.986
G01 F30 X56.691 Y67.008
G01 F30 X56.752 Y67.037
G01 F30 X56.844 Y67.037
G01 F30 X56.942 Y67.058
G01 F30 X56.953 Y67.063
G01 F30 X57.124 Y67.063
G01 F30 X57.226 Y67.084
G01 F30 X57.251 Y67.097
G01 F30 X57.282 Y67.064
G01 F30 X57.312 Y67.031
G01 F30 X57.318 Y67.026
G01 F30 X57.322 Y67.014
G01 F30 X57.372 Y66.927
G01 F30 X57.391 Y66.906
G01 F30 X57.423 Y66.851
G01 F30 X57.485 Y66.782
G01 F30 X57.522 Y66.750
G01 F30 X57.575 Y66.697
G01 F30 X57.627 Y66.645
G01 F30 X57.650 Y66.621
G01 F30 X57.689 Y66.581
G01 F30 X57.712 Y66.555
G01 F30 X57.774 Y66.498
G01 F30 X57.830 Y66.442
G01 F30 X57.850 Y66.422
G01 F30 X57.856 Y66.404
G01 F30 X57.906 Y66.317
G01 F30 X57.973 Y66.243
G01 F30 X58.050 Y66.187
G01 F30 X58.114 Y66.155
G01 F30 X58.121 Y66.151
G01 F30 X58.160 Y66.112
G01 F30 X58.181 Y66.091
G01 F30 X58.229 Y66.038
G01 F30 X58.276 Y66.006
G01 F30 X58.288 Y65.985
G01 F30 X58.360 Y65.909
G01 F30 X58.390 Y65.882
G01 F30 X58.425 Y65.845
G01 F30 X58.448 Y65.819
G01 F30 X58.507 Y65.764
G01 F30 X58.557 Y65.710
G01 F30 X58.640 Y65.649
G01 F30 X58.691 Y65.628
G01 F30 X58.709 Y65.608
G01 F30 X58.786 Y65.552
G01 F30 X58.805 Y65.542
G01 F30 X58.832 Y65.514
G01 F30 X58.861 Y65.481
G01 F30 X58.945 Y65.420
G01 F30 X59.016 Y65.392
G01 F30 X59.044 Y65.371
G01 F30 X59.061 Y65.364
G01 F30 X59.116 Y65.303
G01 F30 X59.194 Y65.247
G01 F30 X59.255 Y65.216
G01 F30 X59.267 Y65.210
G01 F30 X59.324 Y65.168
G01 F30 X59.341 Y65.161
G01 F30 X59.395 Y65.100
G01 F30 X59.476 Y65.041
G01 F30 X59.567 Y65.001
G01 F30 X59.598 Y64.994
G01 F30 X59.623 Y64.981
G01 F30 X59.674 Y64.944
G01 F30 X59.698 Y64.930
G01 F30 X59.752 Y64.892
G01 F30 X59.827 Y64.853
G01 F30 X59.877 Y64.817
G01 F30 X59.901 Y64.803
G01 F30 X59.959 Y64.762
G01 F30 X60.052 Y64.720
G01 F30 X60.102 Y64.711
G01 F30 X60.136 Y64.686
G01 F30 X60.228 Y64.645
G01 F30 X60.296 Y64.630
G01 F30 X60.307 Y64.626
G01 F30 X60.347 Y64.606
G01 F30 X60.359 Y64.600
G01 F30 X60.412 Y64.561
G01 F30 X60.487 Y64.523
G01 F30 X60.543 Y64.482
G01 F30 X60.634 Y64.442
G01 F30 X60.723 Y64.423
G01 F30 X60.746 Y64.406
G01 F30 X60.827 Y64.370
G01 F30 X60.896 Y64.345
G01 F30 X60.965 Y64.315
G01 F30 X61.062 Y64.294
G01 F30 X61.081 Y64.294
G01 F30 X61.104 Y64.277
G01 F30 X61.175 Y64.249
G01 F30 X61.203 Y64.228
G01 F30 X61.297 Y64.187
G01 F30 X61.372 Y64.173
G01 F30 X61.385 Y64.167
G01 F30 X61.455 Y64.142
G01 F30 X61.523 Y64.112
G01 F30 X61.621 Y64.091
G01 F30 X61.742 Y64.091
G01 F30 X61.762 Y64.076
G01 F30 X61.854 Y64.035
G01 F30 X61.940 Y64.017
G01 F30 X62.004 Y64.008
G01 F30 X62.057 Y63.985
G01 F30 X62.155 Y63.964
G01 F30 X62.173 Y63.964
G01 F30 X62.184 Y63.959
G01 F30 X62.282 Y63.938
G01 F30 X62.458 Y63.938
G01 F30 X62.467 Y63.940
G01 F30 X62.539 Y63.908
G01 F30 X62.637 Y63.888
G01 F30 X62.656 Y63.888
G01 F30 X62.666 Y63.883
G01 F30 X62.761 Y63.863
G01 F30 X63.105 Y63.852
G01 F30 X63.149 Y63.832
G01 F30 X63.247 Y63.811
G01 F30 X63.354 Y63.811
G01 F30 X63.401 Y63.805
G01 F30 X63.454 Y63.781
G01 F30 X63.552 Y63.761
G01 F30 X64.207 Y63.761
G01 F30 X64.266 Y63.771
G01 F30 X64.314 Y63.761
G01 F30 X64.541 Y63.761
G01 F30 X64.642 Y63.782
G01 F30 X64.702 Y63.811
G01 F30 X64.769 Y63.811
G01 F30 X64.808 Y63.820
G01 F30 X64.847 Y63.811
G01 F30 X65.023 Y63.811
G01 F30 X65.125 Y63.833
G01 F30 X65.183 Y63.862
G01 F30 X65.277 Y63.862
G01 F30 X65.375 Y63.883
G01 F30 X65.386 Y63.888
G01 F30 X65.557 Y63.888
G01 F30 X65.654 Y63.908
G01 F30 X65.724 Y63.939
G01 F30 X65.739 Y63.945
G01 F30 X65.810 Y63.960
G01 F30 X65.818 Y63.964
G01 F30 X65.836 Y63.964
G01 F30 X65.938 Y63.985
G01 F30 X65.996 Y64.014
G01 F30 X66.090 Y64.014
G01 F30 X66.188 Y64.035
G01 F30 X66.257 Y64.066
G01 F30 X66.272 Y64.072
G01 F30 X66.340 Y64.086
G01 F30 X66.351 Y64.091
G01 F30 X66.369 Y64.091
G01 F30 X66.467 Y64.112
G01 F30 X66.537 Y64.142
G01 F30 X66.552 Y64.148
G01 F30 X66.620 Y64.162
G01 F30 X66.630 Y64.167
G01 F30 X66.649 Y64.167
G01 F30 X66.747 Y64.188
G01 F30 X66.838 Y64.228
G01 F30 X66.908 Y64.279
G01 F30 X66.910 Y64.281
G01 F30 X66.950 Y64.289
G01 F30 X66.960 Y64.294
G01 F30 X66.979 Y64.294
G01 F30 X67.077 Y64.315
G01 F30 X67.169 Y64.356
G01 F30 X67.212 Y64.387
G01 F30 X67.234 Y64.392
G01 F30 X67.291 Y64.421
G01 F30 X67.309 Y64.421
G01 F30 X67.407 Y64.442
G01 F30 X67.499 Y64.483
G01 F30 X67.542 Y64.514
G01 F30 X67.560 Y64.518
G01 F30 X67.647 Y64.557
G01 F30 X67.689 Y64.584
G01 F30 X67.737 Y64.594
G01 F30 X67.829 Y64.635
G01 F30 X67.886 Y64.676
G01 F30 X67.911 Y64.690
G01 F30 X67.948 Y64.717
G01 F30 X67.966 Y64.721
G01 F30 X68.053 Y64.760
G01 F30 X68.095 Y64.787
G01 F30 X68.144 Y64.797
G01 F30 X68.235 Y64.838
G01 F30 X68.320 Y64.900
G01 F30 X68.338 Y64.922
G01 F30 X68.347 Y64.924
G01 F30 X68.438 Y64.965
G01 F30 X68.519 Y65.024
G01 F30 X68.532 Y65.037
G01 F30 X68.540 Y65.041
G01 F30 X68.613 Y65.094
G01 F30 X68.642 Y65.120
G01 F30 X68.677 Y65.127
G01 F30 X68.769 Y65.168
G01 F30 X68.850 Y65.227
G01 F30 X68.862 Y65.241
G01 F30 X68.870 Y65.244
G01 F30 X68.951 Y65.303
G01 F30 X68.989 Y65.345
G01 F30 X69.048 Y65.371
G01 F30 X69.117 Y65.422
G01 F30 X69.175 Y65.448
G01 F30 X69.256 Y65.506
G01 F30 X69.316 Y65.573
G01 F30 X69.344 Y65.610
G01 F30 X69.378 Y65.625
G01 F30 X69.461 Y65.686
G01 F30 X69.508 Y65.741
G01 F30 X69.523 Y65.752
G01 F30 X69.581 Y65.778
G01 F30 X69.662 Y65.837
G01 F30 X69.732 Y65.914
G01 F30 X69.766 Y65.979
G01 F30 X69.816 Y66.015
G01 F30 X69.847 Y66.051
G01 F30 X69.861 Y66.057
G01 F30 X69.942 Y66.116
G01 F30 X70.001 Y66.181
G01 F30 X70.022 Y66.209
G01 F30 X70.071 Y66.244
G01 F30 X70.118 Y66.299
G01 F30 X70.145 Y66.319
G01 F30 X70.204 Y66.385
G01 F30 X70.226 Y66.413
G01 F30 X70.272 Y66.446
G01 F30 X70.337 Y66.519
G01 F30 X70.368 Y66.569
G01 F30 X70.383 Y66.583
G01 F30 X70.386 Y66.587
G01 F30 X70.394 Y66.591
G01 F30 X70.475 Y66.649
G01 F30 X70.545 Y66.727
G01 F30 X70.590 Y66.813
G01 F30 X70.602 Y66.834
G01 F30 X70.628 Y66.853
G01 F30 X70.695 Y66.927
G01 F30 X70.745 Y67.014
G01 F30 X70.749 Y67.026
G01 F30 X70.760 Y67.037
G01 F30 X70.789 Y67.066
G01 F30 X70.848 Y67.132
G01 F30 X70.873 Y67.177
G01 F30 X70.882 Y67.183
G01 F30 X70.951 Y67.260
G01 F30 X70.996 Y67.347
G01 F30 X71.008 Y67.367
G01 F30 X71.008 Y67.367
G01 F30 X71.034 Y67.386
G01 F30 X71.101 Y67.460
G01 F30 X71.151 Y67.547
G01 F30 X71.157 Y67.565
G01 F30 X71.177 Y67.587
G01 F30 X71.209 Y67.643
G01 F30 X71.228 Y67.663
G01 F30 X71.280 Y67.753
G01 F30 X71.301 Y67.829
G01 F30 X71.321 Y67.863
G01 F30 X71.337 Y67.893
G01 F30 X71.373 Y67.930
G01 F30 X71.431 Y67.994
G01 F30 X71.463 Y68.049
G01 F30 X71.482 Y68.070
G01 F30 X71.532 Y68.156
G01 F30 X71.561 Y68.244
G01 F30 X71.572 Y68.271
G01 F30 X71.590 Y68.300
G01 F30 X71.634 Y68.349
G01 F30 X71.681 Y68.431
G01 F30 X71.700 Y68.477
G01 F30 X71.735 Y68.538
G01 F30 X71.765 Y68.630
G01 F30 X71.770 Y68.665
G01 F30 X71.776 Y68.680
G01 F30 X71.811 Y68.740
G01 F30 X71.831 Y68.799
G01 F30 X71.838 Y68.806
G01 F30 X71.869 Y68.862
G01 F30 X71.888 Y68.883
G01 F30 X71.938 Y68.969
G01 F30 X71.969 Y69.065
G01 F30 X71.973 Y69.100
G01 F30 X72.015 Y69.173
G01 F30 X72.046 Y69.268
G01 F30 X72.055 Y69.359
G01 F30 X72.055 Y69.365
G01 F30 X72.091 Y69.427
G01 F30 X72.122 Y69.522
G01 F30 X72.125 Y69.555
G01 F30 X72.139 Y69.582
G01 F30 X72.167 Y69.630
G01 F30 X72.198 Y69.725
G01 F30 X72.201 Y69.753
G01 F30 X72.218 Y69.782
G01 F30 X72.249 Y69.877
G01 F30 X72.258 Y69.969
G01 F30 X72.258 Y70.009
G01 F30 X72.266 Y70.039
G01 F30 X72.294 Y70.087
G01 F30 X72.325 Y70.182
G01 F30 X72.334 Y70.273
G01 F30 X72.334 Y70.298
G01 F30 X72.345 Y70.316
G01 F30 X72.376 Y70.412
G01 F30 X72.383 Y70.481
G01 F30 X72.401 Y70.538
G01 F30 X72.411 Y70.628
G01 F30 X72.411 Y70.704
G01 F30 X72.421 Y70.722
G01 F30 X72.452 Y70.817
G01 F30 X72.461 Y70.908
G01 F30 X72.461 Y70.972
G01 F30 X72.477 Y71.020
G01 F30 X72.487 Y71.110
G01 F30 X72.497 Y71.129
G01 F30 X72.528 Y71.224
G01 F30 X72.538 Y71.314
G01 F30 X72.538 Y71.586
G01 F30 X72.528 Y71.677
G01 F30 X72.528 Y71.678
G01 F30 X72.548 Y71.713
G01 F30 X72.579 Y71.808
G01 F30 X72.588 Y71.898
G01 F30 X72.588 Y71.942
G01 F30 X72.587 Y71.958
G01 F30 X72.588 Y71.974
G01 F30 X72.588 Y72.399
G01 F30 X72.587 Y72.415
G01 F30 X72.588 Y72.432
G01 F30 X72.588 Y72.551
G01 F30 X72.583 Y72.606
G01 F30 X72.588 Y72.660
G01 F30 X72.588 Y72.755
G01 F30 X72.579 Y72.845
G01 F30 X72.550 Y72.933
G01 F30 X72.535 Y72.966
G01 F30 X72.538 Y72.990
G01 F30 X72.538 Y73.161
G01 F30 X72.528 Y73.252
G01 F30 X72.499 Y73.340
G01 F30 X72.484 Y73.372
G01 F30 X72.487 Y73.397
G01 F30 X72.487 Y73.491
G01 F30 X72.478 Y73.579
G01 F30 X72.461 Y73.634
G01 F30 X72.461 Y73.771
G01 F30 X72.452 Y73.861
G01 F30 X72.421 Y73.956
G01 F30 X72.411 Y73.974
G01 F30 X72.401 Y74.064
G01 F30 X72.372 Y74.155
G01 F30 X72.338 Y74.222
G01 F30 X72.334 Y74.228
G01 F30 X72.325 Y74.318
G01 F30 X72.294 Y74.413
G01 F30 X72.284 Y74.432
G01 F30 X72.274 Y74.522
G01 F30 X72.258 Y74.570
G01 F30 X72.258 Y74.634
G01 F30 X72.249 Y74.725
G01 F30 X72.220 Y74.813
G01 F30 X72.190 Y74.877
G01 F30 X72.180 Y74.913
G01 F30 X72.172 Y74.979
G01 F30 X72.142 Y75.074
G01 F30 X72.091 Y75.162
G01 F30 X72.070 Y75.184
G01 F30 X72.040 Y75.277
G01 F30 X72.015 Y75.353
G01 F30 X71.979 Y75.415
G01 F30 X71.979 Y75.422
G01 F30 X71.969 Y75.512
G01 F30 X71.938 Y75.607
G01 F30 X71.888 Y75.694
G01 F30 X71.869 Y75.715
G01 F30 X71.844 Y75.760
G01 F30 X71.829 Y75.781
G01 F30 X71.811 Y75.836
G01 F30 X71.767 Y75.913
G01 F30 X71.766 Y75.919
G01 F30 X71.735 Y76.014
G01 F30 X71.685 Y76.100
G01 F30 X71.666 Y76.121
G01 F30 X71.643 Y76.162
G01 F30 X71.639 Y76.198
G01 F30 X71.608 Y76.293
G01 F30 X71.558 Y76.380
G01 F30 X71.539 Y76.401
G01 F30 X71.507 Y76.456
G01 F30 X71.487 Y76.479
G01 F30 X71.481 Y76.496
G01 F30 X71.431 Y76.583
G01 F30 X71.379 Y76.641
G01 F30 X71.369 Y76.653
G01 F30 X71.354 Y76.700
G01 F30 X71.304 Y76.786
G01 F30 X71.243 Y76.854
G01 F30 X71.227 Y76.903
G01 F30 X71.176 Y76.991
G01 F30 X71.157 Y77.011
G01 F30 X71.151 Y77.030
G01 F30 X71.101 Y77.116
G01 F30 X71.039 Y77.186
G01 F30 X71.005 Y77.214
G01 F30 X71.004 Y77.215
G01 F30 X70.999 Y77.233
G01 F30 X70.949 Y77.320
G01 F30 X70.888 Y77.387
G01 F30 X70.874 Y77.399
G01 F30 X70.846 Y77.449
G01 F30 X70.805 Y77.491
G01 F30 X70.789 Y77.524
G01 F30 X70.743 Y77.603
G01 F30 X70.675 Y77.672
G01 F30 X70.632 Y77.719
G01 F30 X70.599 Y77.748
G01 F30 X70.556 Y77.795
G01 F30 X70.523 Y77.824
G01 F30 X70.491 Y77.878
G01 F30 X70.429 Y77.948
G01 F30 X70.402 Y77.971
G01 F30 X70.364 Y78.007
G01 F30 X70.344 Y78.028
G01 F30 X70.338 Y78.046
G01 F30 X70.288 Y78.132
G01 F30 X70.219 Y78.209
G01 F30 X70.172 Y78.241
G01 F30 X70.160 Y78.261
G01 F30 X70.094 Y78.331
G01 F30 X70.062 Y78.361
G01 F30 X70.018 Y78.410
G01 F30 X69.937 Y78.469
G01 F30 X69.920 Y78.476
G01 F30 X69.865 Y78.537
G01 F30 X69.788 Y78.594
G01 F30 X69.770 Y78.602
G01 F30 X69.753 Y78.618
G01 F30 X69.734 Y78.638
G01 F30 X69.688 Y78.689
G01 F30 X69.618 Y78.740
G01 F30 X69.602 Y78.767
G01 F30 X69.535 Y78.842
G01 F30 X69.460 Y78.897
G01 F30 X69.433 Y78.911
G01 F30 X69.410 Y78.927
G01 F30 X69.399 Y78.945
G01 F30 X69.332 Y79.020
G01 F30 X69.257 Y79.074
G01 F30 X69.183 Y79.115
G01 F30 X69.154 Y79.147
G01 F30 X69.073 Y79.206
G01 F30 X69.065 Y79.209
G01 F30 X69.053 Y79.223
G01 F30 X68.972 Y79.282
G01 F30 X68.914 Y79.307
G01 F30 X68.912 Y79.309
G01 F30 X68.875 Y79.350
G01 F30 X68.798 Y79.406
G01 F30 X68.722 Y79.445
G01 F30 X68.667 Y79.485
G01 F30 X68.590 Y79.519
G01 F30 X68.567 Y79.529
G01 F30 X68.545 Y79.553
G01 F30 X68.464 Y79.612
G01 F30 X68.372 Y79.653
G01 F30 X68.336 Y79.660
G01 F30 X68.311 Y79.672
G01 F30 X68.283 Y79.683
G01 F30 X68.260 Y79.706
G01 F30 X68.215 Y79.756
G01 F30 X68.134 Y79.815
G01 F30 X68.049 Y79.853
G01 F30 X68.024 Y79.860
G01 F30 X67.981 Y79.891
G01 F30 X67.890 Y79.932
G01 F30 X67.853 Y79.940
G01 F30 X67.825 Y79.953
G01 F30 X67.756 Y79.977
G01 F30 X67.687 Y80.008
G01 F30 X67.619 Y80.023
G01 F30 X67.616 Y80.024
G01 F30 X67.605 Y80.036
G01 F30 X67.529 Y80.090
G01 F30 X67.505 Y80.104
G01 F30 X67.448 Y80.145
G01 F30 X67.356 Y80.186
G01 F30 X67.320 Y80.194
G01 F30 X67.291 Y80.207
G01 F30 X67.223 Y80.231
G01 F30 X67.153 Y80.262
G01 F30 X67.117 Y80.270
G01 F30 X67.088 Y80.283
G01 F30 X67.020 Y80.307
G01 F30 X66.961 Y80.334
G01 F30 X66.893 Y80.358
G01 F30 X66.823 Y80.389
G01 F30 X66.734 Y80.408
G01 F30 X66.711 Y80.425
G01 F30 X66.620 Y80.465
G01 F30 X66.522 Y80.486
G01 F30 X66.478 Y80.486
G01 F30 X66.467 Y80.491
G01 F30 X66.369 Y80.511
G01 F30 X66.335 Y80.511
G01 F30 X66.279 Y80.552
G01 F30 X66.188 Y80.592
G01 F30 X66.090 Y80.613
G01 F30 X65.919 Y80.613
G01 F30 X65.898 Y80.628
G01 F30 X65.807 Y80.669
G01 F30 X65.709 Y80.689
G01 F30 X65.665 Y80.689
G01 F30 X65.654 Y80.694
G01 F30 X65.557 Y80.715
G01 F30 X65.392 Y80.715
G01 F30 X65.324 Y80.745
G01 F30 X65.234 Y80.764
G01 F30 X65.119 Y80.774
G01 F30 X65.070 Y80.796
G01 F30 X64.972 Y80.816
G01 F30 X64.796 Y80.816
G01 F30 X64.770 Y80.811
G01 F30 X64.744 Y80.816
G01 F30 X64.471 Y80.816
G01 F30 X64.461 Y80.821
G01 F30 X64.363 Y80.842
G01 F30 X64.187 Y80.842
G01 F30 X64.173 Y80.839
G01 F30 X64.160 Y80.842
G01 F30 X64.034 Y80.842
G01 F30 X63.945 Y80.823
G01 F30 X63.855 Y80.842
G01 F30 X63.628 Y80.842
G00 F3000 Z3.000
G00 F3000 X90.207 Y80.317
G00 F1500 Z0
G01 F30 Z-0.200
G01 F30 X89.983 Y80.269
G01 F30 X89.772 Y80.175
G01 F30 X89.586 Y80.040
G01 F30 X89.433 Y79.869
G01 F30 X89.318 Y79.670
G01 F30 X89.246 Y79.451
G01 F30 X89.222 Y79.223
G01 F30 X89.246 Y78.994
G01 F30 X89.318 Y78.775
G01 F30 X89.433 Y78.576
G01 F30 X89.586 Y78.405
G01 F30 X89.772 Y78.270
G01 F30 X89.983 Y78.176
G01 F30 X90.207 Y78.129
G01 F30 X90.437 Y78.129
G01 F30 X90.662 Y78.176
G01 F30 X90.872 Y78.270
G01 F30 X91.058 Y78.405
G01 F30 X91.212 Y78.576
G01 F30 X91.327 Y78.775
G01 F30 X91.398 Y78.994
G01 F30 X91.422 Y79.223
G01 F30 X91.398 Y79.451
G01 F30 X91.327 Y79.670
G01 F30 X91.212 Y79.869
G01 F30 X91.058 Y80.040
G01 F30 X90.872 Y80.175
G01 F30 X90.662 Y80.269
G01 F30 X90.437 Y80.317
G01 F30 X90.207 Y80.317
G00 F3000 Z3.000
G00 F3000 X74.967 Y80.317
G00 F1500 Z0
G01 F30 Z-0.200
G01 F30 X74.743 Y80.269
G01 F30 X74.532 Y80.175
G01 F30 X74.346 Y80.040
G01 F30 X74.193 Y79.869
G01 F30 X74.078 Y79.670
G01 F30 X74.006 Y79.451
G01 F30 X73.982 Y79.223
G01 F30 X74.006 Y78.994
G01 F30 X74.078 Y78.775
G01 F30 X74.193 Y78.576
G01 F30 X74.346 Y78.405
G01 F30 X74.532 Y78.270
G01 F30 X74.743 Y78.176
G01 F30 X74.967 Y78.129
G01 F30 X75.197 Y78.129
G01 F30 X75.422 Y78.176
G01 F30 X75.632 Y78.270
G01 F30 X75.818 Y78.405
G01 F30 X75.972 Y78.576
G01 F30 X76.087 Y78.775
G01 F30 X76.158 Y78.994
G01 F30 X76.182 Y79.223
G01 F30 X76.158 Y79.451
G01 F30 X76.087 Y79.670
G01 F30 X75.972 Y79.869
G01 F30 X75.818 Y80.040
G01 F30 X75.632 Y80.175
G01 F30 X75.422 Y80.269
G01 F30 X75.197 Y80.317
G01 F30 X74.967 Y80.317
G00 F3000 Z3.000
G00 F3000 X92.747 Y80.317
G00 F1500 Z0
G01 F30 Z-0.200
G01 F30 X92.523 Y80.269
G01 F30 X92.312 Y80.175
G01 F30 X92.126 Y80.040
G01 F30 X91.973 Y79.869
G01 F30 X91.858 Y79.670
G01 F30 X91.786 Y79.451
G01 F30 X91.762 Y79.223
G01 F30 X91.786 Y78.994
G01 F30 X91.858 Y78.775
G01 F30 X91.973 Y78.576
G01 F30 X92.126 Y78.405
G01 F30 X92.312 Y78.270
G01 F30 X92.387 Y78.237
G01 F30 X92.407 Y76.852
G01 F30 X79.964 Y64.459
G01 F30 X78.641 Y64.459
G01 F30 X78.534 Y64.645
G01 F30 X78.376 Y64.820
G01 F30 X78.186 Y64.958
G01 F30 X77.971 Y65.054
G01 F30 X77.740 Y65.103
G01 F30 X77.505 Y65.103
G01 F30 X77.274 Y65.054
G01 F30 X77.059 Y64.958
G01 F30 X76.869 Y64.820
G01 F30 X76.711 Y64.645
G01 F30 X76.593 Y64.441
G01 F30 X76.521 Y64.217
G01 F30 X76.496 Y63.983
G01 F30 X76.521 Y63.748
G01 F30 X76.593 Y63.524
G01 F30 X76.711 Y63.321
G01 F30 X76.869 Y63.146
G01 F30 X77.059 Y63.007
G01 F30 X77.274 Y62.911
G01 F30 X77.505 Y62.862
G01 F30 X77.740 Y62.862
G01 F30 X77.971 Y62.911
G01 F30 X78.186 Y63.007
G01 F30 X78.376 Y63.146
G01 F30 X78.534 Y63.321
G01 F30 X78.641 Y63.507
G01 F30 X80.212 Y63.507
G01 F30 X80.310 Y63.527
G01 F30 X80.402 Y63.568
G01 F30 X80.479 Y63.624
G01 F30 X93.217 Y76.311
G01 F30 X93.275 Y76.376
G01 F30 X93.325 Y76.463
G01 F30 X93.356 Y76.558
G01 F30 X93.366 Y76.649
G01 F30 X93.343 Y78.239
G01 F30 X93.412 Y78.270
G01 F30 X93.598 Y78.405
G01 F30 X93.752 Y78.576
G01 F30 X93.867 Y78.775
G01 F30 X93.938 Y78.994
G01 F30 X93.962 Y79.223
G01 F30 X93.938 Y79.451
G01 F30 X93.867 Y79.670
G01 F30 X93.752 Y79.869
G01 F30 X93.598 Y80.040
G01 F30 X93.412 Y80.175
G01 F30 X93.202 Y80.269
G01 F30 X92.977 Y80.317
G01 F30 X92.747 Y80.317
G00 F3000 Z3.000
G00 F3000 X77.507 Y80.317
G00 F1500 Z0
G01 F30 Z-0.200
G01 F30 X77.282 Y80.269
G01 F30 X77.072 Y80.175
G01 F30 X76.886 Y80.040
G01 F30 X76.733 Y79.869
G01 F30 X76.618 Y79.670
G01 F30 X76.546 Y79.451
G01 F30 X76.522 Y79.223
G01 F30 X76.546 Y78.994
G01 F30 X76.618 Y78.775
G01 F30 X76.733 Y78.576
G01 F30 X76.886 Y78.405
G01 F30 X77.072 Y78.270
G01 F30 X77.282 Y78.176
G01 F30 X77.507 Y78.129
G01 F30 X77.737 Y78.129
G01 F30 X77.962 Y78.176
G01 F30 X78.172 Y78.270
G01 F30 X78.358 Y78.405
G01 F30 X78.512 Y78.576
G01 F30 X78.627 Y78.775
G01 F30 X78.698 Y78.994
G01 F30 X78.722 Y79.223
G01 F30 X78.698 Y79.451
G01 F30 X78.627 Y79.670
G01 F30 X78.512 Y79.869
G01 F30 X78.358 Y80.040
G01 F30 X78.172 Y80.175
G01 F30 X77.962 Y80.269
G01 F30 X77.737 Y80.317
G01 F30 X77.507 Y80.317
G00 F3000 Z3.000
G00 F3000 X120.687 Y80.317
G00 F1500 Z0
G01 F30 Z-0.200
G01 F30 X120.463 Y80.269
G01 F30 X120.252 Y80.175
G01 F30 X120.066 Y80.040
G01 F30 X119.913 Y79.869
G01 F30 X119.797 Y79.670
G01 F30 X119.726 Y79.451
G01 F30 X119.702 Y79.223
G01 F30 X119.726 Y78.994
G01 F30 X119.797 Y78.775
G01 F30 X119.913 Y78.576
G01 F30 X120.066 Y78.405
G01 F30 X120.252 Y78.270
G01 F30 X120.463 Y78.176
G01 F30 X120.687 Y78.129
G01 F30 X120.917 Y78.129
G01 F30 X121.142 Y78.176
G01 F30 X121.352 Y78.270
G01 F30 X121.538 Y78.405
G01 F30 X121.692 Y78.576
G01 F30 X121.807 Y78.775
G01 F30 X121.878 Y78.994
G01 F30 X121.902 Y79.223
G01 F30 X121.878 Y79.451
G01 F30 X121.807 Y79.670
G01 F30 X121.692 Y79.869
G01 F30 X121.538 Y80.040
G01 F30 X121.352 Y80.175
G01 F30 X121.142 Y80.269
G01 F30 X120.917 Y80.317
G01 F30 X120.687 Y80.317
G00 F3000 Z3.000
G00 F3000 X125.767 Y80.317
G00 F1500 Z0
G01 F30 Z-0.200
G01 F30 X125.543 Y80.269
G01 F30 X125.332 Y80.175
G01 F30 X125.146 Y80.040
G01 F30 X124.993 Y79.869
G01 F30 X124.878 Y79.670
G01 F30 X124.806 Y79.451
G01 F30 X124.782 Y79.223
G01 F30 X124.806 Y78.994
G01 F30 X124.878 Y78.775
G01 F30 X124.993 Y78.576
G01 F30 X125.146 Y78.405
G01 F30 X125.332 Y78.270
G01 F30 X125.543 Y78.176
G01 F30 X125.767 Y78.129
G01 F30 X125.997 Y78.129
G01 F30 X126.222 Y78.176
G01 F30 X126.432 Y78.270
G01 F30 X126.618 Y78.405
G01 F30 X126.772 Y78.576
G01 F30 X126.887 Y78.775
G01 F30 X126.958 Y78.994
G01 F30 X126.982 Y79.223
G01 F30 X126.958 Y79.451
G01 F30 X126.887 Y79.670
G01 F30 X126.772 Y79.869
G01 F30 X126.618 Y80.040
G01 F30 X126.432 Y80.175
G01 F30 X126.222 Y80.269
G01 F30 X125.997 Y80.317
G01 F30 X125.767 Y80.317
G00 F3000 Z3.000
G00 F3000 X128.307 Y80.317
G00 F1500 Z0
G01 F30 Z-0.200
G01 F30 X128.083 Y80.269
G01 F30 X127.872 Y80.175
G01 F30 X127.686 Y80.040
G01 F30 X127.533 Y79.869
G01 F30 X127.418 Y79.670
G01 F30 X127.346 Y79.451
G01 F30 X127.322 Y79.223
G01 F30 X127.346 Y78.994
G01 F30 X127.418 Y78.775
G01 F30 X127.533 Y78.576
G01 F30 X127.686 Y78.405
G01 F30 X127.872 Y78.270
G01 F30 X128.083 Y78.176
G01 F30 X128.307 Y78.129
G01 F30 X128.537 Y78.129
G01 F30 X128.762 Y78.176
G01 F30 X128.972 Y78.270
G01 F30 X129.158 Y78.405
G01 F30 X129.312 Y78.576
G01 F30 X129.427 Y78.775
G01 F30 X129.498 Y78.994
G01 F30 X129.522 Y79.223
G01 F30 X129.498 Y79.451
G01 F30 X129.427 Y79.670
G01 F30 X129.312 Y79.869
G01 F30 X129.158 Y80.040
G01 F30 X128.972 Y80.175
G01 F30 X128.762 Y80.269
G01 F30 X128.537 Y80.317
G01 F30 X128.307 Y80.317
G00 F3000 Z3.000
G00 F3000 X123.227 Y80.317
G00 F1500 Z0
G01 F30 Z-0.200
G01 F30 X123.003 Y80.269
G01 F30 X122.792 Y80.175
G01 F30 X122.606 Y80.040
G01 F30 X122.453 Y79.869
G01 F30 X122.338 Y79.670
G01 F30 X122.266 Y79.451
G01 F30 X122.242 Y79.223
G01 F30 X122.266 Y78.994
G01 F30 X122.338 Y78.775
G01 F30 X122.453 Y78.576
G01 F30 X122.606 Y78.405
G01 F30 X122.792 Y78.270
G01 F30 X123.003 Y78.176
G01 F30 X123.227 Y78.129
G01 F30 X123.457 Y78.129
G01 F30 X123.682 Y78.176
G01 F30 X123.892 Y78.270
G01 F30 X124.078 Y78.405
G01 F30 X124.232 Y78.576
G01 F30 X124.347 Y78.775
G01 F30 X124.418 Y78.994
G01 F30 X124.442 Y79.223
G01 F30 X124.418 Y79.451
G01 F30 X124.347 Y79.670
G01 F30 X124.232 Y79.869
G01 F30 X124.078 Y80.040
G01 F30 X123.892 Y80.175
G01 F30 X123.682 Y80.269
G01 F30 X123.457 Y80.317
G01 F30 X123.227 Y80.317
G00 F3000 Z3.000
G00 F3000 X82.587 Y80.317
G00 F1500 Z0
G01 F30 Z-0.200
G01 F30 X82.362 Y80.269
G01 F30 X82.152 Y80.175
G01 F30 X81.966 Y80.040
G01 F30 X81.813 Y79.869
G01 F30 X81.698 Y79.670
G01 F30 X81.626 Y79.451
G01 F30 X81.602 Y79.223
G01 F30 X81.626 Y78.994
G01 F30 X81.698 Y78.775
G01 F30 X81.813 Y78.576
G01 F30 X81.966 Y78.405
G01 F30 X82.152 Y78.270
G01 F30 X82.362 Y78.176
G01 F30 X82.587 Y78.129
G01 F30 X82.817 Y78.129
G01 F30 X83.042 Y78.176
G01 F30 X83.252 Y78.270
G01 F30 X83.438 Y78.405
G01 F30 X83.592 Y78.576
G01 F30 X83.707 Y78.775
G01 F30 X83.778 Y78.994
G01 F30 X83.802 Y79.223
G01 F30 X83.778 Y79.451
G01 F30 X83.707 Y79.670
G01 F30 X83.592 Y79.869
G01 F30 X83.438 Y80.040
G01 F30 X83.252 Y80.175
G01 F30 X83.042 Y80.269
G01 F30 X82.817 Y80.317
G01 F30 X82.587 Y80.317
G00 F3000 Z3.000
G00 F3000 X107.987 Y80.317
G00 F1500 Z0
G01 F30 Z-0.200
G01 F30 X107.763 Y80.269
G01 F30 X107.552 Y80.175
G01 F30 X107.366 Y80.040
G01 F30 X107.213 Y79.869
G01 F30 X107.098 Y79.670
G01 F30 X107.026 Y79.451
G01 F30 X107.002 Y79.223
G01 F30 X107.026 Y78.994
G01 F30 X107.098 Y78.775
G01 F30 X107.213 Y78.576
G01 F30 X107.366 Y78.405
G01 F30 X107.552 Y78.270
G01 F30 X107.763 Y78.176
G01 F30 X107.987 Y78.129
G01 F30 X108.217 Y78.129
G01 F30 X108.442 Y78.176
G01 F30 X108.652 Y78.270
G01 F30 X108.838 Y78.405
G01 F30 X108.992 Y78.576
G01 F30 X109.107 Y78.775
G01 F30 X109.178 Y78.994
G01 F30 X109.202 Y79.223
G01 F30 X109.178 Y79.451
G01 F30 X109.107 Y79.670
G01 F30 X108.992 Y79.869
G01 F30 X108.838 Y80.040
G01 F30 X108.652 Y80.175
G01 F30 X108.442 Y80.269
G01 F30 X108.217 Y80.317
G01 F30 X107.987 Y80.317
G00 F3000 Z3.000
G00 F3000 X102.907 Y80.317
G00 F1500 Z0
G01 F30 Z-0.200
G01 F30 X102.683 Y80.269
G01 F30 X102.472 Y80.175
G01 F30 X102.286 Y80.040
G01 F30 X102.133 Y79.869
G01 F30 X102.017 Y79.670
G01 F30 X101.946 Y79.451
G01 F30 X101.922 Y79.223
G01 F30 X101.946 Y78.994
G01 F30 X102.017 Y78.775
G01 F30 X102.133 Y78.576
G01 F30 X102.286 Y78.405
G01 F30 X102.472 Y78.270
G01 F30 X102.683 Y78.176
G01 F30 X102.907 Y78.129
G01 F30 X103.137 Y78.129
G01 F30 X103.362 Y78.176
G01 F30 X103.572 Y78.270
G01 F30 X103.758 Y78.405
G01 F30 X103.912 Y78.576
G01 F30 X104.027 Y78.775
G01 F30 X104.098 Y78.994
G01 F30 X104.122 Y79.223
G01 F30 X104.098 Y79.451
G01 F30 X104.027 Y79.670
G01 F30 X103.912 Y79.869
G01 F30 X103.758 Y80.040
G01 F30 X103.572 Y80.175
G01 F30 X103.362 Y80.269
G01 F30 X103.137 Y80.317
G01 F30 X102.907 Y80.317
G00 F3000 Z3.000
G00 F3000 X105.447 Y80.317
G00 F1500 Z0
G01 F30 Z-0.200
G01 F30 X105.223 Y80.269
G01 F30 X105.012 Y80.175
G01 F30 X104.826 Y80.040
G01 F30 X104.672 Y79.869
G01 F30 X104.558 Y79.670
G01 F30 X104.486 Y79.451
G01 F30 X104.462 Y79.223
G01 F30 X104.486 Y78.994
G01 F30 X104.558 Y78.775
G01 F30 X104.672 Y78.576
G01 F30 X104.826 Y78.405
G01 F30 X105.012 Y78.270
G01 F30 X105.223 Y78.176
G01 F30 X105.447 Y78.129
G01 F30 X105.677 Y78.129
G01 F30 X105.902 Y78.176
G01 F30 X106.112 Y78.270
G01 F30 X106.298 Y78.405
G01 F30 X106.452 Y78.576
G01 F30 X106.567 Y78.775
G01 F30 X106.638 Y78.994
G01 F30 X106.662 Y79.223
G01 F30 X106.638 Y79.451
G01 F30 X106.567 Y79.670
G01 F30 X106.452 Y79.869
G01 F30 X106.298 Y80.040
G01 F30 X106.112 Y80.175
G01 F30 X105.902 Y80.269
G01 F30 X105.677 Y80.317
G01 F30 X105.447 Y80.317
G00 F3000 Z3.000
G00 F3000 X115.607 Y80.317
G00 F1500 Z0
G01 F30 Z-0.200
G01 F30 X115.383 Y80.269
G01 F30 X115.172 Y80.175
G01 F30 X114.986 Y80.040
G01 F30 X114.833 Y79.869
G01 F30 X114.718 Y79.670
G01 F30 X114.646 Y79.451
G01 F30 X114.622 Y79.223
G01 F30 X114.646 Y78.994
G01 F30 X114.718 Y78.775
G01 F30 X114.833 Y78.576
G01 F30 X114.986 Y78.405
G01 F30 X115.172 Y78.270
G01 F30 X115.244 Y78.238
G01 F30 X115.244 Y77.712
G01 F30 X115.140 Y77.666
G01 F30 X114.943 Y77.523
G01 F30 X114.780 Y77.342
G01 F30 X114.659 Y77.131
G01 F30 X114.583 Y76.899
G01 F30 X114.558 Y76.657
G01 F30 X114.583 Y76.415
G01 F30 X114.659 Y76.184
G01 F30 X114.780 Y75.973
G01 F30 X114.943 Y75.792
G01 F30 X115.140 Y75.649
G01 F30 X115.363 Y75.550
G01 F30 X115.601 Y75.499
G01 F30 X115.844 Y75.499
G01 F30 X116.082 Y75.550
G01 F30 X116.305 Y75.649
G01 F30 X116.502 Y75.792
G01 F30 X116.665 Y75.973
G01 F30 X116.786 Y76.184
G01 F30 X116.862 Y76.415
G01 F30 X116.887 Y76.657
G01 F30 X116.862 Y76.899
G01 F30 X116.786 Y77.131
G01 F30 X116.665 Y77.342
G01 F30 X116.502 Y77.523
G01 F30 X116.305 Y77.666
G01 F30 X116.200 Y77.712
G01 F30 X116.200 Y78.238
G01 F30 X116.272 Y78.270
G01 F30 X116.458 Y78.405
G01 F30 X116.612 Y78.576
G01 F30 X116.727 Y78.775
G01 F30 X116.798 Y78.994
G01 F30 X116.822 Y79.223
G01 F30 X116.798 Y79.451
G01 F30 X116.727 Y79.670
G01 F30 X116.612 Y79.869
G01 F30 X116.458 Y80.040
G01 F30 X116.272 Y80.175
G01 F30 X116.062 Y80.269
G01 F30 X115.837 Y80.317
G01 F30 X115.607 Y80.317
G00 F3000 Z3.000
G00 F3000 X110.527 Y80.317
G00 F1500 Z0
G01 F30 Z-0.200
G01 F30 X110.303 Y80.269
G01 F30 X110.092 Y80.175
G01 F30 X109.906 Y80.040
G01 F30 X109.753 Y79.869
G01 F30 X109.638 Y79.670
G01 F30 X109.566 Y79.451
G01 F30 X109.542 Y79.223
G01 F30 X109.566 Y78.994
G01 F30 X109.638 Y78.775
G01 F30 X109.753 Y78.576
G01 F30 X109.906 Y78.405
G01 F30 X110.092 Y78.270
G01 F30 X110.303 Y78.176
G01 F30 X110.527 Y78.129
G01 F30 X110.757 Y78.129
G01 F30 X110.982 Y78.176
G01 F30 X111.192 Y78.270
G01 F30 X111.378 Y78.405
G01 F30 X111.532 Y78.576
G01 F30 X111.647 Y78.775
G01 F30 X111.718 Y78.994
G01 F30 X111.742 Y79.223
G01 F30 X111.718 Y79.451
G01 F30 X111.647 Y79.670
G01 F30 X111.532 Y79.869
G01 F30 X111.378 Y80.040
G01 F30 X111.192 Y80.175
G01 F30 X110.982 Y80.269
G01 F30 X110.757 Y80.317
G01 F30 X110.527 Y80.317
G00 F3000 Z3.000
G00 F3000 X113.067 Y80.317
G00 F1500 Z0
G01 F30 Z-0.200
G01 F30 X112.843 Y80.269
G01 F30 X112.632 Y80.175
G01 F30 X112.446 Y80.040
G01 F30 X112.293 Y79.869
G01 F30 X112.178 Y79.670
G01 F30 X112.106 Y79.451
G01 F30 X112.082 Y79.223
G01 F30 X112.106 Y78.994
G01 F30 X112.178 Y78.775
G01 F30 X112.293 Y78.576
G01 F30 X112.446 Y78.405
G01 F30 X112.632 Y78.270
G01 F30 X112.704 Y78.238
G01 F30 X112.704 Y77.712
G01 F30 X112.600 Y77.666
G01 F30 X112.403 Y77.523
G01 F30 X112.240 Y77.342
G01 F30 X112.119 Y77.131
G01 F30 X112.043 Y76.899
G01 F30 X112.018 Y76.657
G01 F30 X112.043 Y76.415
G01 F30 X112.119 Y76.184
G01 F30 X112.240 Y75.973
G01 F30 X112.403 Y75.792
G01 F30 X112.600 Y75.649
G01 F30 X112.823 Y75.550
G01 F30 X113.061 Y75.499
G01 F30 X113.304 Y75.499
G01 F30 X113.542 Y75.550
G01 F30 X113.765 Y75.649
G01 F30 X113.962 Y75.792
G01 F30 X114.125 Y75.973
G01 F30 X114.246 Y76.184
G01 F30 X114.322 Y76.415
G01 F30 X114.347 Y76.657
G01 F30 X114.322 Y76.899
G01 F30 X114.246 Y77.131
G01 F30 X114.125 Y77.342
G01 F30 X113.962 Y77.523
G01 F30 X113.765 Y77.666
G01 F30 X113.660 Y77.712
G01 F30 X113.660 Y78.238
G01 F30 X113.732 Y78.270
G01 F30 X113.918 Y78.405
G01 F30 X114.072 Y78.576
G01 F30 X114.187 Y78.775
G01 F30 X114.258 Y78.994
G01 F30 X114.282 Y79.223
G01 F30 X114.258 Y79.451
G01 F30 X114.187 Y79.670
G01 F30 X114.072 Y79.869
G01 F30 X113.918 Y80.040
G01 F30 X113.732 Y80.175
G01 F30 X113.522 Y80.269
G01 F30 X113.297 Y80.317
G01 F30 X113.067 Y80.317
G00 F3000 Z3.000
G00 F3000 X135.927 Y80.317
G00 F1500 Z0
G01 F30 Z-0.200
G01 F30 X135.703 Y80.269
G01 F30 X135.492 Y80.175
G01 F30 X135.306 Y80.040
G01 F30 X135.153 Y79.869
G01 F30 X135.037 Y79.670
G01 F30 X134.966 Y79.451
G01 F30 X134.942 Y79.223
G01 F30 X134.966 Y78.994
G01 F30 X135.037 Y78.775
G01 F30 X135.153 Y78.576
G01 F30 X135.306 Y78.405
G01 F30 X135.492 Y78.270
G01 F30 X135.564 Y78.238
G01 F30 X135.564 Y77.712
G01 F30 X135.460 Y77.666
G01 F30 X135.263 Y77.523
G01 F30 X135.100 Y77.342
G01 F30 X134.978 Y77.131
G01 F30 X134.903 Y76.899
G01 F30 X134.878 Y76.657
G01 F30 X134.903 Y76.415
G01 F30 X134.978 Y76.184
G01 F30 X135.100 Y75.973
G01 F30 X135.263 Y75.792
G01 F30 X135.460 Y75.649
G01 F30 X135.683 Y75.550
G01 F30 X135.921 Y75.499
G01 F30 X136.164 Y75.499
G01 F30 X136.402 Y75.550
G01 F30 X136.625 Y75.649
G01 F30 X136.822 Y75.792
G01 F30 X136.984 Y75.973
G01 F30 X137.106 Y76.184
G01 F30 X137.181 Y76.415
G01 F30 X137.207 Y76.657
G01 F30 X137.181 Y76.899
G01 F30 X137.106 Y77.131
G01 F30 X136.984 Y77.342
G01 F30 X136.822 Y77.523
G01 F30 X136.625 Y77.666
G01 F30 X136.520 Y77.712
G01 F30 X136.520 Y78.238
G01 F30 X136.592 Y78.270
G01 F30 X136.778 Y78.405
G01 F30 X136.932 Y78.576
G01 F30 X137.047 Y78.775
G01 F30 X137.118 Y78.994
G01 F30 X137.142 Y79.223
G01 F30 X137.118 Y79.451
G01 F30 X137.047 Y79.670
G01 F30 X136.932 Y79.869
G01 F30 X136.778 Y80.040
G01 F30 X136.592 Y80.175
G01 F30 X136.382 Y80.269
G01 F30 X136.157 Y80.317
G01 F30 X135.927 Y80.317
G00 F3000 Z3.000
G00 F3000 X130.847 Y80.317
G00 F1500 Z0
G01 F30 Z-0.200
G01 F30 X130.623 Y80.269
G01 F30 X130.412 Y80.175
G01 F30 X130.226 Y80.040
G01 F30 X130.073 Y79.869
G01 F30 X129.958 Y79.670
G01 F30 X129.886 Y79.451
G01 F30 X129.862 Y79.223
G01 F30 X129.886 Y78.994
G01 F30 X129.958 Y78.775
G01 F30 X130.073 Y78.576
G01 F30 X130.226 Y78.405
G01 F30 X130.412 Y78.270
G01 F30 X130.484 Y78.238
G01 F30 X130.483 Y77.712
G01 F30 X130.380 Y77.666
G01 F30 X130.183 Y77.523
G01 F30 X130.020 Y77.342
G01 F30 X129.899 Y77.131
G01 F30 X129.823 Y76.899
G01 F30 X129.798 Y76.657
G01 F30 X129.823 Y76.415
G01 F30 X129.899 Y76.184
G01 F30 X130.020 Y75.973
G01 F30 X130.183 Y75.792
G01 F30 X130.380 Y75.649
G01 F30 X130.603 Y75.550
G01 F30 X130.841 Y75.499
G01 F30 X131.084 Y75.499
G01 F30 X131.322 Y75.550
G01 F30 X131.545 Y75.649
G01 F30 X131.742 Y75.792
G01 F30 X131.905 Y75.973
G01 F30 X132.026 Y76.184
G01 F30 X132.102 Y76.415
G01 F30 X132.127 Y76.657
G01 F30 X132.102 Y76.899
G01 F30 X132.026 Y77.131
G01 F30 X131.905 Y77.342
G01 F30 X131.742 Y77.523
G01 F30 X131.545 Y77.666
G01 F30 X131.440 Y77.712
G01 F30 X131.440 Y78.238
G01 F30 X131.512 Y78.270
G01 F30 X131.698 Y78.405
G01 F30 X131.852 Y78.576
G01 F30 X131.967 Y78.775
G01 F30 X132.038 Y78.994
G01 F30 X132.062 Y79.223
G01 F30 X132.038 Y79.451
G01 F30 X131.967 Y79.670
G01 F30 X131.852 Y79.869
G01 F30 X131.698 Y80.040
G01 F30 X131.512 Y80.175
G01 F30 X131.302 Y80.269
G01 F30 X131.077 Y80.317
G01 F30 X130.847 Y80.317
G00 F3000 Z3.000
G00 F3000 X133.387 Y80.317
G00 F1500 Z0
G01 F30 Z-0.200
G01 F30 X133.162 Y80.269
G01 F30 X132.952 Y80.175
G01 F30 X132.766 Y80.040
G01 F30 X132.613 Y79.869
G01 F30 X132.498 Y79.670
G01 F30 X132.426 Y79.451
G01 F30 X132.402 Y79.223
G01 F30 X132.426 Y78.994
G01 F30 X132.498 Y78.775
G01 F30 X132.613 Y78.576
G01 F30 X132.766 Y78.405
G01 F30 X132.952 Y78.270
G01 F30 X133.024 Y78.238
G01 F30 X133.024 Y77.712
G01 F30 X132.920 Y77.666
G01 F30 X132.723 Y77.523
G01 F30 X132.560 Y77.342
G01 F30 X132.439 Y77.131
G01 F30 X132.363 Y76.899
G01 F30 X132.338 Y76.657
G01 F30 X132.363 Y76.415
G01 F30 X132.439 Y76.184
G01 F30 X132.560 Y75.973
G01 F30 X132.723 Y75.792
G01 F30 X132.920 Y75.649
G01 F30 X133.143 Y75.550
G01 F30 X133.381 Y75.499
G01 F30 X133.624 Y75.499
G01 F30 X133.862 Y75.550
G01 F30 X134.085 Y75.649
G01 F30 X134.282 Y75.792
G01 F30 X134.445 Y75.973
G01 F30 X134.566 Y76.184
G01 F30 X134.642 Y76.415
G01 F30 X134.667 Y76.657
G01 F30 X134.642 Y76.899
G01 F30 X134.566 Y77.131
G01 F30 X134.445 Y77.342
G01 F30 X134.282 Y77.523
G01 F30 X134.085 Y77.666
G01 F30 X133.980 Y77.712
G01 F30 X133.980 Y78.238
G01 F30 X134.052 Y78.270
G01 F30 X134.238 Y78.405
G01 F30 X134.392 Y78.576
G01 F30 X134.507 Y78.775
G01 F30 X134.578 Y78.994
G01 F30 X134.602 Y79.223
G01 F30 X134.578 Y79.451
G01 F30 X134.507 Y79.670
G01 F30 X134.392 Y79.869
G01 F30 X134.238 Y80.040
G01 F30 X134.052 Y80.175
G01 F30 X133.842 Y80.269
G01 F30 X133.617 Y80.317
G01 F30 X133.387 Y80.317
G00 F3000 Z3.000
G00 F3000 X100.367 Y80.317
G00 F1500 Z0
G01 F30 Z-0.200
G01 F30 X100.142 Y80.269
G01 F30 X99.932 Y80.175
G01 F30 X99.746 Y80.040
G01 F30 X99.593 Y79.869
G01 F30 X99.478 Y79.670
G01 F30 X99.406 Y79.451
G01 F30 X99.382 Y79.223
G01 F30 X99.406 Y78.994
G01 F30 X99.478 Y78.775
G01 F30 X99.593 Y78.576
G01 F30 X99.746 Y78.405
G01 F30 X99.932 Y78.270
G01 F30 X100.142 Y78.176
G01 F30 X100.367 Y78.129
G01 F30 X100.597 Y78.129
G01 F30 X100.822 Y78.176
G01 F30 X101.032 Y78.270
G01 F30 X101.218 Y78.405
G01 F30 X101.372 Y78.576
G01 F30 X101.487 Y78.775
G01 F30 X101.558 Y78.994
G01 F30 X101.582 Y79.223
G01 F30 X101.558 Y79.451
G01 F30 X101.487 Y79.670
G01 F30 X101.372 Y79.869
G01 F30 X101.218 Y80.040
G01 F30 X101.032 Y80.175
G01 F30 X100.822 Y80.269
G01 F30 X100.597 Y80.317
G01 F30 X100.367 Y80.317
G00 F3000 Z3.000
G00 F3000 X138.467 Y80.317
G00 F1500 Z0
G01 F30 Z-0.200
G01 F30 X138.243 Y80.269
G01 F30 X138.032 Y80.175
G01 F30 X137.846 Y80.040
G01 F30 X137.692 Y79.869
G01 F30 X137.578 Y79.670
G01 F30 X137.506 Y79.451
G01 F30 X137.482 Y79.223
G01 F30 X137.506 Y78.994
G01 F30 X137.578 Y78.775
G01 F30 X137.692 Y78.576
G01 F30 X137.846 Y78.405
G01 F30 X138.032 Y78.270
G01 F30 X138.104 Y78.238
G01 F30 X138.103 Y77.712
G01 F30 X138.000 Y77.666
G01 F30 X137.803 Y77.523
G01 F30 X137.640 Y77.342
G01 F30 X137.519 Y77.131
G01 F30 X137.443 Y76.899
G01 F30 X137.418 Y76.657
G01 F30 X137.443 Y76.415
G01 F30 X137.519 Y76.184
G01 F30 X137.640 Y75.973
G01 F30 X137.803 Y75.792
G01 F30 X138.000 Y75.649
G01 F30 X138.222 Y75.550
G01 F30 X138.461 Y75.499
G01 F30 X138.704 Y75.499
G01 F30 X138.942 Y75.550
G01 F30 X139.165 Y75.649
G01 F30 X139.362 Y75.792
G01 F30 X139.525 Y75.973
G01 F30 X139.646 Y76.184
G01 F30 X139.722 Y76.415
G01 F30 X139.747 Y76.657
G01 F30 X139.722 Y76.899
G01 F30 X139.646 Y77.131
G01 F30 X139.525 Y77.342
G01 F30 X139.362 Y77.523
G01 F30 X139.165 Y77.666
G01 F30 X139.060 Y77.712
G01 F30 X139.060 Y78.238
G01 F30 X139.132 Y78.270
G01 F30 X139.318 Y78.405
G01 F30 X139.472 Y78.576
G01 F30 X139.587 Y78.775
G01 F30 X139.658 Y78.994
G01 F30 X139.682 Y79.223
G01 F30 X139.658 Y79.451
G01 F30 X139.587 Y79.670
G01 F30 X139.472 Y79.869
G01 F30 X139.318 Y80.040
G01 F30 X139.132 Y80.175
G01 F30 X138.922 Y80.269
G01 F30 X138.697 Y80.317
G01 F30 X138.467 Y80.317
G00 F3000 Z3.000
G00 F3000 X64.033 Y79.616
G00 F1500 Z0
G01 F30 Z-0.200
G01 F30 X64.054 Y79.611
G01 F30 X64.220 Y79.601
G01 F30 X64.267 Y79.580
G01 F30 X64.364 Y79.559
G01 F30 X64.866 Y79.559
G01 F30 X64.876 Y79.555
G01 F30 X64.974 Y79.534
G01 F30 X65.037 Y79.534
G01 F30 X65.105 Y79.504
G01 F30 X65.203 Y79.483
G01 F30 X65.297 Y79.483
G01 F30 X65.308 Y79.478
G01 F30 X65.398 Y79.459
G01 F30 X65.514 Y79.449
G01 F30 X65.562 Y79.428
G01 F30 X65.648 Y79.409
G01 F30 X65.713 Y79.400
G01 F30 X65.765 Y79.377
G01 F30 X65.802 Y79.369
G01 F30 X65.841 Y79.352
G01 F30 X65.927 Y79.333
G01 F30 X65.992 Y79.324
G01 F30 X66.044 Y79.301
G01 F30 X66.142 Y79.280
G01 F30 X66.161 Y79.280
G01 F30 X66.169 Y79.276
G01 F30 X66.212 Y79.266
G01 F30 X66.283 Y79.214
G01 F30 X66.375 Y79.174
G01 F30 X66.473 Y79.153
G01 F30 X66.491 Y79.153
G01 F30 X66.562 Y79.127
G01 F30 X66.611 Y79.108
G01 F30 X66.639 Y79.087
G01 F30 X66.730 Y79.047
G01 F30 X66.828 Y79.026
G01 F30 X66.847 Y79.026
G01 F30 X66.912 Y79.002
G01 F30 X66.950 Y78.984
G01 F30 X66.963 Y78.977
G01 F30 X67.014 Y78.939
G01 F30 X67.039 Y78.926
G01 F30 X67.096 Y78.884
G01 F30 X67.187 Y78.844
G01 F30 X67.224 Y78.836
G01 F30 X67.253 Y78.823
G01 F30 X67.317 Y78.800
G01 F30 X67.371 Y78.772
G01 F30 X67.421 Y78.736
G01 F30 X67.445 Y78.723
G01 F30 X67.499 Y78.684
G01 F30 X67.574 Y78.645
G01 F30 X67.629 Y78.605
G01 F30 X67.721 Y78.564
G01 F30 X67.760 Y78.556
G01 F30 X67.777 Y78.537
G01 F30 X67.855 Y78.480
G01 F30 X67.916 Y78.450
G01 F30 X67.928 Y78.443
G01 F30 X67.985 Y78.402
G01 F30 X68.076 Y78.361
G01 F30 X68.118 Y78.352
G01 F30 X68.133 Y78.346
G01 F30 X68.143 Y78.330
G01 F30 X68.204 Y78.265
G01 F30 X68.234 Y78.232
G01 F30 X68.306 Y78.180
G01 F30 X68.330 Y78.165
G01 F30 X68.361 Y78.130
G01 F30 X68.444 Y78.070
G01 F30 X68.496 Y78.049
G01 F30 X68.514 Y78.029
G01 F30 X68.591 Y77.973
G01 F30 X68.607 Y77.964
G01 F30 X68.636 Y77.932
G01 F30 X68.670 Y77.903
G01 F30 X68.719 Y77.849
G01 F30 X68.766 Y77.817
G01 F30 X68.777 Y77.798
G01 F30 X68.844 Y77.724
G01 F30 X68.922 Y77.667
G01 F30 X68.989 Y77.634
G01 F30 X68.992 Y77.632
G01 F30 X69.042 Y77.577
G01 F30 X69.076 Y77.548
G01 F30 X69.125 Y77.493
G01 F30 X69.172 Y77.461
G01 F30 X69.185 Y77.439
G01 F30 X69.259 Y77.365
G01 F30 X69.311 Y77.313
G01 F30 X69.332 Y77.292
G01 F30 X69.378 Y77.240
G01 F30 X69.406 Y77.221
G01 F30 X69.413 Y77.199
G01 F30 X69.463 Y77.112
G01 F30 X69.530 Y77.038
G01 F30 X69.608 Y76.981
G01 F30 X69.631 Y76.970
G01 F30 X69.666 Y76.909
G01 F30 X69.685 Y76.888
G01 F30 X69.717 Y76.833
G01 F30 X69.737 Y76.810
G01 F30 X69.743 Y76.793
G01 F30 X69.793 Y76.706
G01 F30 X69.855 Y76.637
G01 F30 X69.892 Y76.605
G01 F30 X69.940 Y76.556
G01 F30 X69.946 Y76.539
G01 F30 X69.996 Y76.452
G01 F30 X70.055 Y76.386
G01 F30 X70.095 Y76.349
G01 F30 X70.117 Y76.310
G01 F30 X70.131 Y76.289
G01 F30 X70.149 Y76.234
G01 F30 X70.200 Y76.146
G01 F30 X70.248 Y76.094
G01 F30 X70.264 Y76.068
G01 F30 X70.276 Y76.031
G01 F30 X70.326 Y75.944
G01 F30 X70.347 Y75.921
G01 F30 X70.352 Y75.904
G01 F30 X70.404 Y75.814
G01 F30 X70.461 Y75.756
G01 F30 X70.462 Y75.755
G01 F30 X70.479 Y75.701
G01 F30 X70.521 Y75.629
G01 F30 X70.525 Y75.593
G01 F30 X70.556 Y75.497
G01 F30 X70.606 Y75.411
G01 F30 X70.626 Y75.388
G01 F30 X70.646 Y75.356
G01 F30 X70.658 Y75.320
G01 F30 X70.684 Y75.240
G01 F30 X70.724 Y75.177
G01 F30 X70.728 Y75.135
G01 F30 X70.759 Y75.040
G01 F30 X70.809 Y74.953
G01 F30 X70.823 Y74.938
G01 F30 X70.838 Y74.905
G01 F30 X70.860 Y74.837
G01 F30 X70.902 Y74.765
G01 F30 X70.906 Y74.731
G01 F30 X70.924 Y74.668
G01 F30 X70.931 Y74.602
G01 F30 X70.962 Y74.507
G01 F30 X71.012 Y74.420
G01 F30 X71.031 Y74.399
G01 F30 X71.054 Y74.359
G01 F30 X71.058 Y74.323
G01 F30 X71.090 Y74.224
G01 F30 X71.100 Y74.209
G01 F30 X71.101 Y74.193
G01 F30 X71.099 Y74.177
G01 F30 X71.099 Y74.133
G01 F30 X71.109 Y74.045
G01 F30 X71.127 Y73.982
G01 F30 X71.134 Y73.916
G01 F30 X71.165 Y73.821
G01 F30 X71.182 Y73.791
G01 F30 X71.185 Y73.764
G01 F30 X71.216 Y73.669
G01 F30 X71.226 Y73.651
G01 F30 X71.226 Y73.549
G01 F30 X71.236 Y73.458
G01 F30 X71.252 Y73.411
G01 F30 X71.252 Y73.270
G01 F30 X71.261 Y73.180
G01 F30 X71.292 Y73.084
G01 F30 X71.308 Y73.057
G01 F30 X71.303 Y73.009
G01 F30 X71.303 Y72.660
G01 F30 X71.312 Y72.569
G01 F30 X71.328 Y72.522
G01 F30 X71.328 Y72.432
G01 F30 X71.332 Y72.390
G01 F30 X71.328 Y72.348
G01 F30 X71.328 Y72.228
G01 F30 X71.338 Y72.138
G01 F30 X71.359 Y72.073
G01 F30 X71.337 Y72.006
G01 F30 X71.331 Y71.937
G01 F30 X71.312 Y71.880
G01 F30 X71.303 Y71.790
G01 F30 X71.303 Y71.695
G01 F30 X71.312 Y71.609
G01 F30 X71.321 Y71.576
G01 F30 X71.312 Y71.550
G01 F30 X71.303 Y71.459
G01 F30 X71.303 Y71.383
G01 F30 X71.292 Y71.365
G01 F30 X71.261 Y71.270
G01 F30 X71.254 Y71.200
G01 F30 X71.236 Y71.143
G01 F30 X71.226 Y71.053
G01 F30 X71.226 Y71.002
G01 F30 X71.216 Y70.984
G01 F30 X71.185 Y70.889
G01 F30 X71.176 Y70.799
G01 F30 X71.165 Y70.781
G01 F30 X71.134 Y70.686
G01 F30 X71.125 Y70.596
G01 F30 X71.125 Y70.552
G01 F30 X71.126 Y70.541
G01 F30 X71.089 Y70.477
G01 F30 X71.058 Y70.381
G01 F30 X71.049 Y70.291
G01 F30 X71.049 Y70.234
G01 F30 X71.013 Y70.172
G01 F30 X70.982 Y70.077
G01 F30 X70.975 Y70.009
G01 F30 X70.955 Y69.975
G01 F30 X70.936 Y69.954
G01 F30 X70.886 Y69.867
G01 F30 X70.855 Y69.772
G01 F30 X70.845 Y69.681
G01 F30 X70.845 Y69.664
G01 F30 X70.809 Y69.623
G01 F30 X70.759 Y69.537
G01 F30 X70.728 Y69.441
G01 F30 X70.724 Y69.406
G01 F30 X70.683 Y69.334
G01 F30 X70.651 Y69.238
G01 F30 X70.649 Y69.215
G01 F30 X70.606 Y69.166
G01 F30 X70.556 Y69.080
G01 F30 X70.524 Y68.983
G01 F30 X70.506 Y68.920
G01 F30 X70.482 Y68.874
G01 F30 X70.472 Y68.857
G01 F30 X70.453 Y68.836
G01 F30 X70.402 Y68.748
G01 F30 X70.388 Y68.701
G01 F30 X70.384 Y68.697
G01 F30 X70.326 Y68.633
G01 F30 X70.294 Y68.578
G01 F30 X70.276 Y68.557
G01 F30 X70.226 Y68.471
G01 F30 X70.220 Y68.452
G01 F30 X70.199 Y68.430
G01 F30 X70.149 Y68.343
G01 F30 X70.144 Y68.325
G01 F30 X70.123 Y68.303
G01 F30 X70.091 Y68.247
G01 F30 X70.072 Y68.227
G01 F30 X70.022 Y68.140
G01 F30 X70.017 Y68.122
G01 F30 X69.998 Y68.101
G01 F30 X69.967 Y68.051
G01 F30 X69.925 Y68.010
G01 F30 X69.887 Y67.965
G01 F30 X69.860 Y67.945
G01 F30 X69.793 Y67.871
G01 F30 X69.743 Y67.785
G01 F30 X69.719 Y67.711
G01 F30 X69.657 Y67.666
G01 F30 X69.591 Y67.593
G01 F30 X69.557 Y67.537
G01 F30 X69.532 Y67.508
G01 F30 X69.504 Y67.488
G01 F30 X69.437 Y67.414
G01 F30 X69.403 Y67.355
G01 F30 X69.381 Y67.338
G01 F30 X69.316 Y67.273
G01 F30 X69.278 Y67.228
G01 F30 X69.248 Y67.207
G01 F30 X69.201 Y67.152
G01 F30 X69.174 Y67.132
G01 F30 X69.114 Y67.066
G01 F30 X69.084 Y67.026
G01 F30 X69.055 Y67.012
G01 F30 X69.001 Y66.988
G01 F30 X68.920 Y66.929
G01 F30 X68.851 Y66.852
G01 F30 X68.805 Y66.765
G01 F30 X68.794 Y66.745
G01 F30 X68.792 Y66.743
G01 F30 X68.765 Y66.729
G01 F30 X68.711 Y66.687
G01 F30 X68.699 Y66.682
G01 F30 X68.645 Y66.658
G01 F30 X68.568 Y66.602
G01 F30 X68.508 Y66.541
G01 F30 X68.500 Y66.534
G01 F30 X68.496 Y66.531
G01 F30 X68.458 Y66.510
G01 F30 X68.391 Y66.480
G01 F30 X68.318 Y66.427
G01 F30 X68.289 Y66.401
G01 F30 X68.239 Y66.378
G01 F30 X68.158 Y66.320
G01 F30 X68.120 Y66.278
G01 F30 X68.061 Y66.251
G01 F30 X67.980 Y66.193
G01 F30 X67.968 Y66.179
G01 F30 X67.960 Y66.175
G01 F30 X67.883 Y66.120
G01 F30 X67.853 Y66.090
G01 F30 X67.848 Y66.089
G01 F30 X67.765 Y66.052
G01 F30 X67.721 Y66.027
G01 F30 X67.655 Y65.997
G01 F30 X67.578 Y65.941
G01 F30 X67.549 Y65.912
G01 F30 X67.543 Y65.911
G01 F30 X67.452 Y65.870
G01 F30 X67.382 Y65.820
G01 F30 X67.380 Y65.818
G01 F30 X67.340 Y65.809
G01 F30 X67.257 Y65.773
G01 F30 X67.213 Y65.748
G01 F30 X67.155 Y65.722
G01 F30 X67.111 Y65.697
G01 F30 X67.097 Y65.690
G01 F30 X67.056 Y65.681
G01 F30 X66.977 Y65.641
G01 F30 X66.933 Y65.632
G01 F30 X66.841 Y65.591
G01 F30 X66.799 Y65.559
G01 F30 X66.781 Y65.556
G01 F30 X66.690 Y65.515
G01 F30 X66.669 Y65.500
G01 F30 X66.625 Y65.500
G01 F30 X66.527 Y65.479
G01 F30 X66.444 Y65.442
G01 F30 X66.410 Y65.423
G01 F30 X66.396 Y65.418
G01 F30 X66.324 Y65.403
G01 F30 X66.241 Y65.366
G01 F30 X66.192 Y65.338
G01 F30 X66.160 Y65.322
G01 F30 X66.142 Y65.322
G01 F30 X66.044 Y65.302
G01 F30 X66.034 Y65.297
G01 F30 X65.990 Y65.297
G01 F30 X65.888 Y65.275
G01 F30 X65.830 Y65.246
G01 F30 X65.812 Y65.246
G01 F30 X65.714 Y65.225
G01 F30 X65.704 Y65.221
G01 F30 X65.660 Y65.221
G01 F30 X65.562 Y65.200
G01 F30 X65.470 Y65.159
G01 F30 X65.415 Y65.119
G01 F30 X65.203 Y65.119
G01 F30 X65.105 Y65.098
G01 F30 X65.094 Y65.094
G01 F30 X64.923 Y65.094
G01 F30 X64.821 Y65.072
G01 F30 X64.764 Y65.043
G01 F30 X64.517 Y65.043
G01 F30 X64.419 Y65.022
G01 F30 X64.409 Y65.017
G01 F30 X63.856 Y65.017
G01 F30 X63.794 Y65.004
G01 F30 X63.790 Y65.004
G01 F30 X63.728 Y65.017
G01 F30 X63.709 Y65.017
G01 F30 X63.699 Y65.022
G01 F30 X63.601 Y65.043
G01 F30 X63.374 Y65.043
G01 F30 X63.348 Y65.037
G01 F30 X63.329 Y65.041
G01 F30 X63.214 Y65.051
G01 F30 X63.165 Y65.073
G01 F30 X63.067 Y65.094
G01 F30 X62.922 Y65.094
G01 F30 X62.911 Y65.098
G01 F30 X62.823 Y65.117
G01 F30 X62.733 Y65.127
G01 F30 X62.683 Y65.149
G01 F30 X62.597 Y65.167
G01 F30 X62.532 Y65.177
G01 F30 X62.480 Y65.200
G01 F30 X62.382 Y65.221
G01 F30 X62.363 Y65.221
G01 F30 X62.353 Y65.225
G01 F30 X62.267 Y65.244
G01 F30 X62.202 Y65.253
G01 F30 X62.149 Y65.276
G01 F30 X62.051 Y65.297
G01 F30 X62.033 Y65.297
G01 F30 X62.022 Y65.302
G01 F30 X61.936 Y65.320
G01 F30 X61.883 Y65.327
G01 F30 X61.834 Y65.362
G01 F30 X61.743 Y65.403
G01 F30 X61.645 Y65.424
G01 F30 X61.626 Y65.424
G01 F30 X61.559 Y65.448
G01 F30 X61.486 Y65.481
G01 F30 X61.405 Y65.495
G01 F30 X61.405 Y65.495
G01 F30 X61.377 Y65.515
G01 F30 X61.286 Y65.556
G01 F30 X61.197 Y65.574
G01 F30 X61.171 Y65.593
G01 F30 X61.100 Y65.622
G01 F30 X61.072 Y65.642
G01 F30 X60.978 Y65.684
G01 F30 X60.904 Y65.697
G01 F30 X60.879 Y65.708
G01 F30 X60.840 Y65.716
G01 F30 X60.823 Y65.735
G01 F30 X60.740 Y65.796
G01 F30 X60.668 Y65.825
G01 F30 X60.641 Y65.845
G01 F30 X60.549 Y65.886
G01 F30 X60.510 Y65.894
G01 F30 X60.493 Y65.913
G01 F30 X60.415 Y65.970
G01 F30 X60.354 Y66.000
G01 F30 X60.342 Y66.007
G01 F30 X60.288 Y66.046
G01 F30 X60.219 Y66.081
G01 F30 X60.181 Y66.096
G01 F30 X60.163 Y66.116
G01 F30 X60.085 Y66.173
G01 F30 X60.027 Y66.202
G01 F30 X60.023 Y66.204
G01 F30 X60.011 Y66.218
G01 F30 X59.929 Y66.277
G01 F30 X59.870 Y66.303
G01 F30 X59.833 Y66.345
G01 F30 X59.752 Y66.404
G01 F30 X59.735 Y66.411
G01 F30 X59.680 Y66.472
G01 F30 X59.605 Y66.527
G01 F30 X59.580 Y66.540
G01 F30 X59.526 Y66.579
G01 F30 X59.515 Y66.585
G01 F30 X59.503 Y66.599
G01 F30 X59.421 Y66.658
G01 F30 X59.407 Y66.664
G01 F30 X59.394 Y66.677
G01 F30 X59.355 Y66.721
G01 F30 X59.321 Y66.750
G01 F30 X59.274 Y66.802
G01 F30 X59.196 Y66.859
G01 F30 X59.139 Y66.887
G01 F30 X59.125 Y66.896
G01 F30 X59.101 Y66.921
G01 F30 X59.075 Y66.949
G01 F30 X59.042 Y66.978
G01 F30 X58.992 Y67.033
G01 F30 X58.945 Y67.065
G01 F30 X58.934 Y67.085
G01 F30 X58.887 Y67.135
G01 F30 X58.858 Y67.185
G01 F30 X58.791 Y67.259
G01 F30 X58.710 Y67.318
G01 F30 X58.707 Y67.319
G01 F30 X58.705 Y67.327
G01 F30 X58.655 Y67.414
G01 F30 X58.586 Y67.490
G01 F30 X58.539 Y67.522
G01 F30 X58.526 Y67.544
G01 F30 X58.458 Y67.612
G01 F30 X58.415 Y67.660
G01 F30 X58.382 Y67.689
G01 F30 X58.350 Y67.744
G01 F30 X58.288 Y67.813
G01 F30 X58.258 Y67.839
G01 F30 X58.241 Y67.872
G01 F30 X58.198 Y67.947
G01 F30 X58.177 Y67.970
G01 F30 X58.172 Y67.987
G01 F30 X58.122 Y68.074
G01 F30 X58.062 Y68.140
G01 F30 X58.023 Y68.177
G01 F30 X57.992 Y68.230
G01 F30 X57.936 Y68.287
G01 F30 X57.918 Y68.343
G01 F30 X57.866 Y68.433
G01 F30 X57.847 Y68.451
G01 F30 X57.841 Y68.470
G01 F30 X57.791 Y68.557
G01 F30 X57.772 Y68.578
G01 F30 X57.741 Y68.633
G01 F30 X57.720 Y68.656
G01 F30 X57.714 Y68.673
G01 F30 X57.670 Y68.749
G01 F30 X57.656 Y68.770
G01 F30 X57.638 Y68.826
G01 F30 X57.593 Y68.903
G01 F30 X57.593 Y68.908
G01 F30 X57.562 Y69.003
G01 F30 X57.510 Y69.093
G01 F30 X57.466 Y69.138
G01 F30 X57.462 Y69.151
G01 F30 X57.428 Y69.218
G01 F30 X57.391 Y69.283
G01 F30 X57.377 Y69.304
G01 F30 X57.361 Y69.352
G01 F30 X57.330 Y69.418
G01 F30 X57.310 Y69.479
G01 F30 X57.280 Y69.543
G01 F30 X57.270 Y69.579
G01 F30 X57.263 Y69.645
G01 F30 X57.232 Y69.740
G01 F30 X57.190 Y69.812
G01 F30 X57.187 Y69.848
G01 F30 X57.158 Y69.936
G01 F30 X57.127 Y70.002
G01 F30 X57.105 Y70.070
G01 F30 X57.069 Y70.132
G01 F30 X57.069 Y70.164
G01 F30 X57.059 Y70.254
G01 F30 X57.029 Y70.350
G01 F30 X57.012 Y70.379
G01 F30 X57.009 Y70.407
G01 F30 X56.978 Y70.502
G01 F30 X56.942 Y70.564
G01 F30 X56.942 Y70.596
G01 F30 X56.933 Y70.686
G01 F30 X56.901 Y70.783
G01 F30 X56.891 Y70.799
G01 F30 X56.882 Y70.889
G01 F30 X56.866 Y70.938
G01 F30 X56.866 Y71.104
G01 F30 X56.856 Y71.194
G01 F30 X56.825 Y71.289
G01 F30 X56.815 Y71.307
G01 F30 X56.806 Y71.397
G01 F30 X56.790 Y71.446
G01 F30 X56.790 Y71.459
G01 F30 X56.787 Y71.488
G01 F30 X56.790 Y71.517
G01 F30 X56.790 Y71.942
G01 F30 X56.780 Y72.032
G01 F30 X56.749 Y72.127
G01 F30 X56.739 Y72.145
G01 F30 X56.739 Y72.431
G01 F30 X56.749 Y72.449
G01 F30 X56.780 Y72.544
G01 F30 X56.790 Y72.635
G01 F30 X56.790 Y72.678
G01 F30 X56.781 Y72.758
G01 F30 X56.790 Y72.838
G01 F30 X56.790 Y73.009
G01 F30 X56.783 Y73.073
G01 F30 X56.783 Y73.079
G01 F30 X56.790 Y73.143
G01 F30 X56.790 Y73.181
G01 F30 X56.806 Y73.230
G01 F30 X56.808 Y73.258
G01 F30 X56.825 Y73.287
G01 F30 X56.856 Y73.383
G01 F30 X56.866 Y73.473
G01 F30 X56.866 Y73.545
G01 F30 X56.859 Y73.593
G01 F30 X56.882 Y73.663
G01 F30 X56.887 Y73.720
G01 F30 X56.902 Y73.745
G01 F30 X56.933 Y73.840
G01 F30 X56.935 Y73.868
G01 F30 X56.952 Y73.897
G01 F30 X56.983 Y73.992
G01 F30 X56.993 Y74.084
G01 F30 X56.993 Y74.121
G01 F30 X57.009 Y74.170
G01 F30 X57.012 Y74.198
G01 F30 X57.029 Y74.227
G01 F30 X57.059 Y74.323
G01 F30 X57.069 Y74.413
G01 F30 X57.069 Y74.445
G01 F30 X57.107 Y74.510
G01 F30 X57.128 Y74.586
G01 F30 X57.155 Y74.633
G01 F30 X57.188 Y74.730
G01 F30 X57.204 Y74.789
G01 F30 X57.232 Y74.837
G01 F30 X57.263 Y74.933
G01 F30 X57.270 Y75.006
G01 F30 X57.280 Y75.043
G01 F30 X57.290 Y75.059
G01 F30 X57.309 Y75.080
G01 F30 X57.358 Y75.166
G01 F30 X57.378 Y75.225
G01 F30 X57.385 Y75.233
G01 F30 X57.435 Y75.320
G01 F30 X57.465 Y75.412
G01 F30 X57.469 Y75.437
G01 F30 X57.471 Y75.441
G01 F30 X57.512 Y75.487
G01 F30 X57.562 Y75.574
G01 F30 X57.593 Y75.669
G01 F30 X57.598 Y75.724
G01 F30 X57.614 Y75.741
G01 F30 X57.645 Y75.796
G01 F30 X57.664 Y75.817
G01 F30 X57.714 Y75.904
