(www.thuijzer.nl/image2gcode)
(2016-11-22 16:05:03)
(bit size: 1mm)
(x size: 100mm)
(max z: 1mm)

G21 (Programming in millimeters)
G90 (Absolute programming)
G92 X0 Y0 Z1 (Tell the machine it is at 0, 0, 1)
G00 X0 Y-0.5 Z1 (Starting position)

G01 X0.71645 Y-0.5 Z0
G01 X99.634199 Y-0.5 Z0
G01 X99.634199 Y-0.71645 Z0
G01 X99.634199 Y-0.9329 Z0
G01 X99.634199 Y-1.149351 Z0
G01 X0.28355 Y-1.149351 Z0
G01 X0.28355 Y-1.365801 Z0
G01 X0.28355 Y-1.582251 Z0
G01 X0.28355 Y-1.798701 Z0
G01 X99.634199 Y-1.798701 Z0
G01 X99.634199 Y-2.015152 Z0
G01 X99.634199 Y-2.231602 Z0
G01 X99.634199 Y-2.448052 Z0
G01 X0.28355 Y-2.448052 Z0
G01 X0.28355 Y-2.664502 Z0
G01 X0.28355 Y-2.880952 Z0
G01 X0.28355 Y-3.097403 Z0
G01 X99.634199 Y-3.097403 Z0
G01 X99.634199 Y-3.313853 Z0
G01 X99.634199 Y-3.530303 Z0
G01 X99.634199 Y-3.746753 Z0
G01 X0.28355 Y-3.746753 Z0
G01 X0.28355 Y-3.963203 Z0
G01 X0.28355 Y-4.179654 Z0
G01 X0.28355 Y-4.396104 Z0
G01 X99.634199 Y-4.396104 Z0
G01 X99.634199 Y-4.612554 Z0
G01 X99.634199 Y-4.829004 Z0
G01 X99.634199 Y-5.045455 Z0
G01 X0.28355 Y-5.045455 Z0
G01 X0.28355 Y-5.261905 Z0
G01 X0.28355 Y-5.478355 Z0
G01 X0.28355 Y-5.694805 Z0
G01 X99.634199 Y-5.694805 Z0
G01 X99.634199 Y-5.911255 Z0
G01 X99.634199 Y-6.127706 Z0
G01 X99.634199 Y-6.344156 Z0
G01 X0.28355 Y-6.344156 Z0
G01 X0.28355 Y-6.560606 Z0
G01 X0.28355 Y-6.777056 Z0
G01 X0.28355 Y-6.993506 Z0
G01 X99.634199 Y-6.993506 Z0
G01 X99.634199 Y-7.209957 Z0
G01 X99.634199 Y-7.426407 Z0
G01 X99.634199 Y-7.642857 Z0
G01 X0.28355 Y-7.642857 Z0
G01 X0.28355 Y-7.859307 Z0
G01 X0.28355 Y-8.075758 Z0
G01 X0.28355 Y-8.292208 Z0
G01 X99.634199 Y-8.292208 Z0
G01 X99.634199 Y-8.508658 Z0
G01 X99.634199 Y-8.725108 Z0
G01 X99.634199 Y-8.941558 Z0
G01 X0.28355 Y-8.941558 Z0
G01 X0.28355 Y-9.158009 Z0
G01 X0.28355 Y-9.374459 Z0
G01 X0.28355 Y-9.590909 Z0
G01 X99.634199 Y-9.590909 Z0
G01 X99.634199 Y-9.807359 Z0
G01 X99.634199 Y-10.02381 Z0
G01 X99.634199 Y-10.24026 Z0
G01 X0.28355 Y-10.24026 Z0
G01 X0.28355 Y-10.45671 Z0
G01 X0.28355 Y-10.67316 Z0
G01 X0.28355 Y-10.88961 Z0
G01 X99.634199 Y-10.88961 Z0
G01 X99.634199 Y-11.106061 Z0
G01 X99.634199 Y-11.322511 Z0
G01 X99.634199 Y-11.538961 Z0
G01 X0.28355 Y-11.538961 Z0
G01 X0.28355 Y-11.755411 Z0
G01 X0.28355 Y-11.971861 Z0
G01 X0.28355 Y-12.188312 Z0
G01 X99.634199 Y-12.188312 Z0
G01 X99.634199 Y-12.404762 Z0
G01 X99.634199 Y-12.621212 Z0
G01 X99.634199 Y-12.837662 Z0
G01 X0.28355 Y-12.837662 Z0
G01 X0.28355 Y-13.054113 Z0
G01 X0.28355 Y-13.270563 Z0
G01 X0.28355 Y-13.487013 Z0
G01 X99.634199 Y-13.487013 Z0
G01 X99.634199 Y-13.703463 Z0
G01 X99.634199 Y-13.919913 Z0
G01 X99.634199 Y-14.136364 Z0
G01 X55.478355 Y-14.136364 Z0
G01 X55.261905 Y-14.136364 Z0.188235
G01 X55.045455 Y-14.136364 Z0.360784
G01 X54.829004 Y-14.136364 Z0.517647
G01 X54.612554 Y-14.136364 Z0.67451
G01 X54.396104 Y-14.136364 Z0.811765
G01 X54.179654 Y-14.136364 Z0.968627
G01 X53.963203 Y-14.136364 Z1
G01 X45.954545 Y-14.136364 Z1
G01 X45.738095 Y-14.136364 Z0.858824
G01 X45.521645 Y-14.136364 Z0.705882
G01 X45.305195 Y-14.136364 Z0.564706
G01 X45.088745 Y-14.136364 Z0.407843
G01 X44.872294 Y-14.136364 Z0.25098
G01 X44.655844 Y-14.136364 Z0.062745
G01 X44.439394 Y-14.136364 Z0
G01 X0.28355 Y-14.136364 Z0
G01 X0.28355 Y-14.352814 Z0
G01 X0.28355 Y-14.569264 Z0
G01 X0.28355 Y-14.785714 Z0
G01 X42.058442 Y-14.785714 Z0
G01 X42.274892 Y-14.785714 Z0.12549
G01 X42.491342 Y-14.785714 Z0.470588
G01 X42.707792 Y-14.785714 Z0.721569
G01 X42.924242 Y-14.785714 Z0.952941
G01 X43.140693 Y-14.785714 Z1
G01 X56.993506 Y-14.785714 Z1
G01 X57.209957 Y-14.785714 Z0.87451
G01 X57.426407 Y-14.785714 Z0.611765
G01 X57.642857 Y-14.785714 Z0.266667
G01 X57.859307 Y-14.785714 Z0
G01 X99.634199 Y-14.785714 Z0
G01 X99.634199 Y-15.002165 Z0
G01 X99.634199 Y-15.218615 Z0
G01 X99.634199 Y-15.435065 Z0
G01 X59.807359 Y-15.435065 Z0
G01 X59.590909 Y-15.435065 Z0.031373
G01 X59.374459 Y-15.435065 Z0.345098
G01 X59.158009 Y-15.435065 Z0.705882
G01 X58.941558 Y-15.435065 Z0.984314
G01 X58.725108 Y-15.435065 Z1
G01 X41.192641 Y-15.435065 Z1
G01 X40.97619 Y-15.435065 Z0.905882
G01 X40.75974 Y-15.435065 Z0.54902
G01 X40.54329 Y-15.435065 Z0.188235
G01 X40.32684 Y-15.435065 Z0
G01 X0.28355 Y-15.435065 Z0
G01 X0.28355 Y-15.651515 Z0
G01 X0.28355 Y-15.867965 Z0
G01 X0.28355 Y-16.084416 Z0
G01 X38.811688 Y-16.084416 Z0
G01 X39.028139 Y-16.084416 Z0.047059
G01 X39.244589 Y-16.084416 Z0.439216
G01 X39.461039 Y-16.084416 Z0.905882
G01 X39.677489 Y-16.084416 Z1
G01 X60.24026 Y-16.084416 Z1
G01 X60.45671 Y-16.084416 Z0.968627
G01 X60.67316 Y-16.084416 Z0.596078
G01 X60.88961 Y-16.084416 Z0.141176
G01 X61.106061 Y-16.084416 Z0
G01 X99.634199 Y-16.084416 Z0
G01 X99.634199 Y-16.300866 Z0
G01 X99.634199 Y-16.517316 Z0
G01 X99.634199 Y-16.733766 Z0
G01 X62.404762 Y-16.733766 Z0
G01 X62.188312 Y-16.733766 Z0.062745
G01 X61.971861 Y-16.733766 Z0.564706
G01 X61.755411 Y-16.733766 Z0.984314
G01 X61.538961 Y-16.733766 Z1
G01 X38.378788 Y-16.733766 Z1
G01 X38.162338 Y-16.733766 Z0.968627
G01 X37.945887 Y-16.733766 Z0.470588
G01 X37.729437 Y-16.733766 Z0.015686
G01 X37.512987 Y-16.733766 Z0
G01 X0.28355 Y-16.733766 Z0
G01 X0.28355 Y-16.950216 Z0
G01 X0.28355 Y-17.166667 Z0
G01 X0.28355 Y-17.383117 Z0
G01 X36.430736 Y-17.383117 Z0
G01 X36.647186 Y-17.383117 Z0.015686
G01 X36.863636 Y-17.383117 Z0.439216
G01 X37.080087 Y-17.383117 Z0.937255
G01 X37.296537 Y-17.383117 Z1
G01 X62.621212 Y-17.383117 Z1
G01 X62.837662 Y-17.383117 Z0.984314
G01 X63.054113 Y-17.383117 Z0.533333
G01 X63.270563 Y-17.383117 Z0.047059
G01 X63.487013 Y-17.383117 Z0
G01 X99.634199 Y-17.383117 Z0
G01 X99.634199 Y-17.599567 Z0
G01 X99.634199 Y-17.816017 Z0
G01 X99.634199 Y-18.032468 Z0
G01 X64.352814 Y-18.032468 Z0
G01 X64.136364 Y-18.032468 Z0.266667
G01 X63.919913 Y-18.032468 Z0.905882
G01 X63.703463 Y-18.032468 Z1
G01 X36.214286 Y-18.032468 Z1
G01 X35.997835 Y-18.032468 Z0.87451
G01 X35.781385 Y-18.032468 Z0.203922
G01 X35.564935 Y-18.032468 Z0
G01 X0.28355 Y-18.032468 Z0
G01 X0.28355 Y-18.248918 Z0
G01 X0.28355 Y-18.465368 Z0
G01 X0.28355 Y-18.681818 Z0
G01 X34.699134 Y-18.681818 Z0
G01 X34.915584 Y-18.681818 Z0.203922
G01 X35.132035 Y-18.681818 Z0.87451
G01 X35.348485 Y-18.681818 Z1
G01 X64.569264 Y-18.681818 Z1
G01 X64.785714 Y-18.681818 Z0.905882
G01 X65.002165 Y-18.681818 Z0.266667
G01 X65.218615 Y-18.681818 Z0
G01 X99.634199 Y-18.681818 Z0
G01 X99.634199 Y-18.898268 Z0
G01 X99.634199 Y-19.114719 Z0
G01 X99.634199 Y-19.331169 Z0
G01 X66.084416 Y-19.331169 Z0
G01 X65.867965 Y-19.331169 Z0.156863
G01 X65.651515 Y-19.331169 Z0.890196
G01 X65.435065 Y-19.331169 Z1
G01 X34.482684 Y-19.331169 Z1
G01 X34.266234 Y-19.331169 Z0.87451
G01 X34.049784 Y-19.331169 Z0.156863
G01 X33.833333 Y-19.331169 Z0
G01 X0.28355 Y-19.331169 Z0
G01 X0.28355 Y-19.547619 Z0
G01 X0.28355 Y-19.764069 Z0
G01 X0.28355 Y-19.980519 Z0
G01 X33.183983 Y-19.980519 Z0
G01 X33.400433 Y-19.980519 Z0.329412
G01 X33.616883 Y-19.980519 Z0.984314
G01 X33.833333 Y-19.980519 Z1
G01 X66.084416 Y-19.980519 Z1
G01 X66.300866 Y-19.980519 Z0.984314
G01 X66.517316 Y-19.980519 Z0.345098
G01 X66.733766 Y-19.980519 Z0
G01 X99.634199 Y-19.980519 Z0
G01 X99.634199 Y-20.19697 Z0
G01 X99.634199 Y-20.41342 Z0
G01 X99.634199 Y-20.62987 Z0
G01 X67.599567 Y-20.62987 Z0
G01 X67.383117 Y-20.62987 Z0.015686
G01 X67.166667 Y-20.62987 Z0.627451
G01 X66.950216 Y-20.62987 Z1
G01 X32.967532 Y-20.62987 Z1
G01 X32.751082 Y-20.62987 Z0.596078
G01 X32.534632 Y-20.62987 Z0.015686
G01 X32.318182 Y-20.62987 Z0
G01 X0.28355 Y-20.62987 Z0
G01 X0.28355 Y-20.84632 Z0
G01 X0.28355 Y-21.062771 Z0
G01 X0.28355 Y-21.279221 Z0
G01 X31.885281 Y-21.279221 Z0
G01 X32.101732 Y-21.279221 Z0.533333
G01 X32.318182 Y-21.279221 Z1
G01 X55.261905 Y-21.279221 Z1
G01 X55.478355 Y-21.279221 Z0.764706
G01 X55.694805 Y-21.279221 Z0.454902
G01 X55.911255 Y-21.279221 Z0.141176
G01 X56.127706 Y-21.279221 Z0
G01 X59.374459 Y-21.279221 Z0
G01 X59.590909 Y-21.279221 Z0.188235
G01 X59.807359 Y-21.279221 Z0.517647
G01 X60.02381 Y-21.279221 Z0.811765
G01 X60.24026 Y-21.279221 Z1
G01 X67.599567 Y-21.279221 Z1
G01 X67.816017 Y-21.279221 Z0.533333
G01 X68.032468 Y-21.279221 Z0
G01 X99.634199 Y-21.279221 Z0
G01 X99.634199 Y-21.495671 Z0
G01 X99.634199 Y-21.712121 Z0
G01 X99.634199 Y-21.928571 Z0
G01 X68.681818 Y-21.928571 Z0
G01 X68.465368 Y-21.928571 Z0.25098
G01 X68.248918 Y-21.928571 Z0.984314
G01 X68.032468 Y-21.928571 Z1
G01 X61.755411 Y-21.928571 Z1
G01 X61.538961 Y-21.928571 Z0.984314
G01 X61.322511 Y-21.928571 Z0.627451
G01 X61.106061 Y-21.928571 Z0.094118
G01 X60.88961 Y-21.928571 Z0
G01 X60.24026 Y-21.928571 Z0
G01 X60.02381 Y-21.928571 Z0.109804
G01 X59.807359 Y-21.928571 Z0.392157
G01 X59.590909 Y-21.928571 Z0.611765
G01 X59.374459 Y-21.928571 Z0.843137
G01 X59.158009 Y-21.928571 Z1
G01 X56.344156 Y-21.928571 Z1
G01 X56.127706 Y-21.928571 Z0.952941
G01 X55.911255 Y-21.928571 Z0.764706
G01 X55.694805 Y-21.928571 Z0.486275
G01 X55.478355 Y-21.928571 Z0.141176
G01 X55.261905 Y-21.928571 Z0
G01 X54.612554 Y-21.928571 Z0
G01 X54.396104 Y-21.928571 Z0.062745
G01 X54.179654 Y-21.928571 Z0.564706
G01 X53.963203 Y-21.928571 Z0.968627
G01 X53.746753 Y-21.928571 Z1
G01 X31.885281 Y-21.928571 Z1
G01 X31.668831 Y-21.928571 Z0.984314
G01 X31.452381 Y-21.928571 Z0.266667
G01 X31.235931 Y-21.928571 Z0
G01 X0.28355 Y-21.928571 Z0
G01 X0.28355 Y-22.145022 Z0
G01 X0.28355 Y-22.361472 Z0
G01 X0.28355 Y-22.577922 Z0
G01 X30.58658 Y-22.577922 Z0
G01 X30.80303 Y-22.577922 Z0.078431
G01 X31.019481 Y-22.577922 Z0.87451
G01 X31.235931 Y-22.577922 Z1
G01 X52.880952 Y-22.577922 Z1
G01 X53.097403 Y-22.577922 Z0.937255
G01 X53.313853 Y-22.577922 Z0.266667
G01 X53.530303 Y-22.577922 Z0
G01 X53.746753 Y-22.577922 Z0
G01 X53.963203 Y-22.577922 Z0.078431
G01 X54.179654 Y-22.577922 Z0.564706
G01 X54.396104 Y-22.577922 Z0.984314
G01 X54.612554 Y-22.577922 Z1
G01 X60.88961 Y-22.577922 Z1
G01 X61.106061 Y-22.577922 Z0.952941
G01 X61.322511 Y-22.577922 Z0.486275
G01 X61.538961 Y-22.577922 Z0.031373
G01 X61.755411 Y-22.577922 Z0
G01 X61.971861 Y-22.577922 Z0
G01 X62.188312 Y-22.577922 Z0.313725
G01 X62.404762 Y-22.577922 Z0.952941
G01 X62.621212 Y-22.577922 Z1
G01 X68.681818 Y-22.577922 Z1
G01 X68.898268 Y-22.577922 Z0.858824
G01 X69.114719 Y-22.577922 Z0.078431
G01 X69.331169 Y-22.577922 Z0
G01 X99.634199 Y-22.577922 Z0
G01 X99.634199 Y-22.794372 Z0
G01 X99.634199 Y-23.010823 Z0
G01 X99.634199 Y-23.227273 Z0
G01 X69.764069 Y-23.227273 Z0
G01 X69.547619 Y-23.227273 Z0.203922
G01 X69.331169 Y-23.227273 Z0.984314
G01 X69.114719 Y-23.227273 Z1
G01 X63.270563 Y-23.227273 Z1
G01 X63.054113 Y-23.227273 Z0.905882
G01 X62.837662 Y-23.227273 Z0.156863
G01 X62.621212 Y-23.227273 Z0
G01 X62.404762 Y-23.227273 Z0.015686
G01 X62.188312 Y-23.227273 Z0.611765
G01 X61.971861 Y-23.227273 Z1
G01 X53.530303 Y-23.227273 Z1
G01 X53.313853 Y-23.227273 Z0.737255
G01 X53.097403 Y-23.227273 Z0.062745
G01 X52.880952 Y-23.227273 Z0
G01 X52.664502 Y-23.227273 Z0.015686
G01 X52.448052 Y-23.227273 Z0.705882
G01 X52.231602 Y-23.227273 Z1
G01 X30.80303 Y-23.227273 Z1
G01 X30.58658 Y-23.227273 Z0.984314
G01 X30.37013 Y-23.227273 Z0.235294
G01 X30.15368 Y-23.227273 Z0
G01 X0.28355 Y-23.227273 Z0
G01 X0.28355 Y-23.443723 Z0
G01 X0.28355 Y-23.660173 Z0
G01 X0.28355 Y-23.876623 Z0
G01 X29.720779 Y-23.876623 Z0
G01 X29.937229 Y-23.876623 Z0.470588
G01 X30.15368 Y-23.876623 Z1
G01 X51.582251 Y-23.876623 Z1
G01 X51.798701 Y-23.876623 Z0.984314
G01 X52.015152 Y-23.876623 Z0.25098
G01 X52.231602 Y-23.876623 Z0
G01 X52.448052 Y-23.876623 Z0.015686
G01 X52.664502 Y-23.876623 Z0.74902
G01 X52.880952 Y-23.876623 Z1
G01 X62.621212 Y-23.876623 Z1
G01 X62.837662 Y-23.876623 Z0.486275
G01 X63.054113 Y-23.876623 Z0
G01 X63.270563 Y-23.876623 Z0
G01 X63.487013 Y-23.876623 Z0.580392
G01 X63.703463 Y-23.876623 Z1
G01 X69.764069 Y-23.876623 Z1
G01 X69.980519 Y-23.876623 Z0.407843
G01 X70.19697 Y-23.876623 Z0
G01 X99.634199 Y-23.876623 Z0
G01 X99.634199 Y-24.093074 Z0
G01 X99.634199 Y-24.309524 Z0
G01 X99.634199 Y-24.525974 Z0
G01 X70.62987 Y-24.525974 Z0
G01 X70.41342 Y-24.525974 Z0.596078
G01 X70.19697 Y-24.525974 Z1
G01 X64.136364 Y-24.525974 Z1
G01 X63.919913 Y-24.525974 Z0.611765
G01 X63.703463 Y-24.525974 Z0
G01 X63.487013 Y-24.525974 Z0
G01 X63.270563 Y-24.525974 Z0.486275
G01 X63.054113 Y-24.525974 Z1
G01 X52.448052 Y-24.525974 Z1
G01 X52.231602 Y-24.525974 Z0.968627
G01 X52.015152 Y-24.525974 Z0.109804
G01 X51.798701 Y-24.525974 Z0
G01 X51.582251 Y-24.525974 Z0.094118
G01 X51.365801 Y-24.525974 Z0.937255
G01 X51.149351 Y-24.525974 Z1
G01 X29.720779 Y-24.525974 Z1
G01 X29.504329 Y-24.525974 Z0.643137
G01 X29.287879 Y-24.525974 Z0
G01 X0.28355 Y-24.525974 Z0
G01 X0.28355 Y-24.742424 Z0
G01 X0.28355 Y-24.958874 Z0
G01 X0.28355 Y-25.175325 Z0
G01 X28.854978 Y-25.175325 Z0
G01 X29.071429 Y-25.175325 Z0.470588
G01 X29.287879 Y-25.175325 Z1
G01 X50.9329 Y-25.175325 Z1
G01 X51.149351 Y-25.175325 Z0.407843
G01 X51.365801 Y-25.175325 Z0
G01 X51.582251 Y-25.175325 Z0
G01 X51.798701 Y-25.175325 Z0.721569
G01 X52.015152 Y-25.175325 Z1
G01 X63.270563 Y-25.175325 Z1
G01 X63.487013 Y-25.175325 Z0.937255
G01 X63.703463 Y-25.175325 Z0.047059
G01 X63.919913 Y-25.175325 Z0
G01 X64.136364 Y-25.175325 Z0.094118
G01 X64.352814 Y-25.175325 Z0.968627
G01 X64.569264 Y-25.175325 Z1
G01 X70.62987 Y-25.175325 Z1
G01 X70.84632 Y-25.175325 Z0.407843
G01 X71.062771 Y-25.175325 Z0
G01 X99.634199 Y-25.175325 Z0
G01 X99.634199 Y-25.391775 Z0
G01 X99.634199 Y-25.608225 Z0
G01 X99.634199 Y-25.824675 Z0
G01 X71.495671 Y-25.824675 Z0
G01 X71.279221 Y-25.824675 Z0.219608
G01 X71.062771 Y-25.824675 Z1
G01 X64.785714 Y-25.824675 Z1
G01 X64.569264 Y-25.824675 Z0.811765
G01 X64.352814 Y-25.824675 Z0
G01 X64.136364 Y-25.824675 Z0
G01 X63.919913 Y-25.824675 Z0.109804
G01 X63.703463 Y-25.824675 Z1
G01 X51.798701 Y-25.824675 Z1
G01 X51.582251 Y-25.824675 Z0.921569
G01 X51.365801 Y-25.824675 Z0
G01 X51.149351 Y-25.824675 Z0
G01 X50.9329 Y-25.824675 Z0.031373
G01 X50.71645 Y-25.824675 Z0.952941
G01 X50.5 Y-25.824675 Z1
G01 X28.854978 Y-25.824675 Z1
G01 X28.638528 Y-25.824675 Z0.298039
G01 X28.422078 Y-25.824675 Z0
G01 X0.28355 Y-25.824675 Z0
G01 X0.28355 Y-26.041126 Z0
G01 X0.28355 Y-26.257576 Z0
G01 X0.28355 Y-26.474026 Z0
G01 X27.989177 Y-26.474026 Z0
G01 X28.205628 Y-26.474026 Z0.141176
G01 X28.422078 Y-26.474026 Z0.968627
G01 X28.638528 Y-26.474026 Z1
G01 X50.28355 Y-26.474026 Z1
G01 X50.5 Y-26.474026 Z0.984314
G01 X50.71645 Y-26.474026 Z0.078431
G01 X50.9329 Y-26.474026 Z0
G01 X51.149351 Y-26.474026 Z0
G01 X51.365801 Y-26.474026 Z0.858824
G01 X51.582251 Y-26.474026 Z1
G01 X63.703463 Y-26.474026 Z1
G01 X63.919913 Y-26.474026 Z0.843137
G01 X64.136364 Y-26.474026 Z0
G01 X64.569264 Y-26.474026 Z0
G01 X64.785714 Y-26.474026 Z0.890196
G01 X65.002165 Y-26.474026 Z1
G01 X71.279221 Y-26.474026 Z1
G01 X71.495671 Y-26.474026 Z0.937255
G01 X71.712121 Y-26.474026 Z0.062745
G01 X71.928571 Y-26.474026 Z0
G01 X99.634199 Y-26.474026 Z0
G01 X99.634199 Y-26.690476 Z0
G01 X99.634199 Y-26.906926 Z0
G01 X99.634199 Y-27.123377 Z0
G01 X72.145022 Y-27.123377 Z0
G01 X71.928571 Y-27.123377 Z0.439216
G01 X71.712121 Y-27.123377 Z1
G01 X65.002165 Y-27.123377 Z1
G01 X64.785714 Y-27.123377 Z0.203922
G01 X64.569264 Y-27.123377 Z0
G01 X64.352814 Y-27.123377 Z0
G01 X64.136364 Y-27.123377 Z0.282353
G01 X63.919913 Y-27.123377 Z1
G01 X51.365801 Y-27.123377 Z1
G01 X51.149351 Y-27.123377 Z0.25098
G01 X50.9329 Y-27.123377 Z0
G01 X50.71645 Y-27.123377 Z0
G01 X50.5 Y-27.123377 Z0.156863
G01 X50.28355 Y-27.123377 Z1
G01 X28.205628 Y-27.123377 Z1
G01 X27.989177 Y-27.123377 Z0.564706
G01 X27.772727 Y-27.123377 Z0
G01 X0.28355 Y-27.123377 Z0
G01 X0.28355 Y-27.339827 Z0
G01 X0.28355 Y-27.556277 Z0
G01 X0.28355 Y-27.772727 Z0
G01 X27.339827 Y-27.772727 Z0
G01 X27.556277 Y-27.772727 Z0.062745
G01 X27.772727 Y-27.772727 Z0.937255
G01 X27.989177 Y-27.772727 Z1
G01 X50.0671 Y-27.772727 Z1
G01 X50.28355 Y-27.772727 Z0.858824
G01 X50.5 Y-27.772727 Z0
G01 X50.9329 Y-27.772727 Z0
G01 X51.149351 Y-27.772727 Z0.517647
G01 X51.365801 Y-27.772727 Z1
G01 X63.919913 Y-27.772727 Z1
G01 X64.136364 Y-27.772727 Z0.392157
G01 X64.352814 Y-27.772727 Z0
G01 X64.785714 Y-27.772727 Z0
G01 X65.002165 Y-27.772727 Z0.796078
G01 X65.218615 Y-27.772727 Z1
G01 X71.928571 Y-27.772727 Z1
G01 X72.145022 Y-27.772727 Z0.858824
G01 X72.361472 Y-27.772727 Z0.015686
G01 X72.577922 Y-27.772727 Z0
G01 X99.634199 Y-27.772727 Z0
G01 X99.634199 Y-27.989177 Z0
G01 X99.634199 Y-28.205628 Z0
G01 X99.634199 Y-28.422078 Z0
G01 X72.794372 Y-28.422078 Z0
G01 X72.577922 Y-28.422078 Z0.313725
G01 X72.361472 Y-28.422078 Z1
G01 X65.218615 Y-28.422078 Z1
G01 X65.002165 Y-28.422078 Z0.87451
G01 X64.785714 Y-28.422078 Z0
G01 X64.352814 Y-28.422078 Z0
G01 X64.136364 Y-28.422078 Z0.392157
G01 X63.919913 Y-28.422078 Z1
G01 X51.365801 Y-28.422078 Z1
G01 X51.149351 Y-28.422078 Z0.517647
G01 X50.9329 Y-28.422078 Z0
G01 X50.5 Y-28.422078 Z0
G01 X50.28355 Y-28.422078 Z0.74902
G01 X50.0671 Y-28.422078 Z1
G01 X27.556277 Y-28.422078 Z1
G01 X27.339827 Y-28.422078 Z0.439216
G01 X27.123377 Y-28.422078 Z0
G01 X0.28355 Y-28.422078 Z0
G01 X0.28355 Y-28.638528 Z0
G01 X0.28355 Y-28.854978 Z0
G01 X0.28355 Y-29.071429 Z0
G01 X26.906926 Y-29.071429 Z0
G01 X27.123377 Y-29.071429 Z0.627451
G01 X27.339827 Y-29.071429 Z1
G01 X50.28355 Y-29.071429 Z1
G01 X50.5 Y-29.071429 Z0.047059
G01 X50.71645 Y-29.071429 Z0
G01 X50.9329 Y-29.071429 Z0
G01 X51.149351 Y-29.071429 Z0.376471
G01 X51.365801 Y-29.071429 Z1
G01 X63.919913 Y-29.071429 Z1
G01 X64.136364 Y-29.071429 Z0.25098
G01 X64.352814 Y-29.071429 Z0
G01 X64.569264 Y-29.071429 Z0
G01 X64.785714 Y-29.071429 Z0.172549
G01 X65.002165 Y-29.071429 Z1
G01 X72.577922 Y-29.071429 Z1
G01 X72.794372 Y-29.071429 Z0.517647
G01 X73.010823 Y-29.071429 Z0
G01 X99.634199 Y-29.071429 Z0
G01 X99.634199 Y-29.287879 Z0
G01 X99.634199 Y-29.504329 Z0
G01 X99.634199 Y-29.720779 Z0
G01 X73.227273 Y-29.720779 Z0
G01 X73.010823 Y-29.720779 Z0.596078
G01 X72.794372 Y-29.720779 Z1
G01 X65.002165 Y-29.720779 Z1
G01 X64.785714 Y-29.720779 Z0.827451
G01 X64.569264 Y-29.720779 Z0
G01 X64.136364 Y-29.720779 Z0
G01 X63.919913 Y-29.720779 Z0.937255
G01 X63.703463 Y-29.720779 Z1
G01 X51.365801 Y-29.720779 Z1
G01 X51.149351 Y-29.720779 Z0.062745
G01 X50.9329 Y-29.720779 Z0
G01 X50.71645 Y-29.720779 Z0
G01 X50.5 Y-29.720779 Z0.705882
G01 X50.28355 Y-29.720779 Z1
G01 X27.123377 Y-29.720779 Z1
G01 X26.906926 Y-29.720779 Z0.737255
G01 X26.690476 Y-29.720779 Z0
G01 X0.28355 Y-29.720779 Z0
G01 X0.28355 Y-29.937229 Z0
G01 X0.28355 Y-30.15368 Z0
G01 X0.28355 Y-30.37013 Z0
G01 X26.474026 Y-30.37013 Z0
G01 X26.690476 Y-30.37013 Z0.827451
G01 X26.906926 Y-30.37013 Z1
G01 X50.5 Y-30.37013 Z1
G01 X50.71645 Y-30.37013 Z0.643137
G01 X50.9329 Y-30.37013 Z0
G01 X51.149351 Y-30.37013 Z0
G01 X51.365801 Y-30.37013 Z0.266667
G01 X51.582251 Y-30.37013 Z1
G01 X63.703463 Y-30.37013 Z1
G01 X63.919913 Y-30.37013 Z0.141176
G01 X64.136364 Y-30.37013 Z0
G01 X64.352814 Y-30.37013 Z0
G01 X64.569264 Y-30.37013 Z0.764706
G01 X64.785714 Y-30.37013 Z1
G01 X73.010823 Y-30.37013 Z1
G01 X73.227273 Y-30.37013 Z0.658824
G01 X73.443723 Y-30.37013 Z0
G01 X99.634199 Y-30.37013 Z0
G01 X99.634199 Y-30.58658 Z0
G01 X99.634199 Y-30.80303 Z0
G01 X99.634199 Y-31.019481 Z0
G01 X73.660173 Y-31.019481 Z0
G01 X73.443723 Y-31.019481 Z0.690196
G01 X73.227273 Y-31.019481 Z1
G01 X64.569264 Y-31.019481 Z1
G01 X64.352814 Y-31.019481 Z0.890196
G01 X64.136364 Y-31.019481 Z0.031373
G01 X63.919913 Y-31.019481 Z0
G01 X63.703463 Y-31.019481 Z0.188235
G01 X63.487013 Y-31.019481 Z1
G01 X51.798701 Y-31.019481 Z1
G01 X51.582251 Y-31.019481 Z0.313725
G01 X51.365801 Y-31.019481 Z0
G01 X51.149351 Y-31.019481 Z0
G01 X50.9329 Y-31.019481 Z0.796078
G01 X50.71645 Y-31.019481 Z1
G01 X26.690476 Y-31.019481 Z1
G01 X26.474026 Y-31.019481 Z0.811765
G01 X26.257576 Y-31.019481 Z0
G01 X0.28355 Y-31.019481 Z0
G01 X0.28355 Y-31.235931 Z0
G01 X0.28355 Y-31.452381 Z0
G01 X0.28355 Y-31.668831 Z0
G01 X26.041126 Y-31.668831 Z0
G01 X26.257576 Y-31.668831 Z0.596078
G01 X26.474026 Y-31.668831 Z1
G01 X51.149351 Y-31.668831 Z1
G01 X51.365801 Y-31.668831 Z0.439216
G01 X51.582251 Y-31.668831 Z0
G01 X51.798701 Y-31.668831 Z0
G01 X52.015152 Y-31.668831 Z0.690196
G01 X52.231602 Y-31.668831 Z1
G01 X63.054113 Y-31.668831 Z1
G01 X63.270563 Y-31.668831 Z0.564706
G01 X63.487013 Y-31.668831 Z0
G01 X63.703463 Y-31.668831 Z0
G01 X63.919913 Y-31.668831 Z0.564706
G01 X64.136364 Y-31.668831 Z1
G01 X73.443723 Y-31.668831 Z1
G01 X73.660173 Y-31.668831 Z0.439216
G01 X73.876623 Y-31.668831 Z0
G01 X99.634199 Y-31.668831 Z0
G01 X99.634199 Y-31.885281 Z0
G01 X99.634199 Y-32.101732 Z0
G01 X99.634199 Y-32.318182 Z0
G01 X74.093074 Y-32.318182 Z0
G01 X73.876623 Y-32.318182 Z0.219608
G01 X73.660173 Y-32.318182 Z1
G01 X63.703463 Y-32.318182 Z1
G01 X63.487013 Y-32.318182 Z0.407843
G01 X63.270563 Y-32.318182 Z0
G01 X63.054113 Y-32.318182 Z0
G01 X62.837662 Y-32.318182 Z0.580392
G01 X62.621212 Y-32.318182 Z1
G01 X52.664502 Y-32.318182 Z1
G01 X52.448052 Y-32.318182 Z0.705882
G01 X52.231602 Y-32.318182 Z0
G01 X52.015152 Y-32.318182 Z0
G01 X51.798701 Y-32.318182 Z0.298039
G01 X51.582251 Y-32.318182 Z0.984314
G01 X51.365801 Y-32.318182 Z1
G01 X26.257576 Y-32.318182 Z1
G01 X26.041126 Y-32.318182 Z0.360784
G01 X25.824675 Y-32.318182 Z0
G01 X0.28355 Y-32.318182 Z0
G01 X0.28355 Y-32.534632 Z0
G01 X0.28355 Y-32.751082 Z0
G01 X0.28355 Y-32.967532 Z0
G01 X25.608225 Y-32.967532 Z0
G01 X25.824675 Y-32.967532 Z0.12549
G01 X26.041126 Y-32.967532 Z1
G01 X52.015152 Y-32.967532 Z1
G01 X52.231602 Y-32.967532 Z0.74902
G01 X52.448052 Y-32.967532 Z0.015686
G01 X52.664502 Y-32.967532 Z0
G01 X52.880952 Y-32.967532 Z0.235294
G01 X53.097403 Y-32.967532 Z0.905882
G01 X53.313853 Y-32.967532 Z1
G01 X61.971861 Y-32.967532 Z1
G01 X62.188312 Y-32.967532 Z0.858824
G01 X62.404762 Y-32.967532 Z0.156863
G01 X62.621212 Y-32.967532 Z0
G01 X62.837662 Y-32.967532 Z0.047059
G01 X63.054113 Y-32.967532 Z0.843137
G01 X63.270563 Y-32.967532 Z1
G01 X73.660173 Y-32.967532 Z1
G01 X73.876623 Y-32.967532 Z0.952941
G01 X74.093074 Y-32.967532 Z0.015686
G01 X74.309524 Y-32.967532 Z0
G01 X99.634199 Y-32.967532 Z0
G01 X99.634199 Y-33.183983 Z0
G01 X99.634199 Y-33.400433 Z0
G01 X99.634199 Y-33.616883 Z0
G01 X74.309524 Y-33.616883 Z0
G01 X74.093074 Y-33.616883 Z0.533333
G01 X73.876623 Y-33.616883 Z1
G01 X62.621212 Y-33.616883 Z1
G01 X62.404762 Y-33.616883 Z0.827451
G01 X62.188312 Y-33.616883 Z0.12549
G01 X61.971861 Y-33.616883 Z0
G01 X61.755411 Y-33.616883 Z0
G01 X61.538961 Y-33.616883 Z0.407843
G01 X61.322511 Y-33.616883 Z0.968627
G01 X61.106061 Y-33.616883 Z1
G01 X54.179654 Y-33.616883 Z1
G01 X53.963203 Y-33.616883 Z0.984314
G01 X53.746753 Y-33.616883 Z0.517647
G01 X53.530303 Y-33.616883 Z0
G01 X53.313853 Y-33.616883 Z0
G01 X53.097403 Y-33.616883 Z0.078431
G01 X52.880952 Y-33.616883 Z0.74902
G01 X52.664502 Y-33.616883 Z1
G01 X26.041126 Y-33.616883 Z1
G01 X25.824675 Y-33.616883 Z0.658824
G01 X25.608225 Y-33.616883 Z0
G01 X0.28355 Y-33.616883 Z0
G01 X0.28355 Y-33.833333 Z0
G01 X0.28355 Y-34.049784 Z0
G01 X0.28355 Y-34.266234 Z0
G01 X25.391775 Y-34.266234 Z0
G01 X25.608225 Y-34.266234 Z0.109804
G01 X25.824675 Y-34.266234 Z1
G01 X53.313853 Y-34.266234 Z1
G01 X53.530303 Y-34.266234 Z0.984314
G01 X53.746753 Y-34.266234 Z0.533333
G01 X53.963203 Y-34.266234 Z0.062745
G01 X54.179654 Y-34.266234 Z0
G01 X54.612554 Y-34.266234 Z0
G01 X54.829004 Y-34.266234 Z0.313725
G01 X55.045455 Y-34.266234 Z0.643137
G01 X55.261905 Y-34.266234 Z0.952941
G01 X55.478355 Y-34.266234 Z1
G01 X59.807359 Y-34.266234 Z1
G01 X60.02381 Y-34.266234 Z0.921569
G01 X60.24026 Y-34.266234 Z0.611765
G01 X60.45671 Y-34.266234 Z0.25098
G01 X60.67316 Y-34.266234 Z0
G01 X61.106061 Y-34.266234 Z0
G01 X61.322511 Y-34.266234 Z0.094118
G01 X61.538961 Y-34.266234 Z0.611765
G01 X61.755411 Y-34.266234 Z1
G01 X73.876623 Y-34.266234 Z1
G01 X74.093074 Y-34.266234 Z0.968627
G01 X74.309524 Y-34.266234 Z0
G01 X99.634199 Y-34.266234 Z0
G01 X99.634199 Y-34.482684 Z0
G01 X99.634199 Y-34.699134 Z0
G01 X99.634199 Y-34.915584 Z0
G01 X74.525974 Y-34.915584 Z0
G01 X74.309524 Y-34.915584 Z0.439216
G01 X74.093074 Y-34.915584 Z1
G01 X60.67316 Y-34.915584 Z1
G01 X60.45671 Y-34.915584 Z0.858824
G01 X60.24026 Y-34.915584 Z0.329412
G01 X60.02381 Y-34.915584 Z0.031373
G01 X59.807359 Y-34.915584 Z0
G01 X55.478355 Y-34.915584 Z0
G01 X55.261905 Y-34.915584 Z0.015686
G01 X55.045455 Y-34.915584 Z0.282353
G01 X54.829004 Y-34.915584 Z0.796078
G01 X54.612554 Y-34.915584 Z1
G01 X25.824675 Y-34.915584 Z1
G01 X25.608225 Y-34.915584 Z0.580392
G01 X25.391775 Y-34.915584 Z0
G01 X0.28355 Y-34.915584 Z0
G01 X0.28355 Y-35.132035 Z0
G01 X0.28355 Y-35.348485 Z0
G01 X0.28355 Y-35.564935 Z0
G01 X25.391775 Y-35.564935 Z0
G01 X25.608225 Y-35.564935 Z1
G01 X56.777056 Y-35.564935 Z1
G01 X56.993506 Y-35.564935 Z0.952941
G01 X57.209957 Y-35.564935 Z0.843137
G01 X57.426407 Y-35.564935 Z0.74902
G01 X57.642857 Y-35.564935 Z0.643137
G01 X57.859307 Y-35.564935 Z0.74902
G01 X58.075758 Y-35.564935 Z0.858824
G01 X58.292208 Y-35.564935 Z0.968627
G01 X58.508658 Y-35.564935 Z1
G01 X74.093074 Y-35.564935 Z1
G01 X74.309524 Y-35.564935 Z0.87451
G01 X74.525974 Y-35.564935 Z0
G01 X99.634199 Y-35.564935 Z0
G01 X99.634199 Y-35.781385 Z0
G01 X99.634199 Y-35.997835 Z0
G01 X99.634199 Y-36.214286 Z0
G01 X74.525974 Y-36.214286 Z0
G01 X74.309524 Y-36.214286 Z1
G01 X25.608225 Y-36.214286 Z1
G01 X25.391775 Y-36.214286 Z0.12549
G01 X25.175325 Y-36.214286 Z0
G01 X0.28355 Y-36.214286 Z0
G01 X0.28355 Y-36.430736 Z0
G01 X0.28355 Y-36.647186 Z0
G01 X0.28355 Y-36.863636 Z0
G01 X25.175325 Y-36.863636 Z0
G01 X25.391775 Y-36.863636 Z0.298039
G01 X25.608225 Y-36.863636 Z1
G01 X74.309524 Y-36.863636 Z1
G01 X74.525974 Y-36.863636 Z0.188235
G01 X74.742424 Y-36.863636 Z0
G01 X99.634199 Y-36.863636 Z0
G01 X99.634199 Y-37.080087 Z0
G01 X99.634199 Y-37.296537 Z0
G01 X99.634199 Y-37.512987 Z0
G01 X74.742424 Y-37.512987 Z0
G01 X74.525974 Y-37.512987 Z0.376471
G01 X74.309524 Y-37.512987 Z1
G01 X25.608225 Y-37.512987 Z1
G01 X25.391775 Y-37.512987 Z0.501961
G01 X25.175325 Y-37.512987 Z0
G01 X0.28355 Y-37.512987 Z0
G01 X0.28355 Y-37.729437 Z0
G01 X0.28355 Y-37.945887 Z0
G01 X0.28355 Y-38.162338 Z0
G01 X25.175325 Y-38.162338 Z0
G01 X25.391775 Y-38.162338 Z0.517647
G01 X25.608225 Y-38.162338 Z1
G01 X48.551948 Y-38.162338 Z1
G01 X48.768398 Y-38.162338 Z0.890196
G01 X48.984848 Y-38.162338 Z0.87451
G01 X49.201299 Y-38.162338 Z0.827451
G01 X49.417749 Y-38.162338 Z0.74902
G01 X49.634199 Y-38.162338 Z0.74902
G01 X49.850649 Y-38.162338 Z0.658824
G01 X50.0671 Y-38.162338 Z0.74902
G01 X50.28355 Y-38.162338 Z0.74902
G01 X50.5 Y-38.162338 Z0.827451
G01 X50.71645 Y-38.162338 Z0.87451
G01 X50.9329 Y-38.162338 Z0.890196
G01 X51.149351 Y-38.162338 Z1
G01 X74.309524 Y-38.162338 Z1
G01 X74.525974 Y-38.162338 Z0.392157
G01 X74.742424 Y-38.162338 Z0
G01 X99.634199 Y-38.162338 Z0
G01 X99.634199 Y-38.378788 Z0
G01 X99.634199 Y-38.595238 Z0
G01 X99.634199 Y-38.811688 Z0
G01 X74.742424 Y-38.811688 Z0
G01 X74.525974 Y-38.811688 Z0.392157
G01 X74.309524 Y-38.811688 Z1
G01 X57.426407 Y-38.811688 Z1
G01 X57.209957 Y-38.811688 Z0.984314
G01 X56.993506 Y-38.811688 Z0.843137
G01 X56.777056 Y-38.811688 Z0.690196
G01 X56.560606 Y-38.811688 Z0.54902
G01 X56.344156 Y-38.811688 Z0.407843
G01 X56.127706 Y-38.811688 Z0.235294
G01 X55.911255 Y-38.811688 Z0.094118
G01 X55.694805 Y-38.811688 Z0
G01 X44.006494 Y-38.811688 Z0
G01 X43.790043 Y-38.811688 Z0.062745
G01 X43.573593 Y-38.811688 Z0.203922
G01 X43.357143 Y-38.811688 Z0.360784
G01 X43.140693 Y-38.811688 Z0.517647
G01 X42.924242 Y-38.811688 Z0.67451
G01 X42.707792 Y-38.811688 Z0.811765
G01 X42.491342 Y-38.811688 Z0.968627
G01 X42.274892 Y-38.811688 Z1
G01 X25.608225 Y-38.811688 Z1
G01 X25.391775 Y-38.811688 Z0.517647
G01 X25.175325 Y-38.811688 Z0
G01 X0.28355 Y-38.811688 Z0
G01 X0.28355 Y-39.028139 Z0
G01 X0.28355 Y-39.244589 Z0
G01 X0.28355 Y-39.461039 Z0
G01 X25.175325 Y-39.461039 Z0
G01 X25.391775 Y-39.461039 Z0.392157
G01 X25.608225 Y-39.461039 Z1
G01 X39.461039 Y-39.461039 Z1
G01 X39.677489 Y-39.461039 Z0.87451
G01 X39.893939 Y-39.461039 Z0.627451
G01 X40.11039 Y-39.461039 Z0.376471
G01 X40.32684 Y-39.461039 Z0.109804
G01 X40.54329 Y-39.461039 Z0
G01 X42.924242 Y-39.461039 Z0
G01 X43.140693 Y-39.461039 Z0.031373
G01 X43.357143 Y-39.461039 Z0.188235
G01 X43.573593 Y-39.461039 Z0.329412
G01 X43.790043 Y-39.461039 Z0.470588
G01 X44.006494 Y-39.461039 Z0.643137
G01 X44.222944 Y-39.461039 Z0.796078
G01 X44.439394 Y-39.461039 Z0.937255
G01 X44.655844 Y-39.461039 Z1
G01 X55.045455 Y-39.461039 Z1
G01 X55.261905 Y-39.461039 Z0.890196
G01 X55.478355 Y-39.461039 Z0.721569
G01 X55.694805 Y-39.461039 Z0.580392
G01 X55.911255 Y-39.461039 Z0.439216
G01 X56.127706 Y-39.461039 Z0.298039
G01 X56.344156 Y-39.461039 Z0.141176
G01 X56.560606 Y-39.461039 Z0
G01 X59.158009 Y-39.461039 Z0
G01 X59.374459 Y-39.461039 Z0.203922
G01 X59.590909 Y-39.461039 Z0.470588
G01 X59.807359 Y-39.461039 Z0.721569
G01 X60.02381 Y-39.461039 Z0.952941
G01 X60.24026 Y-39.461039 Z1
G01 X74.309524 Y-39.461039 Z1
G01 X74.525974 Y-39.461039 Z0.266667
G01 X74.742424 Y-39.461039 Z0
G01 X99.634199 Y-39.461039 Z0
G01 X99.634199 Y-39.677489 Z0
G01 X99.634199 Y-39.893939 Z0
G01 X99.634199 Y-40.11039 Z0
G01 X74.742424 Y-40.11039 Z0
G01 X74.525974 Y-40.11039 Z0.12549
G01 X74.309524 Y-40.11039 Z1
G01 X62.621212 Y-40.11039 Z1
G01 X62.404762 Y-40.11039 Z0.921569
G01 X62.188312 Y-40.11039 Z0.596078
G01 X61.971861 Y-40.11039 Z0.235294
G01 X61.755411 Y-40.11039 Z0.015686
G01 X61.538961 Y-40.11039 Z0
G01 X60.02381 Y-40.11039 Z0
G01 X59.807359 Y-40.11039 Z0.062745
G01 X59.590909 Y-40.11039 Z0.313725
G01 X59.374459 Y-40.11039 Z0.564706
G01 X59.158009 Y-40.11039 Z0.843137
G01 X58.941558 Y-40.11039 Z1
G01 X40.75974 Y-40.11039 Z1
G01 X40.54329 Y-40.11039 Z0.937255
G01 X40.32684 Y-40.11039 Z0.690196
G01 X40.11039 Y-40.11039 Z0.439216
G01 X39.893939 Y-40.11039 Z0.156863
G01 X39.677489 Y-40.11039 Z0
G01 X37.945887 Y-40.11039 Z0
G01 X37.729437 Y-40.11039 Z0.188235
G01 X37.512987 Y-40.11039 Z0.454902
G01 X37.296537 Y-40.11039 Z0.796078
G01 X37.080087 Y-40.11039 Z1
G01 X25.608225 Y-40.11039 Z1
G01 X25.391775 Y-40.11039 Z0.25098
G01 X25.175325 Y-40.11039 Z0
G01 X0.28355 Y-40.11039 Z0
G01 X0.28355 Y-40.32684 Z0
G01 X0.28355 Y-40.54329 Z0
G01 X0.28355 Y-40.75974 Z0
G01 X25.175325 Y-40.75974 Z0
G01 X25.391775 Y-40.75974 Z0.12549
G01 X25.608225 Y-40.75974 Z1
G01 X35.132035 Y-40.75974 Z1
G01 X35.348485 Y-40.75974 Z0.984314
G01 X35.564935 Y-40.75974 Z0.721569
G01 X35.781385 Y-40.75974 Z0.360784
G01 X35.997835 Y-40.75974 Z0.031373
G01 X36.214286 Y-40.75974 Z0
G01 X37.080087 Y-40.75974 Z0
G01 X37.296537 Y-40.75974 Z0.094118
G01 X37.512987 Y-40.75974 Z0.345098
G01 X37.729437 Y-40.75974 Z0.596078
G01 X37.945887 Y-40.75974 Z0.87451
G01 X38.162338 Y-40.75974 Z1
G01 X61.538961 Y-40.75974 Z1
G01 X61.755411 Y-40.75974 Z0.811765
G01 X61.971861 Y-40.75974 Z0.564706
G01 X62.188312 Y-40.75974 Z0.313725
G01 X62.404762 Y-40.75974 Z0.047059
G01 X62.621212 Y-40.75974 Z0
G01 X63.487013 Y-40.75974 Z0
G01 X63.703463 Y-40.75974 Z0.109804
G01 X63.919913 Y-40.75974 Z0.439216
G01 X64.136364 Y-40.75974 Z0.811765
G01 X64.352814 Y-40.75974 Z1
G01 X74.309524 Y-40.75974 Z1
G01 X74.525974 Y-40.75974 Z0
G01 X99.634199 Y-40.75974 Z0
G01 X99.634199 Y-40.97619 Z0
G01 X99.634199 Y-41.192641 Z0
G01 X99.634199 Y-41.409091 Z0
G01 X74.525974 Y-41.409091 Z0
G01 X74.309524 Y-41.409091 Z0.796078
G01 X74.093074 Y-41.409091 Z1
G01 X66.300866 Y-41.409091 Z1
G01 X66.084416 Y-41.409091 Z0.984314
G01 X65.867965 Y-41.409091 Z0.658824
G01 X65.651515 Y-41.409091 Z0.298039
G01 X65.435065 Y-41.409091 Z0.015686
G01 X65.218615 Y-41.409091 Z0
G01 X64.352814 Y-41.409091 Z0
G01 X64.136364 Y-41.409091 Z0.156863
G01 X63.919913 Y-41.409091 Z0.517647
G01 X63.703463 Y-41.409091 Z0.87451
G01 X63.487013 Y-41.409091 Z1
G01 X36.214286 Y-41.409091 Z1
G01 X35.997835 Y-41.409091 Z0.952941
G01 X35.781385 Y-41.409091 Z0.611765
G01 X35.564935 Y-41.409091 Z0.25098
G01 X35.348485 Y-41.409091 Z0
G01 X34.482684 Y-41.409091 Z0
G01 X34.266234 Y-41.409091 Z0.015686
G01 X34.049784 Y-41.409091 Z0.266667
G01 X33.833333 Y-41.409091 Z0.643137
G01 X33.616883 Y-41.409091 Z0.952941
G01 X33.400433 Y-41.409091 Z1
G01 X25.824675 Y-41.409091 Z1
G01 X25.608225 Y-41.409091 Z0.905882
G01 X25.391775 Y-41.409091 Z0
G01 X0.28355 Y-41.409091 Z0
G01 X0.28355 Y-41.625541 Z0
G01 X0.28355 Y-41.841991 Z0
G01 X0.28355 Y-42.058442 Z0
G01 X25.391775 Y-42.058442 Z0
G01 X25.608225 Y-42.058442 Z0.439216
G01 X25.824675 Y-42.058442 Z1
G01 X32.101732 Y-42.058442 Z1
G01 X32.318182 Y-42.058442 Z0.858824
G01 X32.534632 Y-42.058442 Z0.376471
G01 X32.751082 Y-42.058442 Z0.015686
G01 X32.967532 Y-42.058442 Z0
G01 X33.400433 Y-42.058442 Z0
G01 X33.616883 Y-42.058442 Z0.031373
G01 X33.833333 Y-42.058442 Z0.329412
G01 X34.049784 Y-42.058442 Z0.690196
G01 X34.266234 Y-42.058442 Z0.984314
G01 X34.482684 Y-42.058442 Z1
G01 X65.218615 Y-42.058442 Z1
G01 X65.435065 Y-42.058442 Z0.968627
G01 X65.651515 Y-42.058442 Z0.658824
G01 X65.867965 Y-42.058442 Z0.313725
G01 X66.084416 Y-42.058442 Z0.015686
G01 X66.300866 Y-42.058442 Z0
G01 X66.733766 Y-42.058442 Z0
G01 X66.950216 Y-42.058442 Z0.062745
G01 X67.166667 Y-42.058442 Z0.454902
G01 X67.383117 Y-42.058442 Z0.905882
G01 X67.599567 Y-42.058442 Z1
G01 X74.093074 Y-42.058442 Z1
G01 X74.309524 Y-42.058442 Z0.329412
G01 X74.525974 Y-42.058442 Z0
G01 X99.634199 Y-42.058442 Z0
G01 X99.634199 Y-42.274892 Z0
G01 X99.634199 Y-42.491342 Z0
G01 X99.634199 Y-42.707792 Z0
G01 X74.309524 Y-42.707792 Z0
G01 X74.093074 Y-42.707792 Z0.890196
G01 X73.876623 Y-42.707792 Z1
G01 X68.898268 Y-42.707792 Z1
G01 X68.681818 Y-42.707792 Z0.74902
G01 X68.465368 Y-42.707792 Z0.298039
G01 X68.248918 Y-42.707792 Z0
G01 X67.599567 Y-42.707792 Z0
G01 X67.383117 Y-42.707792 Z0.141176
G01 X67.166667 Y-42.707792 Z0.611765
G01 X66.950216 Y-42.707792 Z0.968627
G01 X66.733766 Y-42.707792 Z1
G01 X32.751082 Y-42.707792 Z1
G01 X32.534632 Y-42.707792 Z0.690196
G01 X32.318182 Y-42.707792 Z0.188235
G01 X32.101732 Y-42.707792 Z0
G01 X31.452381 Y-42.707792 Z0
G01 X31.235931 Y-42.707792 Z0.25098
G01 X31.019481 Y-42.707792 Z0.74902
G01 X30.80303 Y-42.707792 Z1
G01 X26.041126 Y-42.707792 Z1
G01 X25.824675 Y-42.707792 Z0.968627
G01 X25.608225 Y-42.707792 Z0
G01 X0.28355 Y-42.707792 Z0
G01 X0.28355 Y-42.924242 Z0
G01 X0.28355 Y-43.140693 Z0
G01 X0.28355 Y-43.357143 Z0
G01 X25.608225 Y-43.357143 Z0
G01 X25.824675 Y-43.357143 Z0.533333
G01 X26.041126 Y-43.357143 Z1
G01 X29.504329 Y-43.357143 Z1
G01 X29.720779 Y-43.357143 Z0.690196
G01 X29.937229 Y-43.357143 Z0.141176
G01 X30.15368 Y-43.357143 Z0
G01 X30.80303 Y-43.357143 Z0
G01 X31.019481 Y-43.357143 Z0.313725
G01 X31.235931 Y-43.357143 Z0.811765
G01 X31.452381 Y-43.357143 Z1
G01 X68.248918 Y-43.357143 Z1
G01 X68.465368 Y-43.357143 Z0.780392
G01 X68.681818 Y-43.357143 Z0.313725
G01 X68.898268 Y-43.357143 Z0
G01 X69.547619 Y-43.357143 Z0
G01 X69.764069 Y-43.357143 Z0.156863
G01 X69.980519 Y-43.357143 Z0.737255
G01 X70.19697 Y-43.357143 Z1
G01 X73.876623 Y-43.357143 Z1
G01 X74.093074 Y-43.357143 Z0.439216
G01 X74.309524 Y-43.357143 Z0
G01 X99.634199 Y-43.357143 Z0
G01 X99.634199 Y-43.573593 Z0
G01 X99.634199 Y-43.790043 Z0
G01 X99.634199 Y-44.006494 Z0
G01 X74.093074 Y-44.006494 Z0
G01 X73.876623 Y-44.006494 Z0.811765
G01 X73.660173 Y-44.006494 Z1
G01 X71.279221 Y-44.006494 Z1
G01 X71.062771 Y-44.006494 Z0.721569
G01 X70.84632 Y-44.006494 Z0.156863
G01 X70.62987 Y-44.006494 Z0
G01 X70.19697 Y-44.006494 Z0
G01 X69.980519 Y-44.006494 Z0.360784
G01 X69.764069 Y-44.006494 Z0.905882
G01 X69.547619 Y-44.006494 Z1
G01 X30.15368 Y-44.006494 Z1
G01 X29.937229 Y-44.006494 Z0.905882
G01 X29.720779 Y-44.006494 Z0.407843
G01 X29.504329 Y-44.006494 Z0.015686
G01 X29.287879 Y-44.006494 Z0
G01 X29.071429 Y-44.006494 Z0
G01 X28.854978 Y-44.006494 Z0.141176
G01 X28.638528 Y-44.006494 Z0.721569
G01 X28.422078 Y-44.006494 Z1
G01 X26.257576 Y-44.006494 Z1
G01 X26.041126 Y-44.006494 Z0.905882
G01 X25.824675 Y-44.006494 Z0
G01 X0.28355 Y-44.006494 Z0
G01 X0.28355 Y-44.222944 Z0
G01 X0.28355 Y-44.439394 Z0
G01 X0.28355 Y-44.655844 Z0
G01 X25.824675 Y-44.655844 Z0
G01 X26.041126 Y-44.655844 Z0.12549
G01 X26.257576 Y-44.655844 Z1
G01 X27.339827 Y-44.655844 Z1
G01 X27.556277 Y-44.655844 Z0.74902
G01 X27.772727 Y-44.655844 Z0.156863
G01 X27.989177 Y-44.655844 Z0
G01 X28.422078 Y-44.655844 Z0
G01 X28.638528 Y-44.655844 Z0.376471
G01 X28.854978 Y-44.655844 Z0.921569
G01 X29.071429 Y-44.655844 Z1
G01 X70.62987 Y-44.655844 Z1
G01 X70.84632 Y-44.655844 Z0.905882
G01 X71.062771 Y-44.655844 Z0.376471
G01 X71.279221 Y-44.655844 Z0
G01 X71.712121 Y-44.655844 Z0
G01 X71.928571 Y-44.655844 Z0.141176
G01 X72.145022 Y-44.655844 Z0.721569
G01 X72.361472 Y-44.655844 Z1
G01 X73.660173 Y-44.655844 Z1
G01 X73.876623 Y-44.655844 Z0.062745
G01 X74.093074 Y-44.655844 Z0
G01 X99.634199 Y-44.655844 Z0
G01 X99.634199 Y-44.872294 Z0
G01 X99.634199 Y-45.088745 Z0
G01 X99.634199 Y-45.305195 Z0
G01 X72.361472 Y-45.305195 Z0
G01 X72.145022 Y-45.305195 Z0.392157
G01 X71.928571 Y-45.305195 Z0.921569
G01 X71.712121 Y-45.305195 Z1
G01 X27.989177 Y-45.305195 Z1
G01 X27.772727 Y-45.305195 Z0.890196
G01 X27.556277 Y-45.305195 Z0.345098
G01 X27.339827 Y-45.305195 Z0
G01 X0.28355 Y-45.305195 Z0
G01 X0.28355 Y-45.521645 Z0
G01 X0.28355 Y-45.738095 Z0
G01 X0.28355 Y-45.954545 Z0
G01 X26.257576 Y-45.954545 Z0
G01 X26.474026 Y-45.954545 Z0.313725
G01 X26.690476 Y-45.954545 Z0.87451
G01 X26.906926 Y-45.954545 Z1
G01 X72.794372 Y-45.954545 Z1
G01 X73.010823 Y-45.954545 Z0.937255
G01 X73.227273 Y-45.954545 Z0.392157
G01 X73.443723 Y-45.954545 Z0
G01 X99.634199 Y-45.954545 Z0
G01 X99.634199 Y-46.170996 Z0
G01 X99.634199 Y-46.387446 Z0
G01 X99.634199 Y-46.603896 Z0
G01 X74.309524 Y-46.603896 Z0
G01 X74.093074 Y-46.603896 Z0.470588
G01 X73.876623 Y-46.603896 Z0.984314
G01 X73.660173 Y-46.603896 Z1
G01 X26.041126 Y-46.603896 Z1
G01 X25.824675 Y-46.603896 Z0.952941
G01 X25.608225 Y-46.603896 Z0.376471
G01 X25.391775 Y-46.603896 Z0
G01 X0.28355 Y-46.603896 Z0
G01 X0.28355 Y-46.820346 Z0
G01 X0.28355 Y-47.036797 Z0
G01 X0.28355 Y-47.253247 Z0
G01 X24.525974 Y-47.253247 Z0
G01 X24.742424 Y-47.253247 Z0.407843
G01 X24.958874 Y-47.253247 Z0.952941
G01 X25.175325 Y-47.253247 Z1
G01 X74.525974 Y-47.253247 Z1
G01 X74.742424 Y-47.253247 Z0.984314
G01 X74.958874 Y-47.253247 Z0.517647
G01 X75.175325 Y-47.253247 Z0.015686
G01 X75.391775 Y-47.253247 Z0
G01 X99.634199 Y-47.253247 Z0
G01 X99.634199 Y-47.469697 Z0
G01 X99.634199 Y-47.686147 Z0
G01 X99.634199 Y-47.902597 Z0
G01 X76.257576 Y-47.902597 Z0
G01 X76.041126 Y-47.902597 Z0.015686
G01 X75.824675 Y-47.902597 Z0.564706
G01 X75.608225 Y-47.902597 Z1
G01 X24.309524 Y-47.902597 Z1
G01 X24.093074 Y-47.902597 Z0.968627
G01 X23.876623 Y-47.902597 Z0.407843
G01 X23.660173 Y-47.902597 Z0
G01 X0.28355 Y-47.902597 Z0
G01 X0.28355 Y-48.119048 Z0
G01 X0.28355 Y-48.335498 Z0
G01 X0.28355 Y-48.551948 Z0
G01 X22.794372 Y-48.551948 Z0
G01 X23.010823 Y-48.551948 Z0.282353
G01 X23.227273 Y-48.551948 Z0.952941
G01 X23.443723 Y-48.551948 Z1
G01 X76.474026 Y-48.551948 Z1
G01 X76.690476 Y-48.551948 Z0.454902
G01 X76.906926 Y-48.551948 Z0
G01 X99.634199 Y-48.551948 Z0
G01 X99.634199 Y-48.768398 Z0
G01 X99.634199 Y-48.984848 Z0
G01 X99.634199 Y-49.201299 Z0
G01 X77.772727 Y-49.201299 Z0
G01 X77.556277 Y-49.201299 Z0.047059
G01 X77.339827 Y-49.201299 Z0.737255
G01 X77.123377 Y-49.201299 Z1
G01 X22.577922 Y-49.201299 Z1
G01 X22.361472 Y-49.201299 Z0.54902
G01 X22.145022 Y-49.201299 Z0
G01 X0.28355 Y-49.201299 Z0
G01 X0.28355 Y-49.417749 Z0
G01 X0.28355 Y-49.634199 Z0
G01 X0.28355 Y-49.850649 Z0
G01 X21.279221 Y-49.850649 Z0
G01 X21.495671 Y-49.850649 Z0.062745
G01 X21.712121 Y-49.850649 Z0.764706
G01 X21.928571 Y-49.850649 Z1
G01 X77.772727 Y-49.850649 Z1
G01 X77.989177 Y-49.850649 Z0.905882
G01 X78.205628 Y-49.850649 Z0.188235
G01 X78.422078 Y-49.850649 Z0
G01 X99.634199 Y-49.850649 Z0
G01 X99.634199 Y-50.0671 Z0
G01 X99.634199 Y-50.28355 Z0
G01 X99.634199 Y-50.5 Z0
G01 X79.071429 Y-50.5 Z0
G01 X78.854978 Y-50.5 Z0.439216
G01 X78.638528 Y-50.5 Z0.984314
G01 X78.422078 Y-50.5 Z1
G01 X21.279221 Y-50.5 Z1
G01 X21.062771 Y-50.5 Z0.905882
G01 X20.84632 Y-50.5 Z0.235294
G01 X20.62987 Y-50.5 Z0
G01 X0.28355 Y-50.5 Z0
G01 X0.28355 Y-50.71645 Z0
G01 X0.28355 Y-50.9329 Z0
G01 X0.28355 Y-51.149351 Z0
G01 X19.980519 Y-51.149351 Z0
G01 X20.19697 Y-51.149351 Z0.360784
G01 X20.41342 Y-51.149351 Z1
G01 X79.287879 Y-51.149351 Z1
G01 X79.504329 Y-51.149351 Z0.67451
G01 X79.720779 Y-51.149351 Z0.015686
G01 X79.937229 Y-51.149351 Z0
G01 X99.634199 Y-51.149351 Z0
G01 X99.634199 Y-51.365801 Z0
G01 X99.634199 Y-51.582251 Z0
G01 X99.634199 Y-51.798701 Z0
G01 X80.37013 Y-51.798701 Z0
G01 X80.15368 Y-51.798701 Z0.439216
G01 X79.937229 Y-51.798701 Z1
G01 X19.980519 Y-51.798701 Z1
G01 X19.764069 Y-51.798701 Z0.921569
G01 X19.547619 Y-51.798701 Z0.156863
G01 X19.331169 Y-51.798701 Z0
G01 X0.28355 Y-51.798701 Z0
G01 X0.28355 Y-52.015152 Z0
G01 X0.28355 Y-52.231602 Z0
G01 X0.28355 Y-52.448052 Z0
G01 X18.681818 Y-52.448052 Z0
G01 X18.898268 Y-52.448052 Z0.047059
G01 X19.114719 Y-52.448052 Z0.764706
G01 X19.331169 Y-52.448052 Z1
G01 X80.37013 Y-52.448052 Z1
G01 X80.58658 Y-52.448052 Z0.952941
G01 X80.80303 Y-52.448052 Z0.219608
G01 X81.019481 Y-52.448052 Z0
G01 X99.634199 Y-52.448052 Z0
G01 X99.634199 Y-52.664502 Z0
G01 X99.634199 Y-52.880952 Z0
G01 X99.634199 Y-53.097403 Z0
G01 X81.668831 Y-53.097403 Z0
G01 X81.452381 Y-53.097403 Z0.047059
G01 X81.235931 Y-53.097403 Z0.843137
G01 X81.019481 Y-53.097403 Z1
G01 X18.681818 Y-53.097403 Z1
G01 X18.465368 Y-53.097403 Z0.564706
G01 X18.248918 Y-53.097403 Z0
G01 X0.28355 Y-53.097403 Z0
G01 X0.28355 Y-53.313853 Z0
G01 X0.28355 Y-53.530303 Z0
G01 X0.28355 Y-53.746753 Z0
G01 X17.599567 Y-53.746753 Z0
G01 X17.816017 Y-53.746753 Z0.282353
G01 X18.032468 Y-53.746753 Z0.984314
G01 X18.248918 Y-53.746753 Z1
G01 X81.668831 Y-53.746753 Z1
G01 X81.885281 Y-53.746753 Z0.611765
G01 X82.101732 Y-53.746753 Z0
G01 X99.634199 Y-53.746753 Z0
G01 X99.634199 Y-53.963203 Z0
G01 X99.634199 Y-54.179654 Z0
G01 X99.634199 Y-54.396104 Z0
G01 X82.751082 Y-54.396104 Z0
G01 X82.534632 Y-54.396104 Z0.172549
G01 X82.318182 Y-54.396104 Z0.968627
G01 X82.101732 Y-54.396104 Z1
G01 X17.599567 Y-54.396104 Z1
G01 X17.383117 Y-54.396104 Z0.690196
G01 X17.166667 Y-54.396104 Z0
G01 X0.28355 Y-54.396104 Z0
G01 X0.28355 Y-54.612554 Z0
G01 X0.28355 Y-54.829004 Z0
G01 X0.28355 Y-55.045455 Z0
G01 X16.517316 Y-55.045455 Z0
G01 X16.733766 Y-55.045455 Z0.062745
G01 X16.950216 Y-55.045455 Z0.87451
G01 X17.166667 Y-55.045455 Z1
G01 X82.751082 Y-55.045455 Z1
G01 X82.967532 Y-55.045455 Z0.376471
G01 X83.183983 Y-55.045455 Z0
G01 X99.634199 Y-55.045455 Z0
G01 X99.634199 Y-55.261905 Z0
G01 X99.634199 Y-55.478355 Z0
G01 X99.634199 Y-55.694805 Z0
G01 X83.616883 Y-55.694805 Z0
G01 X83.400433 Y-55.694805 Z0.596078
G01 X83.183983 Y-55.694805 Z1
G01 X16.733766 Y-55.694805 Z1
G01 X16.517316 Y-55.694805 Z0.968627
G01 X16.300866 Y-55.694805 Z0.188235
G01 X16.084416 Y-55.694805 Z0
G01 X0.28355 Y-55.694805 Z0
G01 X0.28355 Y-55.911255 Z0
G01 X0.28355 Y-56.127706 Z0
G01 X0.28355 Y-56.344156 Z0
G01 X15.651515 Y-56.344156 Z0
G01 X15.867965 Y-56.344156 Z0.407843
G01 X16.084416 Y-56.344156 Z1
G01 X83.616883 Y-56.344156 Z1
G01 X83.833333 Y-56.344156 Z0.811765
G01 X84.049784 Y-56.344156 Z0.031373
G01 X84.266234 Y-56.344156 Z0
G01 X99.634199 Y-56.344156 Z0
G01 X99.634199 Y-56.560606 Z0
G01 X99.634199 Y-56.777056 Z0
G01 X99.634199 Y-56.993506 Z0
G01 X84.699134 Y-56.993506 Z0
G01 X84.482684 Y-56.993506 Z0.12549
G01 X84.266234 Y-56.993506 Z0.937255
G01 X84.049784 Y-56.993506 Z1
G01 X15.651515 Y-56.993506 Z1
G01 X15.435065 Y-56.993506 Z0.658824
G01 X15.218615 Y-56.993506 Z0
G01 X0.28355 Y-56.993506 Z0
G01 X0.28355 Y-57.209957 Z0
G01 X0.28355 Y-57.426407 Z0
G01 X0.28355 Y-57.642857 Z0
G01 X14.785714 Y-57.642857 Z0
G01 X15.002165 Y-57.642857 Z0.564706
G01 X15.218615 Y-57.642857 Z1
G01 X84.482684 Y-57.642857 Z1
G01 X84.699134 Y-57.642857 Z0.968627
G01 X84.915584 Y-57.642857 Z0.156863
G01 X85.132035 Y-57.642857 Z0
G01 X99.634199 Y-57.642857 Z0
G01 X99.634199 Y-57.859307 Z0
G01 X99.634199 Y-58.075758 Z0
G01 X99.634199 Y-58.292208 Z0
G01 X85.564935 Y-58.292208 Z0
G01 X85.348485 Y-58.292208 Z0.047059
G01 X85.132035 Y-58.292208 Z0.890196
G01 X84.915584 Y-58.292208 Z1
G01 X14.785714 Y-58.292208 Z1
G01 X14.569264 Y-58.292208 Z0.392157
G01 X14.352814 Y-58.292208 Z0
G01 X0.28355 Y-58.292208 Z0
G01 X0.28355 Y-58.508658 Z0
G01 X0.28355 Y-58.725108 Z0
G01 X0.28355 Y-58.941558 Z0
G01 X13.919913 Y-58.941558 Z0
G01 X14.136364 Y-58.941558 Z0.219608
G01 X14.352814 Y-58.941558 Z1
G01 X85.348485 Y-58.941558 Z1
G01 X85.564935 Y-58.941558 Z0.737255
G01 X85.781385 Y-58.941558 Z0
G01 X99.634199 Y-58.941558 Z0
G01 X99.634199 Y-59.158009 Z0
G01 X99.634199 Y-59.374459 Z0
G01 X99.634199 Y-59.590909 Z0
G01 X86.214286 Y-59.590909 Z0
G01 X85.997835 Y-59.590909 Z0.533333
G01 X85.781385 Y-59.590909 Z1
G01 X14.136364 Y-59.590909 Z1
G01 X13.919913 Y-59.590909 Z0.937255
G01 X13.703463 Y-59.590909 Z0.094118
G01 X13.487013 Y-59.590909 Z0
G01 X0.28355 Y-59.590909 Z0
G01 X0.28355 Y-59.807359 Z0
G01 X0.28355 Y-60.02381 Z0
G01 X0.28355 Y-60.24026 Z0
G01 X13.054113 Y-60.24026 Z0
G01 X13.270563 Y-60.24026 Z0.015686
G01 X13.487013 Y-60.24026 Z0.827451
G01 X13.703463 Y-60.24026 Z1
G01 X86.214286 Y-60.24026 Z1
G01 X86.430736 Y-60.24026 Z0.345098
G01 X86.647186 Y-60.24026 Z0
G01 X99.634199 Y-60.24026 Z0
G01 X99.634199 Y-60.45671 Z0
G01 X99.634199 Y-60.67316 Z0
G01 X99.634199 Y-60.88961 Z0
G01 X87.080087 Y-60.88961 Z0
G01 X86.863636 Y-60.88961 Z0.141176
G01 X86.647186 Y-60.88961 Z0.984314
G01 X86.430736 Y-60.88961 Z1
G01 X13.270563 Y-60.88961 Z1
G01 X13.054113 Y-60.88961 Z0.454902
G01 X12.837662 Y-60.88961 Z0
G01 X0.28355 Y-60.88961 Z0
G01 X0.28355 Y-61.106061 Z0
G01 X0.28355 Y-61.322511 Z0
G01 X0.28355 Y-61.538961 Z0
G01 X12.404762 Y-61.538961 Z0
G01 X12.621212 Y-61.538961 Z0.015686
G01 X12.837662 Y-61.538961 Z0.890196
G01 X13.054113 Y-61.538961 Z1
G01 X86.863636 Y-61.538961 Z1
G01 X87.080087 Y-61.538961 Z0.564706
G01 X87.296537 Y-61.538961 Z0
G01 X99.634199 Y-61.538961 Z0
G01 X99.634199 Y-61.755411 Z0
G01 X99.634199 Y-61.971861 Z0
G01 X99.634199 Y-62.188312 Z0
G01 X87.729437 Y-62.188312 Z0
G01 X87.512987 Y-62.188312 Z0.031373
G01 X87.296537 Y-62.188312 Z0.937255
G01 X87.080087 Y-62.188312 Z1
G01 X12.621212 Y-62.188312 Z1
G01 X12.404762 Y-62.188312 Z0.345098
G01 X12.188312 Y-62.188312 Z0
G01 X0.28355 Y-62.188312 Z0
G01 X0.28355 Y-62.404762 Z0
G01 X0.28355 Y-62.621212 Z0
G01 X0.28355 Y-62.837662 Z0
G01 X11.971861 Y-62.837662 Z0
G01 X12.188312 Y-62.837662 Z0.811765
G01 X12.404762 Y-62.837662 Z1
G01 X87.512987 Y-62.837662 Z1
G01 X87.729437 Y-62.837662 Z0.392157
G01 X87.945887 Y-62.837662 Z0
G01 X99.634199 Y-62.837662 Z0
G01 X99.634199 Y-63.054113 Z0
G01 X99.634199 Y-63.270563 Z0
G01 X99.634199 Y-63.487013 Z0
G01 X88.162338 Y-63.487013 Z0
G01 X87.945887 Y-63.487013 Z0.811765
G01 X87.729437 Y-63.487013 Z1
G01 X11.971861 Y-63.487013 Z1
G01 X11.755411 Y-63.487013 Z0.25098
G01 X11.538961 Y-63.487013 Z0
G01 X0.28355 Y-63.487013 Z0
G01 X0.28355 Y-63.703463 Z0
G01 X0.28355 Y-63.919913 Z0
G01 X0.28355 Y-64.136364 Z0
G01 X11.322511 Y-64.136364 Z0
G01 X11.538961 Y-64.136364 Z0.67451
G01 X11.755411 Y-64.136364 Z1
G01 X88.162338 Y-64.136364 Z1
G01 X88.378788 Y-64.136364 Z0.25098
G01 X88.595238 Y-64.136364 Z0
G01 X99.634199 Y-64.136364 Z0
G01 X99.634199 Y-64.352814 Z0
G01 X99.634199 Y-64.569264 Z0
G01 X99.634199 Y-64.785714 Z0
G01 X88.811688 Y-64.785714 Z0
G01 X88.595238 Y-64.785714 Z0.486275
G01 X88.378788 Y-64.785714 Z1
G01 X11.538961 Y-64.785714 Z1
G01 X11.322511 Y-64.785714 Z0.764706
G01 X11.106061 Y-64.785714 Z0
G01 X0.28355 Y-64.785714 Z0
G01 X0.28355 Y-65.002165 Z0
G01 X0.28355 Y-65.218615 Z0
G01 X0.28355 Y-65.435065 Z0
G01 X10.88961 Y-65.435065 Z0
G01 X11.106061 Y-65.435065 Z0.858824
G01 X11.322511 Y-65.435065 Z1
G01 X88.595238 Y-65.435065 Z1
G01 X88.811688 Y-65.435065 Z0.580392
G01 X89.028139 Y-65.435065 Z0
G01 X99.634199 Y-65.435065 Z0
G01 X99.634199 Y-65.651515 Z0
G01 X99.634199 Y-65.867965 Z0
G01 X99.634199 Y-66.084416 Z0
G01 X89.244589 Y-66.084416 Z0
G01 X89.028139 Y-66.084416 Z0.658824
G01 X88.811688 Y-66.084416 Z1
G01 X11.106061 Y-66.084416 Z1
G01 X10.88961 Y-66.084416 Z0.921569
G01 X10.67316 Y-66.084416 Z0.031373
G01 X10.45671 Y-66.084416 Z0
G01 X0.28355 Y-66.084416 Z0
G01 X0.28355 Y-66.300866 Z0
G01 X0.28355 Y-66.517316 Z0
G01 X0.28355 Y-66.733766 Z0
G01 X10.24026 Y-66.733766 Z0
G01 X10.45671 Y-66.733766 Z0.078431
G01 X10.67316 Y-66.733766 Z0.968627
G01 X10.88961 Y-66.733766 Z1
G01 X89.028139 Y-66.733766 Z1
G01 X89.244589 Y-66.733766 Z0.737255
G01 X89.461039 Y-66.733766 Z0
G01 X99.634199 Y-66.733766 Z0
G01 X99.634199 Y-66.950216 Z0
G01 X99.634199 Y-67.166667 Z0
G01 X99.634199 Y-67.383117 Z0
G01 X89.677489 Y-67.383117 Z0
G01 X89.461039 Y-67.383117 Z0.811765
G01 X89.244589 Y-67.383117 Z1
G01 X10.45671 Y-67.383117 Z1
G01 X10.24026 Y-67.383117 Z0.141176
G01 X10.02381 Y-67.383117 Z0
G01 X0.28355 Y-67.383117 Z0
G01 X0.28355 Y-67.599567 Z0
G01 X0.28355 Y-67.816017 Z0
G01 X0.28355 Y-68.032468 Z0
G01 X9.807359 Y-68.032468 Z0
G01 X10.02381 Y-68.032468 Z0.188235
G01 X10.24026 Y-68.032468 Z1
G01 X89.461039 Y-68.032468 Z1
G01 X89.677489 Y-68.032468 Z0.890196
G01 X89.893939 Y-68.032468 Z0
G01 X99.634199 Y-68.032468 Z0
G01 X99.634199 Y-68.248918 Z0
G01 X99.634199 Y-68.465368 Z0
G01 X99.634199 Y-68.681818 Z0
G01 X90.11039 Y-68.681818 Z0
G01 X89.893939 Y-68.681818 Z0.74902
G01 X89.677489 Y-68.681818 Z1
G01 X10.24026 Y-68.681818 Z1
G01 X10.02381 Y-68.681818 Z0.937255
G01 X9.807359 Y-68.681818 Z0.015686
G01 X9.590909 Y-68.681818 Z0
G01 X0.28355 Y-68.681818 Z0
G01 X0.28355 Y-68.898268 Z0
G01 X0.28355 Y-69.114719 Z0
G01 X0.28355 Y-69.331169 Z0
G01 X9.590909 Y-69.331169 Z0
G01 X9.807359 Y-69.331169 Z0.721569
G01 X10.02381 Y-69.331169 Z1
G01 X89.893939 Y-69.331169 Z1
G01 X90.11039 Y-69.331169 Z0.501961
G01 X90.32684 Y-69.331169 Z0
G01 X99.634199 Y-69.331169 Z0
G01 X99.634199 Y-69.547619 Z0
G01 X99.634199 Y-69.764069 Z0
G01 X99.634199 Y-69.980519 Z0
G01 X90.54329 Y-69.980519 Z0
G01 X90.32684 Y-69.980519 Z0.25098
G01 X90.11039 Y-69.980519 Z1
G01 X9.807359 Y-69.980519 Z1
G01 X9.590909 Y-69.980519 Z0.501961
G01 X9.374459 Y-69.980519 Z0
G01 X0.28355 Y-69.980519 Z0
G01 X0.28355 Y-70.19697 Z0
G01 X0.28355 Y-70.41342 Z0
G01 X0.28355 Y-70.62987 Z0
G01 X9.158009 Y-70.62987 Z0
G01 X9.374459 Y-70.62987 Z0.25098
G01 X9.590909 Y-70.62987 Z1
G01 X90.11039 Y-70.62987 Z1
G01 X90.32684 Y-70.62987 Z0.984314
G01 X90.54329 Y-70.62987 Z0.047059
G01 X90.75974 Y-70.62987 Z0
G01 X99.634199 Y-70.62987 Z0
G01 X99.634199 Y-70.84632 Z0
G01 X99.634199 Y-71.062771 Z0
G01 X99.634199 Y-71.279221 Z0
G01 X90.75974 Y-71.279221 Z0
G01 X90.54329 Y-71.279221 Z0.780392
G01 X90.32684 Y-71.279221 Z1
G01 X9.590909 Y-71.279221 Z1
G01 X9.374459 Y-71.279221 Z0.984314
G01 X9.158009 Y-71.279221 Z0.047059
G01 X8.941558 Y-71.279221 Z0
G01 X0.28355 Y-71.279221 Z0
G01 X0.28355 Y-71.495671 Z0
G01 X0.28355 Y-71.712121 Z0
G01 X0.28355 Y-71.928571 Z0
G01 X8.941558 Y-71.928571 Z0
G01 X9.158009 Y-71.928571 Z0.74902
G01 X9.374459 Y-71.928571 Z1
G01 X90.54329 Y-71.928571 Z1
G01 X90.75974 Y-71.928571 Z0.533333
G01 X90.97619 Y-71.928571 Z0
G01 X99.634199 Y-71.928571 Z0
G01 X99.634199 Y-72.145022 Z0
G01 X99.634199 Y-72.361472 Z0
G01 X99.634199 Y-72.577922 Z0
G01 X91.192641 Y-72.577922 Z0
G01 X90.97619 Y-72.577922 Z0.062745
G01 X90.75974 Y-72.577922 Z1
G01 X9.158009 Y-72.577922 Z1
G01 X8.941558 Y-72.577922 Z0.219608
G01 X8.725108 Y-72.577922 Z0
G01 X0.28355 Y-72.577922 Z0
G01 X0.28355 Y-72.794372 Z0
G01 X0.28355 Y-73.010823 Z0
G01 X0.28355 Y-73.227273 Z0
G01 X8.725108 Y-73.227273 Z0
G01 X8.941558 Y-73.227273 Z0.67451
G01 X9.158009 Y-73.227273 Z1
G01 X90.75974 Y-73.227273 Z1
G01 X90.97619 Y-73.227273 Z0.533333
G01 X91.192641 Y-73.227273 Z0
G01 X99.634199 Y-73.227273 Z0
G01 X99.634199 Y-73.443723 Z0
G01 X99.634199 Y-73.660173 Z0
G01 X99.634199 Y-73.876623 Z0
G01 X91.192641 Y-73.876623 Z0
G01 X90.97619 Y-73.876623 Z0.968627
G01 X90.75974 Y-73.876623 Z1
G01 X8.941558 Y-73.876623 Z1
G01 X8.725108 Y-73.876623 Z0.141176
G01 X8.508658 Y-73.876623 Z0
G01 X0.28355 Y-73.876623 Z0
G01 X0.28355 Y-74.093074 Z0
G01 X0.28355 Y-74.309524 Z0
G01 X0.28355 Y-74.525974 Z0
G01 X8.508658 Y-74.525974 Z0
G01 X8.725108 Y-74.525974 Z0.580392
G01 X8.941558 Y-74.525974 Z1
G01 X90.97619 Y-74.525974 Z1
G01 X91.192641 Y-74.525974 Z0.423529
G01 X91.409091 Y-74.525974 Z0
G01 X99.634199 Y-74.525974 Z0
G01 X99.634199 Y-74.742424 Z0
G01 X99.634199 Y-74.958874 Z0
G01 X99.634199 Y-75.175325 Z0
G01 X91.409091 Y-75.175325 Z0
G01 X91.192641 Y-75.175325 Z0.858824
G01 X90.97619 Y-75.175325 Z1
G01 X8.725108 Y-75.175325 Z1
G01 X8.508658 Y-75.175325 Z0.047059
G01 X8.292208 Y-75.175325 Z0
G01 X0.28355 Y-75.175325 Z0
G01 X0.28355 Y-75.391775 Z0
G01 X0.28355 Y-75.608225 Z0
G01 X0.28355 Y-75.824675 Z0
G01 X8.292208 Y-75.824675 Z0
G01 X8.508658 Y-75.824675 Z0.501961
G01 X8.725108 Y-75.824675 Z1
G01 X91.192641 Y-75.824675 Z1
G01 X91.409091 Y-75.824675 Z0.313725
G01 X91.625541 Y-75.824675 Z0
G01 X99.634199 Y-75.824675 Z0
G01 X99.634199 Y-76.041126 Z0
G01 X99.634199 Y-76.257576 Z0
G01 X99.634199 Y-76.474026 Z0
G01 X91.625541 Y-76.474026 Z0
G01 X91.409091 Y-76.474026 Z0.627451
G01 X91.192641 Y-76.474026 Z1
G01 X8.725108 Y-76.474026 Z1
G01 X8.508658 Y-76.474026 Z0.74902
G01 X8.292208 Y-76.474026 Z0
G01 X0.28355 Y-76.474026 Z0
G01 X0.28355 Y-76.690476 Z0
G01 X0.28355 Y-76.906926 Z0
G01 X0.28355 Y-77.123377 Z0
G01 X8.292208 Y-77.123377 Z0
G01 X8.508658 Y-77.123377 Z0.87451
G01 X8.725108 Y-77.123377 Z1
G01 X39.461039 Y-77.123377 Z1
G01 X39.677489 Y-77.123377 Z0.564706
G01 X39.893939 Y-77.123377 Z0.047059
G01 X40.11039 Y-77.123377 Z0
G01 X46.170996 Y-77.123377 Z0
G01 X46.387446 Y-77.123377 Z0.109804
G01 X46.603896 Y-77.123377 Z0.454902
G01 X46.820346 Y-77.123377 Z0.858824
G01 X47.036797 Y-77.123377 Z1
G01 X50.71645 Y-77.123377 Z1
G01 X50.9329 Y-77.123377 Z0.345098
G01 X51.149351 Y-77.123377 Z0.015686
G01 X51.365801 Y-77.123377 Z0
G01 X57.426407 Y-77.123377 Z0
G01 X57.642857 Y-77.123377 Z0.188235
G01 X57.859307 Y-77.123377 Z0.54902
G01 X58.075758 Y-77.123377 Z0.937255
G01 X58.292208 Y-77.123377 Z1
G01 X91.192641 Y-77.123377 Z1
G01 X91.409091 Y-77.123377 Z0.74902
G01 X91.625541 Y-77.123377 Z0
G01 X99.634199 Y-77.123377 Z0
G01 X99.634199 Y-77.339827 Z0
G01 X99.634199 Y-77.556277 Z0
G01 X99.634199 Y-77.772727 Z0
G01 X91.625541 Y-77.772727 Z0
G01 X91.409091 Y-77.772727 Z0.87451
G01 X91.192641 Y-77.772727 Z1
G01 X59.158009 Y-77.772727 Z1
G01 X58.941558 Y-77.772727 Z0.780392
G01 X58.725108 Y-77.772727 Z0.047059
G01 X58.508658 Y-77.772727 Z0
G01 X56.777056 Y-77.772727 Z0
G01 X56.560606 Y-77.772727 Z0.031373
G01 X56.344156 Y-77.772727 Z0.219608
G01 X56.127706 Y-77.772727 Z0.376471
G01 X54.612554 Y-77.772727 Z0.376471
G01 X54.396104 Y-77.772727 Z0.266667
G01 X54.179654 Y-77.772727 Z0.031373
G01 X53.963203 Y-77.772727 Z0
G01 X51.365801 Y-77.772727 Z0
G01 X51.149351 Y-77.772727 Z0.25098
G01 X50.9329 Y-77.772727 Z0.811765
G01 X50.71645 Y-77.772727 Z1
G01 X47.902597 Y-77.772727 Z1
G01 X47.686147 Y-77.772727 Z0.67451
G01 X47.469697 Y-77.772727 Z0.015686
G01 X47.253247 Y-77.772727 Z0
G01 X45.521645 Y-77.772727 Z0
G01 X45.305195 Y-77.772727 Z0.062745
G01 X45.088745 Y-77.772727 Z0.282353
G01 X44.872294 Y-77.772727 Z0.376471
G01 X43.573593 Y-77.772727 Z0.376471
G01 X43.357143 Y-77.772727 Z0.360784
G01 X43.140693 Y-77.772727 Z0.219608
G01 X42.924242 Y-77.772727 Z0
G01 X40.11039 Y-77.772727 Z0
G01 X39.893939 Y-77.772727 Z0.376471
G01 X39.677489 Y-77.772727 Z0.890196
G01 X39.461039 Y-77.772727 Z1
G01 X8.508658 Y-77.772727 Z1
G01 X8.292208 Y-77.772727 Z0
G01 X0.28355 Y-77.772727 Z0
G01 X0.28355 Y-77.989177 Z0
G01 X0.28355 Y-78.205628 Z0
G01 X0.28355 Y-78.422078 Z0
G01 X8.075758 Y-78.422078 Z0
G01 X8.292208 Y-78.422078 Z0.12549
G01 X8.508658 Y-78.422078 Z1
G01 X40.54329 Y-78.422078 Z1
G01 X40.75974 Y-78.422078 Z0.87451
G01 X40.97619 Y-78.422078 Z0
G01 X42.924242 Y-78.422078 Z0
G01 X43.140693 Y-78.422078 Z0.87451
G01 X43.357143 Y-78.422078 Z1
G01 X45.738095 Y-78.422078 Z1
G01 X45.954545 Y-78.422078 Z0.796078
G01 X46.170996 Y-78.422078 Z0
G01 X47.902597 Y-78.422078 Z0
G01 X48.119048 Y-78.422078 Z0.564706
G01 X48.335498 Y-78.422078 Z1
G01 X51.798701 Y-78.422078 Z1
G01 X52.015152 Y-78.422078 Z0.643137
G01 X52.231602 Y-78.422078 Z0
G01 X53.963203 Y-78.422078 Z0
G01 X54.179654 Y-78.422078 Z0.12549
G01 X54.396104 Y-78.422078 Z1
G01 X56.993506 Y-78.422078 Z1
G01 X57.209957 Y-78.422078 Z0.564706
G01 X57.426407 Y-78.422078 Z0
G01 X59.158009 Y-78.422078 Z0
G01 X59.374459 Y-78.422078 Z0.796078
G01 X59.590909 Y-78.422078 Z1
G01 X91.409091 Y-78.422078 Z1
G01 X91.625541 Y-78.422078 Z0.015686
G01 X91.841991 Y-78.422078 Z0
G01 X99.634199 Y-78.422078 Z0
G01 X99.634199 Y-78.638528 Z0
G01 X99.634199 Y-78.854978 Z0
G01 X99.634199 Y-79.071429 Z0
G01 X91.841991 Y-79.071429 Z0
G01 X91.625541 Y-79.071429 Z0.188235
G01 X91.409091 Y-79.071429 Z1
G01 X59.807359 Y-79.071429 Z1
G01 X59.590909 Y-79.071429 Z0.858824
G01 X59.374459 Y-79.071429 Z0
G01 X57.642857 Y-79.071429 Z0
G01 X57.426407 Y-79.071429 Z0.282353
G01 X57.209957 Y-79.071429 Z1
G01 X54.396104 Y-79.071429 Z1
G01 X54.179654 Y-79.071429 Z0.12549
G01 X53.963203 Y-79.071429 Z0
G01 X52.231602 Y-79.071429 Z0
G01 X52.015152 Y-79.071429 Z1
G01 X48.551948 Y-79.071429 Z1
G01 X48.335498 Y-79.071429 Z0.658824
G01 X48.119048 Y-79.071429 Z0
G01 X46.387446 Y-79.071429 Z0
G01 X46.170996 Y-79.071429 Z0.501961
G01 X45.954545 Y-79.071429 Z1
G01 X43.357143 Y-79.071429 Z1
G01 X43.140693 Y-79.071429 Z0.87451
G01 X42.924242 Y-79.071429 Z0
G01 X41.192641 Y-79.071429 Z0
G01 X40.97619 Y-79.071429 Z0.12549
G01 X40.75974 Y-79.071429 Z1
G01 X8.508658 Y-79.071429 Z1
G01 X8.292208 Y-79.071429 Z0.313725
G01 X8.075758 Y-79.071429 Z0
G01 X0.28355 Y-79.071429 Z0
G01 X0.28355 Y-79.287879 Z0
G01 X0.28355 Y-79.504329 Z0
G01 X0.28355 Y-79.720779 Z0
G01 X8.075758 Y-79.720779 Z0
G01 X8.292208 Y-79.720779 Z0.501961
G01 X8.508658 Y-79.720779 Z1
G01 X40.75974 Y-79.720779 Z1
G01 X40.97619 Y-79.720779 Z0.12549
G01 X41.192641 Y-79.720779 Z0
G01 X42.924242 Y-79.720779 Z0
G01 X43.140693 Y-79.720779 Z0.87451
G01 X43.357143 Y-79.720779 Z1
G01 X45.954545 Y-79.720779 Z1
G01 X46.170996 Y-79.720779 Z0.501961
G01 X46.387446 Y-79.720779 Z0
G01 X48.119048 Y-79.720779 Z0
G01 X48.335498 Y-79.720779 Z0.811765
G01 X48.551948 Y-79.720779 Z1
G01 X52.015152 Y-79.720779 Z1
G01 X52.231602 Y-79.720779 Z0
G01 X53.963203 Y-79.720779 Z0
G01 X54.179654 Y-79.720779 Z0.12549
G01 X54.396104 Y-79.720779 Z1
G01 X57.209957 Y-79.720779 Z1
G01 X57.426407 Y-79.720779 Z0.376471
G01 X57.642857 Y-79.720779 Z0
G01 X59.158009 Y-79.720779 Z0
G01 X59.374459 Y-79.720779 Z0.047059
G01 X59.590909 Y-79.720779 Z0.984314
G01 X59.807359 Y-79.720779 Z1
G01 X91.409091 Y-79.720779 Z1
G01 X91.625541 Y-79.720779 Z0.376471
G01 X91.841991 Y-79.720779 Z0
G01 X99.634199 Y-79.720779 Z0
G01 X99.634199 Y-79.937229 Z0
G01 X99.634199 Y-80.15368 Z0
G01 X99.634199 Y-80.37013 Z0
G01 X91.841991 Y-80.37013 Z0
G01 X91.625541 Y-80.37013 Z0.392157
G01 X91.409091 Y-80.37013 Z1
G01 X59.590909 Y-80.37013 Z1
G01 X59.374459 Y-80.37013 Z0.968627
G01 X59.158009 Y-80.37013 Z0.078431
G01 X58.941558 Y-80.37013 Z0
G01 X57.642857 Y-80.37013 Z0
G01 X57.426407 Y-80.37013 Z0.298039
G01 X57.209957 Y-80.37013 Z1
G01 X54.396104 Y-80.37013 Z1
G01 X54.179654 Y-80.37013 Z0.12549
G01 X53.963203 Y-80.37013 Z0
G01 X52.231602 Y-80.37013 Z0
G01 X52.015152 Y-80.37013 Z1
G01 X48.335498 Y-80.37013 Z1
G01 X48.119048 Y-80.37013 Z0.811765
G01 X47.902597 Y-80.37013 Z0
G01 X46.387446 Y-80.37013 Z0
G01 X46.170996 Y-80.37013 Z0.501961
G01 X45.954545 Y-80.37013 Z1
G01 X43.357143 Y-80.37013 Z1
G01 X43.140693 Y-80.37013 Z0.87451
G01 X42.924242 Y-80.37013 Z0
G01 X41.192641 Y-80.37013 Z0
G01 X40.97619 Y-80.37013 Z0.12549
G01 X40.75974 Y-80.37013 Z1
G01 X8.508658 Y-80.37013 Z1
G01 X8.292208 Y-80.37013 Z0.517647
G01 X8.075758 Y-80.37013 Z0
G01 X0.28355 Y-80.37013 Z0
G01 X0.28355 Y-80.58658 Z0
G01 X0.28355 Y-80.80303 Z0
G01 X0.28355 Y-81.019481 Z0
G01 X8.075758 Y-81.019481 Z0
G01 X8.292208 Y-81.019481 Z0.517647
G01 X8.508658 Y-81.019481 Z1
G01 X40.75974 Y-81.019481 Z1
G01 X40.97619 Y-81.019481 Z0.12549
G01 X41.192641 Y-81.019481 Z0
G01 X42.924242 Y-81.019481 Z0
G01 X43.140693 Y-81.019481 Z0.87451
G01 X43.357143 Y-81.019481 Z1
G01 X45.954545 Y-81.019481 Z1
G01 X46.170996 Y-81.019481 Z0.345098
G01 X46.387446 Y-81.019481 Z0
G01 X47.253247 Y-81.019481 Z0
G01 X47.469697 Y-81.019481 Z0.015686
G01 X47.686147 Y-81.019481 Z0.721569
G01 X47.902597 Y-81.019481 Z1
G01 X52.015152 Y-81.019481 Z1
G01 X52.231602 Y-81.019481 Z0
G01 X53.963203 Y-81.019481 Z0
G01 X54.179654 Y-81.019481 Z0.12549
G01 X54.396104 Y-81.019481 Z1
G01 X57.209957 Y-81.019481 Z1
G01 X57.426407 Y-81.019481 Z0.12549
G01 X57.642857 Y-81.019481 Z0
G01 X58.508658 Y-81.019481 Z0
G01 X58.725108 Y-81.019481 Z0.094118
G01 X58.941558 Y-81.019481 Z0.87451
G01 X59.158009 Y-81.019481 Z1
G01 X91.409091 Y-81.019481 Z1
G01 X91.625541 Y-81.019481 Z0.392157
G01 X91.841991 Y-81.019481 Z0
G01 X99.634199 Y-81.019481 Z0
G01 X99.634199 Y-81.235931 Z0
G01 X99.634199 Y-81.452381 Z0
G01 X99.634199 Y-81.668831 Z0
G01 X91.841991 Y-81.668831 Z0
G01 X91.625541 Y-81.668831 Z0.266667
G01 X91.409091 Y-81.668831 Z1
G01 X58.941558 Y-81.668831 Z1
G01 X58.725108 Y-81.668831 Z0.764706
G01 X58.508658 Y-81.668831 Z0.015686
G01 X58.292208 Y-81.668831 Z0
G01 X57.426407 Y-81.668831 Z0
G01 X57.209957 Y-81.668831 Z0.141176
G01 X56.993506 Y-81.668831 Z0.172549
G01 X56.127706 Y-81.668831 Z0.172549
G01 X55.911255 Y-81.668831 Z0.12549
G01 X55.694805 Y-81.668831 Z0.109804
G01 X55.478355 Y-81.668831 Z0
G01 X55.261905 Y-81.668831 Z0.078431
G01 X54.396104 Y-81.668831 Z0.078431
G01 X54.179654 Y-81.668831 Z0.015686
G01 X53.963203 Y-81.668831 Z0
G01 X52.231602 Y-81.668831 Z0
G01 X52.015152 Y-81.668831 Z1
G01 X47.686147 Y-81.668831 Z1
G01 X47.469697 Y-81.668831 Z0.643137
G01 X47.253247 Y-81.668831 Z0
G01 X46.170996 Y-81.668831 Z0
G01 X45.954545 Y-81.668831 Z0.203922
G01 X45.088745 Y-81.668831 Z0.203922
G01 X44.872294 Y-81.668831 Z0.141176
G01 X44.655844 Y-81.668831 Z0.12549
G01 X44.439394 Y-81.668831 Z0.078431
G01 X44.222944 Y-81.668831 Z0
G01 X44.006494 Y-81.668831 Z0.078431
G01 X43.140693 Y-81.668831 Z0.078431
G01 X42.924242 Y-81.668831 Z0
G01 X41.192641 Y-81.668831 Z0
G01 X40.97619 Y-81.668831 Z0.12549
G01 X40.75974 Y-81.668831 Z1
G01 X8.508658 Y-81.668831 Z1
G01 X8.292208 Y-81.668831 Z0.392157
G01 X8.075758 Y-81.668831 Z0
G01 X0.28355 Y-81.668831 Z0
G01 X0.28355 Y-81.885281 Z0
G01 X0.28355 Y-82.101732 Z0
G01 X0.28355 Y-82.318182 Z0
G01 X8.075758 Y-82.318182 Z0
G01 X8.292208 Y-82.318182 Z0.25098
G01 X8.508658 Y-82.318182 Z1
G01 X30.58658 Y-82.318182 Z1
G01 X30.80303 Y-82.318182 Z0.937255
G01 X31.019481 Y-82.318182 Z0.811765
G01 X31.235931 Y-82.318182 Z0.67451
G01 X31.452381 Y-82.318182 Z0.54902
G01 X31.668831 Y-82.318182 Z0.407843
G01 X31.885281 Y-82.318182 Z0.266667
G01 X32.101732 Y-82.318182 Z0.141176
G01 X32.318182 Y-82.318182 Z0
G01 X32.751082 Y-82.318182 Z0
G01 X32.967532 Y-82.318182 Z0.12549
G01 X33.183983 Y-82.318182 Z1
G01 X40.75974 Y-82.318182 Z1
G01 X40.97619 Y-82.318182 Z0.12549
G01 X41.192641 Y-82.318182 Z0
G01 X47.253247 Y-82.318182 Z0
G01 X47.469697 Y-82.318182 Z0.062745
G01 X47.686147 Y-82.318182 Z0.54902
G01 X47.902597 Y-82.318182 Z0.984314
G01 X48.119048 Y-82.318182 Z1
G01 X52.015152 Y-82.318182 Z1
G01 X52.231602 Y-82.318182 Z0
G01 X58.508658 Y-82.318182 Z0
G01 X58.725108 Y-82.318182 Z0.141176
G01 X58.941558 Y-82.318182 Z0.658824
G01 X59.158009 Y-82.318182 Z1
G01 X68.248918 Y-82.318182 Z1
G01 X68.465368 Y-82.318182 Z0.968627
G01 X68.681818 Y-82.318182 Z0.827451
G01 X68.898268 Y-82.318182 Z0.705882
G01 X69.114719 Y-82.318182 Z0.564706
G01 X69.331169 Y-82.318182 Z0.439216
G01 X69.547619 Y-82.318182 Z0.298039
G01 X69.764069 Y-82.318182 Z0.156863
G01 X69.980519 Y-82.318182 Z0.031373
G01 X70.19697 Y-82.318182 Z0
G01 X70.62987 Y-82.318182 Z0
G01 X70.84632 Y-82.318182 Z0.87451
G01 X71.062771 Y-82.318182 Z1
G01 X91.409091 Y-82.318182 Z1
G01 X91.625541 Y-82.318182 Z0.12549
G01 X91.841991 Y-82.318182 Z0
G01 X99.634199 Y-82.318182 Z0
G01 X99.634199 Y-82.534632 Z0
G01 X99.634199 Y-82.751082 Z0
G01 X99.634199 Y-82.967532 Z0
G01 X91.625541 Y-82.967532 Z0
G01 X91.409091 Y-82.967532 Z1
G01 X71.062771 Y-82.967532 Z1
G01 X70.84632 Y-82.967532 Z0.87451
G01 X70.62987 Y-82.967532 Z0
G01 X66.733766 Y-82.967532 Z0
G01 X66.517316 Y-82.967532 Z0.501961
G01 X66.300866 Y-82.967532 Z1
G01 X60.02381 Y-82.967532 Z1
G01 X59.807359 Y-82.967532 Z0.87451
G01 X59.590909 Y-82.967532 Z0.094118
G01 X59.374459 Y-82.967532 Z0
G01 X57.859307 Y-82.967532 Z0
G01 X57.642857 Y-82.967532 Z0.313725
G01 X57.426407 Y-82.967532 Z0.937255
G01 X57.209957 Y-82.967532 Z1
G01 X54.396104 Y-82.967532 Z1
G01 X54.179654 Y-82.967532 Z0.12549
G01 X53.963203 Y-82.967532 Z0
G01 X52.231602 Y-82.967532 Z0
G01 X52.015152 Y-82.967532 Z1
G01 X48.768398 Y-82.967532 Z1
G01 X48.551948 Y-82.967532 Z0.74902
G01 X48.335498 Y-82.967532 Z0.015686
G01 X48.119048 Y-82.967532 Z0
G01 X46.603896 Y-82.967532 Z0
G01 X46.387446 Y-82.967532 Z0.486275
G01 X46.170996 Y-82.967532 Z0.984314
G01 X45.954545 Y-82.967532 Z1
G01 X43.357143 Y-82.967532 Z1
G01 X43.140693 Y-82.967532 Z0.87451
G01 X42.924242 Y-82.967532 Z0
G01 X41.192641 Y-82.967532 Z0
G01 X40.97619 Y-82.967532 Z0.12549
G01 X40.75974 Y-82.967532 Z1
G01 X33.183983 Y-82.967532 Z1
G01 X32.967532 Y-82.967532 Z0.12549
G01 X32.751082 Y-82.967532 Z0
G01 X29.071429 Y-82.967532 Z0
G01 X28.854978 Y-82.967532 Z0.25098
G01 X28.638528 Y-82.967532 Z1
G01 X8.508658 Y-82.967532 Z1
G01 X8.292208 Y-82.967532 Z0.12549
G01 X8.075758 Y-82.967532 Z0
G01 X0.28355 Y-82.967532 Z0
G01 X0.28355 Y-83.183983 Z0
G01 X0.28355 Y-83.400433 Z0
G01 X0.28355 Y-83.616883 Z0
G01 X8.292208 Y-83.616883 Z0
G01 X8.508658 Y-83.616883 Z1
G01 X28.638528 Y-83.616883 Z1
G01 X28.854978 Y-83.616883 Z0.905882
G01 X29.071429 Y-83.616883 Z0.87451
G01 X32.751082 Y-83.616883 Z0.87451
G01 X32.967532 Y-83.616883 Z0.890196
G01 X33.183983 Y-83.616883 Z1
G01 X40.75974 Y-83.616883 Z1
G01 X40.97619 Y-83.616883 Z0.12549
G01 X41.192641 Y-83.616883 Z0
G01 X42.924242 Y-83.616883 Z0
G01 X43.140693 Y-83.616883 Z0.87451
G01 X43.357143 Y-83.616883 Z1
G01 X46.603896 Y-83.616883 Z1
G01 X46.820346 Y-83.616883 Z0.345098
G01 X47.036797 Y-83.616883 Z0
G01 X48.551948 Y-83.616883 Z0
G01 X48.768398 Y-83.616883 Z0.015686
G01 X48.984848 Y-83.616883 Z0.890196
G01 X49.201299 Y-83.616883 Z1
G01 X52.015152 Y-83.616883 Z1
G01 X52.231602 Y-83.616883 Z0
G01 X53.963203 Y-83.616883 Z0
G01 X54.179654 Y-83.616883 Z0.12549
G01 X54.396104 Y-83.616883 Z1
G01 X57.859307 Y-83.616883 Z1
G01 X58.075758 Y-83.616883 Z0.12549
G01 X58.292208 Y-83.616883 Z0
G01 X59.807359 Y-83.616883 Z0
G01 X60.02381 Y-83.616883 Z0.12549
G01 X60.24026 Y-83.616883 Z0.984314
G01 X60.45671 Y-83.616883 Z1
G01 X66.300866 Y-83.616883 Z1
G01 X66.517316 Y-83.616883 Z0.937255
G01 X66.733766 Y-83.616883 Z0.87451
G01 X70.62987 Y-83.616883 Z0.87451
G01 X70.84632 Y-83.616883 Z0.984314
G01 X71.062771 Y-83.616883 Z1
G01 X91.192641 Y-83.616883 Z1
G01 X91.409091 Y-83.616883 Z0.87451
G01 X91.625541 Y-83.616883 Z0
G01 X99.634199 Y-83.616883 Z0
G01 X99.634199 Y-83.833333 Z0
G01 X99.634199 Y-84.049784 Z0
G01 X99.634199 Y-84.266234 Z0
G01 X91.625541 Y-84.266234 Z0
G01 X91.409091 Y-84.266234 Z0.67451
G01 X91.192641 Y-84.266234 Z1
G01 X60.45671 Y-84.266234 Z1
G01 X60.24026 Y-84.266234 Z0.313725
G01 X60.02381 Y-84.266234 Z0
G01 X58.292208 Y-84.266234 Z0
G01 X58.075758 Y-84.266234 Z0.376471
G01 X57.859307 Y-84.266234 Z1
G01 X54.396104 Y-84.266234 Z1
G01 X54.179654 Y-84.266234 Z0.12549
G01 X53.963203 Y-84.266234 Z0
G01 X52.231602 Y-84.266234 Z0
G01 X52.015152 Y-84.266234 Z1
G01 X49.201299 Y-84.266234 Z1
G01 X48.984848 Y-84.266234 Z0.094118
G01 X48.768398 Y-84.266234 Z0
G01 X47.036797 Y-84.266234 Z0
G01 X46.820346 Y-84.266234 Z0.627451
G01 X46.603896 Y-84.266234 Z1
G01 X43.357143 Y-84.266234 Z1
G01 X43.140693 Y-84.266234 Z0.87451
G01 X42.924242 Y-84.266234 Z0
G01 X41.192641 Y-84.266234 Z0
G01 X40.97619 Y-84.266234 Z0.12549
G01 X40.75974 Y-84.266234 Z1
G01 X8.725108 Y-84.266234 Z1
G01 X8.508658 Y-84.266234 Z0.827451
G01 X8.292208 Y-84.266234 Z0
G01 X0.28355 Y-84.266234 Z0
G01 X0.28355 Y-84.482684 Z0
G01 X0.28355 Y-84.699134 Z0
G01 X0.28355 Y-84.915584 Z0
G01 X8.292208 Y-84.915584 Z0
G01 X8.508658 Y-84.915584 Z0.643137
G01 X8.725108 Y-84.915584 Z1
G01 X40.75974 Y-84.915584 Z1
G01 X40.97619 Y-84.915584 Z0.12549
G01 X41.192641 Y-84.915584 Z0
G01 X42.924242 Y-84.915584 Z0
G01 X43.140693 Y-84.915584 Z0.87451
G01 X43.357143 Y-84.915584 Z1
G01 X46.603896 Y-84.915584 Z1
G01 X46.820346 Y-84.915584 Z0.627451
G01 X47.036797 Y-84.915584 Z0
G01 X48.768398 Y-84.915584 Z0
G01 X48.984848 Y-84.915584 Z0.533333
G01 X49.201299 Y-84.915584 Z1
G01 X52.015152 Y-84.915584 Z1
G01 X52.231602 Y-84.915584 Z0
G01 X53.963203 Y-84.915584 Z0
G01 X54.179654 Y-84.915584 Z0.12549
G01 X54.396104 Y-84.915584 Z1
G01 X57.859307 Y-84.915584 Z1
G01 X58.075758 Y-84.915584 Z0.376471
G01 X58.292208 Y-84.915584 Z0
G01 X60.02381 Y-84.915584 Z0
G01 X60.24026 Y-84.915584 Z0.74902
G01 X60.45671 Y-84.915584 Z1
G01 X91.192641 Y-84.915584 Z1
G01 X91.409091 Y-84.915584 Z0.501961
G01 X91.625541 Y-84.915584 Z0
G01 X99.634199 Y-84.915584 Z0
G01 X99.634199 Y-85.132035 Z0
G01 X99.634199 Y-85.348485 Z0
G01 X99.634199 Y-85.564935 Z0
G01 X91.625541 Y-85.564935 Z0
G01 X91.409091 Y-85.564935 Z0.219608
G01 X91.192641 Y-85.564935 Z1
G01 X60.24026 Y-85.564935 Z1
G01 X60.02381 Y-85.564935 Z0.811765
G01 X59.807359 Y-85.564935 Z0
G01 X58.292208 Y-85.564935 Z0
G01 X58.075758 Y-85.564935 Z0.282353
G01 X57.859307 Y-85.564935 Z1
G01 X54.396104 Y-85.564935 Z1
G01 X54.179654 Y-85.564935 Z0.12549
G01 X53.963203 Y-85.564935 Z0
G01 X52.231602 Y-85.564935 Z0
G01 X52.015152 Y-85.564935 Z1
G01 X48.984848 Y-85.564935 Z1
G01 X48.768398 Y-85.564935 Z0.596078
G01 X48.551948 Y-85.564935 Z0
G01 X47.036797 Y-85.564935 Z0
G01 X46.820346 Y-85.564935 Z0.501961
G01 X46.603896 Y-85.564935 Z1
G01 X43.357143 Y-85.564935 Z1
G01 X43.140693 Y-85.564935 Z0.87451
G01 X42.924242 Y-85.564935 Z0
G01 X41.192641 Y-85.564935 Z0
G01 X40.97619 Y-85.564935 Z0.12549
G01 X40.75974 Y-85.564935 Z1
G01 X8.725108 Y-85.564935 Z1
G01 X8.508658 Y-85.564935 Z0.360784
G01 X8.292208 Y-85.564935 Z0
G01 X0.28355 Y-85.564935 Z0
G01 X0.28355 Y-85.781385 Z0
G01 X0.28355 Y-85.997835 Z0
G01 X0.28355 Y-86.214286 Z0
G01 X8.508658 Y-86.214286 Z0
G01 X8.725108 Y-86.214286 Z0.921569
G01 X8.941558 Y-86.214286 Z1
G01 X40.75974 Y-86.214286 Z1
G01 X40.97619 Y-86.214286 Z0.12549
G01 X41.192641 Y-86.214286 Z0
G01 X42.924242 Y-86.214286 Z0
G01 X43.140693 Y-86.214286 Z0.87451
G01 X43.357143 Y-86.214286 Z1
G01 X46.387446 Y-86.214286 Z1
G01 X46.603896 Y-86.214286 Z0.921569
G01 X46.820346 Y-86.214286 Z0
G01 X48.119048 Y-86.214286 Z0
G01 X48.335498 Y-86.214286 Z0.486275
G01 X48.551948 Y-86.214286 Z1
G01 X52.015152 Y-86.214286 Z1
G01 X52.231602 Y-86.214286 Z0
G01 X53.963203 Y-86.214286 Z0
G01 X54.179654 Y-86.214286 Z0.12549
G01 X54.396104 Y-86.214286 Z1
G01 X57.642857 Y-86.214286 Z1
G01 X57.859307 Y-86.214286 Z0.705882
G01 X58.075758 Y-86.214286 Z0
G01 X59.158009 Y-86.214286 Z0
G01 X59.374459 Y-86.214286 Z0.015686
G01 X59.590909 Y-86.214286 Z0.705882
G01 X59.807359 Y-86.214286 Z1
G01 X90.97619 Y-86.214286 Z1
G01 X91.192641 Y-86.214286 Z0.780392
G01 X91.409091 Y-86.214286 Z0
G01 X99.634199 Y-86.214286 Z0
G01 X99.634199 Y-86.430736 Z0
G01 X99.634199 Y-86.647186 Z0
G01 X99.634199 Y-86.863636 Z0
G01 X91.409091 Y-86.863636 Z0
G01 X91.192641 Y-86.863636 Z0.313725
G01 X90.97619 Y-86.863636 Z1
G01 X59.158009 Y-86.863636 Z1
G01 X58.941558 Y-86.863636 Z0.843137
G01 X58.725108 Y-86.863636 Z0.219608
G01 X58.508658 Y-86.863636 Z0
G01 X51.149351 Y-86.863636 Z0
G01 X50.9329 Y-86.863636 Z0.360784
G01 X50.71645 Y-86.863636 Z1
G01 X47.902597 Y-86.863636 Z1
G01 X47.686147 Y-86.863636 Z0.737255
G01 X47.469697 Y-86.863636 Z0.12549
G01 X47.253247 Y-86.863636 Z0
G01 X39.893939 Y-86.863636 Z0
G01 X39.677489 Y-86.863636 Z0.533333
G01 X39.461039 Y-86.863636 Z1
G01 X8.941558 Y-86.863636 Z1
G01 X8.725108 Y-86.863636 Z0.454902
G01 X8.508658 Y-86.863636 Z0
G01 X0.28355 Y-86.863636 Z0
G01 X0.28355 Y-87.080087 Z0
G01 X0.28355 Y-87.296537 Z0
G01 X0.28355 Y-87.512987 Z0
G01 X8.508658 Y-87.512987 Z0
G01 X8.725108 Y-87.512987 Z0.015686
G01 X8.941558 Y-87.512987 Z0.984314
G01 X9.158009 Y-87.512987 Z1
G01 X39.461039 Y-87.512987 Z1
G01 X39.677489 Y-87.512987 Z0.737255
G01 X39.893939 Y-87.512987 Z0
G01 X45.305195 Y-87.512987 Z0
G01 X45.521645 Y-87.512987 Z0.047059
G01 X45.738095 Y-87.512987 Z0.266667
G01 X45.954545 Y-87.512987 Z0.454902
G01 X46.170996 Y-87.512987 Z0.690196
G01 X46.387446 Y-87.512987 Z0.937255
G01 X46.603896 Y-87.512987 Z1
G01 X50.71645 Y-87.512987 Z1
G01 X50.9329 Y-87.512987 Z0.501961
G01 X51.149351 Y-87.512987 Z0
G01 X56.560606 Y-87.512987 Z0
G01 X56.777056 Y-87.512987 Z0.078431
G01 X56.993506 Y-87.512987 Z0.298039
G01 X57.209957 Y-87.512987 Z0.501961
G01 X57.426407 Y-87.512987 Z0.74902
G01 X57.642857 Y-87.512987 Z0.968627
G01 X57.859307 Y-87.512987 Z1
G01 X90.75974 Y-87.512987 Z1
G01 X90.97619 Y-87.512987 Z0.843137
G01 X91.192641 Y-87.512987 Z0
G01 X99.634199 Y-87.512987 Z0
G01 X99.634199 Y-87.729437 Z0
G01 X99.634199 Y-87.945887 Z0
G01 X99.634199 Y-88.162338 Z0
G01 X91.192641 Y-88.162338 Z0
G01 X90.97619 Y-88.162338 Z0.392157
G01 X90.75974 Y-88.162338 Z1
G01 X9.158009 Y-88.162338 Z1
G01 X8.941558 Y-88.162338 Z0.54902
G01 X8.725108 Y-88.162338 Z0
G01 X0.28355 Y-88.162338 Z0
G01 X0.28355 Y-88.378788 Z0
G01 X0.28355 Y-88.595238 Z0
G01 X0.28355 Y-88.811688 Z0
G01 X8.725108 Y-88.811688 Z0
G01 X8.941558 Y-88.811688 Z0.094118
G01 X9.158009 Y-88.811688 Z1
G01 X90.54329 Y-88.811688 Z1
G01 X90.75974 Y-88.811688 Z0.937255
G01 X90.97619 Y-88.811688 Z0
G01 X99.634199 Y-88.811688 Z0
G01 X99.634199 Y-89.028139 Z0
G01 X99.634199 Y-89.244589 Z0
G01 X99.634199 Y-89.461039 Z0
G01 X90.97619 Y-89.461039 Z0
G01 X90.75974 Y-89.461039 Z0.407843
G01 X90.54329 Y-89.461039 Z1
G01 X9.374459 Y-89.461039 Z1
G01 X9.158009 Y-89.461039 Z0.596078
G01 X8.941558 Y-89.461039 Z0
G01 X0.28355 Y-89.461039 Z0
G01 X0.28355 Y-89.677489 Z0
G01 X0.28355 Y-89.893939 Z0
G01 X0.28355 Y-90.11039 Z0
G01 X9.158009 Y-90.11039 Z0
G01 X9.374459 Y-90.11039 Z0.811765
G01 X9.590909 Y-90.11039 Z1
G01 X90.32684 Y-90.11039 Z1
G01 X90.54329 Y-90.11039 Z0.627451
G01 X90.75974 Y-90.11039 Z0
G01 X99.634199 Y-90.11039 Z0
G01 X99.634199 Y-90.32684 Z0
G01 X99.634199 Y-90.54329 Z0
G01 X99.634199 Y-90.75974 Z0
G01 X90.54329 Y-90.75974 Z0
G01 X90.32684 Y-90.75974 Z0.87451
G01 X90.11039 Y-90.75974 Z1
G01 X9.807359 Y-90.75974 Z1
G01 X9.590909 Y-90.75974 Z0.984314
G01 X9.374459 Y-90.75974 Z0.062745
G01 X9.158009 Y-90.75974 Z0
G01 X0.28355 Y-90.75974 Z0
G01 X0.28355 Y-90.97619 Z0
G01 X0.28355 Y-91.192641 Z0
G01 X0.28355 Y-91.409091 Z0
G01 X9.374459 Y-91.409091 Z0
G01 X9.590909 Y-91.409091 Z0.282353
G01 X9.807359 Y-91.409091 Z1
G01 X90.11039 Y-91.409091 Z1
G01 X90.32684 Y-91.409091 Z0.094118
G01 X90.54329 Y-91.409091 Z0
G01 X99.634199 Y-91.409091 Z0
G01 X99.634199 Y-91.625541 Z0
G01 X99.634199 Y-91.841991 Z0
G01 X99.634199 Y-92.058442 Z0
G01 X90.32684 Y-92.058442 Z0
G01 X90.11039 Y-92.058442 Z0.313725
G01 X89.893939 Y-92.058442 Z1
G01 X10.02381 Y-92.058442 Z1
G01 X9.807359 Y-92.058442 Z0.517647
G01 X9.590909 Y-92.058442 Z0
G01 X0.28355 Y-92.058442 Z0
G01 X0.28355 Y-92.274892 Z0
G01 X0.28355 Y-92.491342 Z0
G01 X0.28355 Y-92.707792 Z0
G01 X9.807359 Y-92.707792 Z0
G01 X10.02381 Y-92.707792 Z0.74902
G01 X10.24026 Y-92.707792 Z1
G01 X89.677489 Y-92.707792 Z1
G01 X89.893939 Y-92.707792 Z0.533333
G01 X90.11039 Y-92.707792 Z0
G01 X99.634199 Y-92.707792 Z0
G01 X99.634199 Y-92.924242 Z0
G01 X99.634199 Y-93.140693 Z0
G01 X99.634199 Y-93.357143 Z0
G01 X89.893939 Y-93.357143 Z0
G01 X89.677489 Y-93.357143 Z0.737255
G01 X89.461039 Y-93.357143 Z1
G01 X10.45671 Y-93.357143 Z1
G01 X10.24026 Y-93.357143 Z0.921569
G01 X10.02381 Y-93.357143 Z0.031373
G01 X9.807359 Y-93.357143 Z0
G01 X0.28355 Y-93.357143 Z0
G01 X0.28355 Y-93.573593 Z0
G01 X0.28355 Y-93.790043 Z0
G01 X0.28355 Y-94.006494 Z0
G01 X10.24026 Y-94.006494 Z0
G01 X10.45671 Y-94.006494 Z0.858824
G01 X10.67316 Y-94.006494 Z1
G01 X89.244589 Y-94.006494 Z1
G01 X89.461039 Y-94.006494 Z0.643137
G01 X89.677489 Y-94.006494 Z0
G01 X99.634199 Y-94.006494 Z0
G01 X99.634199 Y-94.222944 Z0
G01 X99.634199 Y-94.439394 Z0
G01 X99.634199 Y-94.655844 Z0
G01 X89.461039 Y-94.655844 Z0
G01 X89.244589 Y-94.655844 Z0.533333
G01 X89.028139 Y-94.655844 Z1
G01 X10.88961 Y-94.655844 Z1
G01 X10.67316 Y-94.655844 Z0.764706
G01 X10.45671 Y-94.655844 Z0
G01 X0.28355 Y-94.655844 Z0
G01 X0.28355 Y-94.872294 Z0
G01 X0.28355 Y-95.088745 Z0
G01 X0.28355 Y-95.305195 Z0
G01 X10.67316 Y-95.305195 Z0
G01 X10.88961 Y-95.305195 Z0.690196
G01 X11.106061 Y-95.305195 Z1
G01 X88.811688 Y-95.305195 Z1
G01 X89.028139 Y-95.305195 Z0.439216
G01 X89.244589 Y-95.305195 Z0
G01 X99.634199 Y-95.305195 Z0
G01 X99.634199 Y-95.521645 Z0
G01 X99.634199 Y-95.738095 Z0
G01 X99.634199 Y-95.954545 Z0
G01 X89.028139 Y-95.954545 Z0
G01 X88.811688 Y-95.954545 Z0.329412
G01 X88.595238 Y-95.954545 Z1
G01 X11.322511 Y-95.954545 Z1
G01 X11.106061 Y-95.954545 Z0.596078
G01 X10.88961 Y-95.954545 Z0
G01 X0.28355 Y-95.954545 Z0
G01 X0.28355 Y-96.170996 Z0
G01 X0.28355 Y-96.387446 Z0
G01 X0.28355 Y-96.603896 Z0
G01 X11.106061 Y-96.603896 Z0
G01 X11.322511 Y-96.603896 Z0.501961
G01 X11.538961 Y-96.603896 Z1
G01 X88.378788 Y-96.603896 Z1
G01 X88.595238 Y-96.603896 Z0.235294
G01 X88.811688 Y-96.603896 Z0
G01 X99.634199 Y-96.603896 Z0
G01 X99.634199 Y-96.820346 Z0
G01 X99.634199 Y-97.036797 Z0
G01 X99.634199 Y-97.253247 Z0
G01 X88.595238 Y-97.253247 Z0
G01 X88.378788 Y-97.253247 Z0.094118
G01 X88.162338 Y-97.253247 Z0.968627
G01 X87.945887 Y-97.253247 Z1
G01 X11.755411 Y-97.253247 Z1
G01 X11.538961 Y-97.253247 Z0.313725
G01 X11.322511 Y-97.253247 Z0
G01 X0.28355 Y-97.253247 Z0
G01 X0.28355 Y-97.469697 Z0
G01 X0.28355 Y-97.686147 Z0
G01 X0.28355 Y-97.902597 Z0
G01 X11.538961 Y-97.902597 Z0
G01 X11.755411 Y-97.902597 Z0.015686
G01 X11.971861 Y-97.902597 Z0.858824
G01 X12.188312 Y-97.902597 Z1
G01 X27.989177 Y-97.902597 Z1
G01 X28.205628 Y-97.902597 Z0.984314
G01 X28.422078 Y-97.902597 Z0
G01 X32.751082 Y-97.902597 Z0
G01 X32.967532 Y-97.902597 Z1
G01 X34.915584 Y-97.902597 Z1
G01 X35.132035 Y-97.902597 Z0.984314
G01 X35.348485 Y-97.902597 Z0
G01 X39.244589 Y-97.902597 Z0
G01 X39.461039 Y-97.902597 Z0.156863
G01 X39.677489 Y-97.902597 Z1
G01 X41.192641 Y-97.902597 Z1
G01 X41.409091 Y-97.902597 Z0.952941
G01 X41.625541 Y-97.902597 Z0
G01 X44.222944 Y-97.902597 Z0
G01 X44.439394 Y-97.902597 Z0.454902
G01 X44.655844 Y-97.902597 Z1
G01 X48.551948 Y-97.902597 Z1
G01 X48.768398 Y-97.902597 Z0.74902
G01 X48.984848 Y-97.902597 Z0
G01 X52.231602 Y-97.902597 Z0
G01 X52.448052 Y-97.902597 Z0.501961
G01 X52.664502 Y-97.902597 Z1
G01 X54.179654 Y-97.902597 Z1
G01 X54.396104 Y-97.902597 Z0.25098
G01 X54.612554 Y-97.902597 Z0
G01 X58.941558 Y-97.902597 Z0
G01 X59.158009 Y-97.902597 Z1
G01 X60.88961 Y-97.902597 Z1
G01 X61.106061 Y-97.902597 Z0.501961
G01 X61.322511 Y-97.902597 Z0
G01 X70.84632 Y-97.902597 Z0
G01 X71.062771 Y-97.902597 Z0.345098
G01 X71.279221 Y-97.902597 Z1
G01 X87.729437 Y-97.902597 Z1
G01 X87.945887 Y-97.902597 Z0.596078
G01 X88.162338 Y-97.902597 Z0
G01 X99.634199 Y-97.902597 Z0
G01 X99.634199 Y-98.119048 Z0
G01 X99.634199 Y-98.335498 Z0
G01 X99.634199 Y-98.551948 Z0
G01 X87.945887 Y-98.551948 Z0
G01 X87.729437 Y-98.551948 Z0.141176
G01 X87.512987 Y-98.551948 Z0.984314
G01 X87.296537 Y-98.551948 Z1
G01 X71.279221 Y-98.551948 Z1
G01 X71.062771 Y-98.551948 Z0.12549
G01 X70.84632 Y-98.551948 Z0
G01 X61.322511 Y-98.551948 Z0
G01 X61.106061 Y-98.551948 Z0.345098
G01 X60.88961 Y-98.551948 Z1
G01 X59.374459 Y-98.551948 Z1
G01 X59.158009 Y-98.551948 Z0.87451
G01 X58.941558 Y-98.551948 Z0.376471
G01 X58.725108 Y-98.551948 Z0.094118
G01 X58.508658 Y-98.551948 Z0
G01 X55.045455 Y-98.551948 Z0
G01 X54.829004 Y-98.551948 Z0.156863
G01 X54.612554 Y-98.551948 Z0.721569
G01 X54.396104 Y-98.551948 Z1
G01 X52.664502 Y-98.551948 Z1
G01 X52.448052 Y-98.551948 Z0.564706
G01 X52.231602 Y-98.551948 Z0.078431
G01 X52.015152 Y-98.551948 Z0
G01 X49.634199 Y-98.551948 Z0
G01 X49.417749 Y-98.551948 Z0.156863
G01 X49.201299 Y-98.551948 Z0.780392
G01 X48.984848 Y-98.551948 Z1
G01 X45.305195 Y-98.551948 Z1
G01 X45.088745 Y-98.551948 Z0.952941
G01 X44.872294 Y-98.551948 Z0.156863
G01 X44.655844 Y-98.551948 Z0
G01 X42.058442 Y-98.551948 Z0
G01 X41.841991 Y-98.551948 Z0.203922
G01 X41.625541 Y-98.551948 Z0.87451
G01 X41.409091 Y-98.551948 Z1
G01 X39.677489 Y-98.551948 Z1
G01 X39.461039 Y-98.551948 Z0
G01 X35.997835 Y-98.551948 Z0
G01 X35.781385 Y-98.551948 Z0.015686
G01 X35.564935 Y-98.551948 Z0.407843
G01 X35.348485 Y-98.551948 Z0.921569
G01 X35.132035 Y-98.551948 Z1
G01 X33.183983 Y-98.551948 Z1
G01 X32.967532 Y-98.551948 Z0.937255
G01 X32.751082 Y-98.551948 Z0.596078
G01 X32.534632 Y-98.551948 Z0.329412
G01 X32.318182 Y-98.551948 Z0.047059
G01 X32.101732 Y-98.551948 Z0
G01 X28.638528 Y-98.551948 Z0
G01 X28.422078 Y-98.551948 Z0.313725
G01 X28.205628 Y-98.551948 Z0.921569
G01 X27.989177 Y-98.551948 Z1
G01 X12.404762 Y-98.551948 Z1
G01 X12.188312 Y-98.551948 Z0.439216
G01 X11.971861 Y-98.551948 Z0
G01 X0.28355 Y-98.551948 Z0
G01 X0.28355 Y-98.768398 Z0
G01 X0.28355 Y-98.984848 Z0
G01 X0.28355 Y-99.201299 Z0
G01 X12.188312 Y-99.201299 Z0
G01 X12.404762 Y-99.201299 Z0.062745
G01 X12.621212 Y-99.201299 Z0.952941
G01 X12.837662 Y-99.201299 Z1
G01 X28.854978 Y-99.201299 Z1
G01 X29.071429 Y-99.201299 Z0.968627
G01 X29.287879 Y-99.201299 Z0.015686
G01 X29.504329 Y-99.201299 Z0
G01 X31.235931 Y-99.201299 Z0
G01 X31.452381 Y-99.201299 Z0.376471
G01 X31.668831 Y-99.201299 Z1
G01 X36.214286 Y-99.201299 Z1
G01 X36.430736 Y-99.201299 Z0.376471
G01 X36.647186 Y-99.201299 Z0
G01 X38.595238 Y-99.201299 Z0
G01 X38.811688 Y-99.201299 Z1
G01 X42.058442 Y-99.201299 Z1
G01 X42.274892 Y-99.201299 Z0.721569
G01 X42.491342 Y-99.201299 Z0
G01 X45.088745 Y-99.201299 Z0
G01 X45.305195 Y-99.201299 Z0.015686
G01 X45.521645 Y-99.201299 Z0.737255
G01 X45.738095 Y-99.201299 Z1
G01 X49.850649 Y-99.201299 Z1
G01 X50.0671 Y-99.201299 Z0.407843
G01 X50.28355 Y-99.201299 Z0
G01 X51.365801 Y-99.201299 Z0
G01 X51.582251 Y-99.201299 Z0.25098
G01 X51.798701 Y-99.201299 Z1
G01 X55.261905 Y-99.201299 Z1
G01 X55.478355 Y-99.201299 Z0.921569
G01 X55.694805 Y-99.201299 Z0
G01 X57.642857 Y-99.201299 Z0
G01 X57.859307 Y-99.201299 Z0.501961
G01 X58.075758 Y-99.201299 Z1
G01 X60.88961 Y-99.201299 Z1
G01 X61.106061 Y-99.201299 Z0.156863
G01 X61.322511 Y-99.201299 Z0
G01 X62.188312 Y-99.201299 Z0
G01 X62.404762 Y-99.201299 Z0.298039
G01 X62.621212 Y-99.201299 Z0.984314
G01 X62.837662 Y-99.201299 Z1
G01 X64.785714 Y-99.201299 Z1
G01 X65.002165 Y-99.201299 Z0.376471
G01 X65.218615 Y-99.201299 Z0
G01 X67.166667 Y-99.201299 Z0
G01 X67.383117 Y-99.201299 Z1
G01 X69.547619 Y-99.201299 Z1
G01 X69.764069 Y-99.201299 Z0.501961
G01 X69.980519 Y-99.201299 Z0
G01 X71.062771 Y-99.201299 Z0
G01 X71.279221 Y-99.201299 Z1
G01 X87.080087 Y-99.201299 Z1
G01 X87.296537 Y-99.201299 Z0.690196
G01 X87.512987 Y-99.201299 Z0
G01 X99.634199 Y-99.201299 Z0
G01 X99.634199 Y-99.417749 Z0
G01 X99.634199 Y-99.634199 Z0
G01 X99.634199 Y-99.850649 Z0
G01 X87.296537 Y-99.850649 Z0
G01 X87.080087 Y-99.850649 Z0.25098
G01 X86.863636 Y-99.850649 Z1
G01 X71.495671 Y-99.850649 Z1
G01 X71.279221 Y-99.850649 Z0.87451
G01 X71.062771 Y-99.850649 Z0
G01 X70.62987 Y-99.850649 Z0
G01 X70.41342 Y-99.850649 Z0.109804
G01 X70.19697 Y-99.850649 Z0.905882
G01 X69.980519 Y-99.850649 Z1
G01 X67.383117 Y-99.850649 Z1
G01 X67.166667 Y-99.850649 Z0
G01 X65.218615 Y-99.850649 Z0
G01 X65.002165 Y-99.850649 Z0.376471
G01 X64.785714 Y-99.850649 Z1
G01 X62.188312 Y-99.850649 Z1
G01 X61.971861 Y-99.850649 Z0.764706
G01 X61.755411 Y-99.850649 Z0.015686
G01 X61.538961 Y-99.850649 Z0
G01 X61.322511 Y-99.850649 Z0
G01 X61.106061 Y-99.850649 Z0.047059
G01 X60.88961 Y-99.850649 Z1
G01 X58.075758 Y-99.850649 Z1
G01 X57.859307 Y-99.850649 Z0.501961
G01 X57.642857 Y-99.850649 Z0
G01 X55.911255 Y-99.850649 Z0
G01 X55.694805 Y-99.850649 Z0.12549
G01 X55.478355 Y-99.850649 Z1
G01 X51.798701 Y-99.850649 Z1
G01 X51.582251 Y-99.850649 Z0.376471
G01 X51.365801 Y-99.850649 Z0
G01 X50.28355 Y-99.850649 Z0
G01 X50.0671 Y-99.850649 Z0.658824
G01 X49.850649 Y-99.850649 Z1
G01 X46.170996 Y-99.850649 Z1
G01 X45.954545 Y-99.850649 Z0.423529
G01 X45.738095 Y-99.850649 Z0
G01 X42.491342 Y-99.850649 Z0
G01 X42.274892 Y-99.850649 Z0.74902
G01 X42.058442 Y-99.850649 Z1
G01 X38.811688 Y-99.850649 Z1
G01 X38.595238 Y-99.850649 Z0
G01 X36.647186 Y-99.850649 Z0
G01 X36.430736 Y-99.850649 Z0.501961
G01 X36.214286 Y-99.850649 Z1
G01 X31.668831 Y-99.850649 Z1
G01 X31.452381 Y-99.850649 Z0.376471
G01 X31.235931 Y-99.850649 Z0
G01 X29.504329 Y-99.850649 Z0
G01 X29.287879 Y-99.850649 Z0.12549
G01 X29.071429 Y-99.850649 Z1
G01 X13.054113 Y-99.850649 Z1
G01 X12.837662 Y-99.850649 Z0.580392
G01 X12.621212 Y-99.850649 Z0
G01 X0.28355 Y-99.850649 Z0
G01 X0.28355 Y-100.0671 Z0
G01 X0.28355 Y-100.28355 Z0
G01 X0.28355 Y-100.5 Z0
G01 X12.837662 Y-100.5 Z0
G01 X13.054113 Y-100.5 Z0.156863
G01 X13.270563 Y-100.5 Z1
G01 X29.071429 Y-100.5 Z1
G01 X29.287879 Y-100.5 Z0.12549
G01 X29.504329 Y-100.5 Z0
G01 X31.235931 Y-100.5 Z0
G01 X31.452381 Y-100.5 Z0.376471
G01 X31.668831 Y-100.5 Z1
G01 X36.214286 Y-100.5 Z1
G01 X36.430736 Y-100.5 Z0.501961
G01 X36.647186 Y-100.5 Z0
G01 X38.595238 Y-100.5 Z0
G01 X38.811688 Y-100.5 Z1
G01 X42.058442 Y-100.5 Z1
G01 X42.274892 Y-100.5 Z0.74902
G01 X42.491342 Y-100.5 Z0
G01 X46.170996 Y-100.5 Z0
G01 X46.387446 Y-100.5 Z0.141176
G01 X46.603896 Y-100.5 Z0.937255
G01 X46.820346 Y-100.5 Z1
G01 X49.850649 Y-100.5 Z1
G01 X50.0671 Y-100.5 Z0.87451
G01 X50.28355 Y-100.5 Z0
G01 X51.365801 Y-100.5 Z0
G01 X51.582251 Y-100.5 Z0.376471
G01 X51.798701 Y-100.5 Z1
G01 X55.478355 Y-100.5 Z1
G01 X55.694805 Y-100.5 Z0.12549
G01 X55.911255 Y-100.5 Z0
G01 X57.642857 Y-100.5 Z0
G01 X57.859307 Y-100.5 Z0.501961
G01 X58.075758 Y-100.5 Z1
G01 X61.106061 Y-100.5 Z1
G01 X61.322511 Y-100.5 Z0.905882
G01 X61.538961 Y-100.5 Z0.984314
G01 X61.755411 Y-100.5 Z1
G01 X64.785714 Y-100.5 Z1
G01 X65.002165 Y-100.5 Z0.376471
G01 X65.218615 Y-100.5 Z0
G01 X67.166667 Y-100.5 Z0
G01 X67.383117 Y-100.5 Z1
G01 X70.62987 Y-100.5 Z1
G01 X70.84632 Y-100.5 Z0.87451
G01 X71.062771 Y-100.5 Z1
G01 X86.430736 Y-100.5 Z1
G01 X86.647186 Y-100.5 Z0.811765
G01 X86.863636 Y-100.5 Z0
G01 X99.634199 Y-100.5 Z0
G01 X99.634199 Y-100.71645 Z0
G01 X99.634199 Y-100.9329 Z0
G01 X99.634199 Y-101.149351 Z0
G01 X86.647186 Y-101.149351 Z0
G01 X86.430736 Y-101.149351 Z0.12549
G01 X86.214286 Y-101.149351 Z0.968627
G01 X85.997835 Y-101.149351 Z1
G01 X67.383117 Y-101.149351 Z1
G01 X67.166667 Y-101.149351 Z0
G01 X65.218615 Y-101.149351 Z0
G01 X65.002165 Y-101.149351 Z0.376471
G01 X64.785714 Y-101.149351 Z1
G01 X58.075758 Y-101.149351 Z1
G01 X57.859307 Y-101.149351 Z0.501961
G01 X57.642857 Y-101.149351 Z0
G01 X55.911255 Y-101.149351 Z0
G01 X55.694805 Y-101.149351 Z0.12549
G01 X55.478355 Y-101.149351 Z1
G01 X51.798701 Y-101.149351 Z1
G01 X51.582251 Y-101.149351 Z0.376471
G01 X51.365801 Y-101.149351 Z0
G01 X50.5 Y-101.149351 Z0
G01 X50.28355 Y-101.149351 Z0.031373
G01 X50.0671 Y-101.149351 Z1
G01 X47.253247 Y-101.149351 Z1
G01 X47.036797 Y-101.149351 Z0.737255
G01 X46.820346 Y-101.149351 Z0.015686
G01 X46.603896 Y-101.149351 Z0
G01 X44.655844 Y-101.149351 Z0
G01 X44.439394 Y-101.149351 Z0.282353
G01 X43.573593 Y-101.149351 Z0.282353
G01 X43.357143 Y-101.149351 Z0
G01 X42.491342 Y-101.149351 Z0
G01 X42.274892 Y-101.149351 Z0.74902
G01 X42.058442 Y-101.149351 Z1
G01 X38.811688 Y-101.149351 Z1
G01 X38.595238 Y-101.149351 Z0
G01 X36.647186 Y-101.149351 Z0
G01 X36.430736 Y-101.149351 Z0.501961
G01 X36.214286 Y-101.149351 Z1
G01 X31.668831 Y-101.149351 Z1
G01 X31.452381 Y-101.149351 Z0.376471
G01 X31.235931 Y-101.149351 Z0
G01 X29.504329 Y-101.149351 Z0
G01 X29.287879 Y-101.149351 Z0.12549
G01 X29.071429 Y-101.149351 Z1
G01 X13.703463 Y-101.149351 Z1
G01 X13.487013 Y-101.149351 Z0.470588
G01 X13.270563 Y-101.149351 Z0
G01 X0.28355 Y-101.149351 Z0
G01 X0.28355 Y-101.365801 Z0
G01 X0.28355 Y-101.582251 Z0
G01 X0.28355 Y-101.798701 Z0
G01 X13.703463 Y-101.798701 Z0
G01 X13.919913 Y-101.798701 Z0.658824
G01 X14.136364 Y-101.798701 Z1
G01 X29.071429 Y-101.798701 Z1
G01 X29.287879 Y-101.798701 Z0.12549
G01 X29.504329 Y-101.798701 Z0
G01 X31.235931 Y-101.798701 Z0
G01 X31.452381 Y-101.798701 Z0.376471
G01 X31.668831 Y-101.798701 Z1
G01 X36.214286 Y-101.798701 Z1
G01 X36.430736 Y-101.798701 Z0.501961
G01 X36.647186 Y-101.798701 Z0
G01 X38.595238 Y-101.798701 Z0
G01 X38.811688 Y-101.798701 Z1
G01 X42.058442 Y-101.798701 Z1
G01 X42.274892 Y-101.798701 Z0.74902
G01 X42.491342 Y-101.798701 Z0
G01 X43.357143 Y-101.798701 Z0
G01 X43.573593 Y-101.798701 Z0.627451
G01 X43.790043 Y-101.798701 Z1
G01 X44.655844 Y-101.798701 Z1
G01 X44.872294 Y-101.798701 Z0.87451
G01 X45.088745 Y-101.798701 Z0.062745
G01 X45.305195 Y-101.798701 Z0
G01 X47.253247 Y-101.798701 Z0
G01 X47.469697 Y-101.798701 Z0.392157
G01 X47.686147 Y-101.798701 Z1
G01 X50.0671 Y-101.798701 Z1
G01 X50.28355 Y-101.798701 Z0.25098
G01 X50.5 Y-101.798701 Z0
G01 X51.365801 Y-101.798701 Z0
G01 X51.582251 Y-101.798701 Z0.376471
G01 X51.798701 Y-101.798701 Z1
G01 X55.478355 Y-101.798701 Z1
G01 X55.694805 Y-101.798701 Z0.12549
G01 X55.911255 Y-101.798701 Z0
G01 X57.642857 Y-101.798701 Z0
G01 X57.859307 Y-101.798701 Z0.501961
G01 X58.075758 Y-101.798701 Z1
G01 X64.785714 Y-101.798701 Z1
G01 X65.002165 Y-101.798701 Z0.376471
G01 X65.218615 Y-101.798701 Z0
G01 X67.166667 Y-101.798701 Z0
G01 X67.383117 Y-101.798701 Z1
G01 X85.781385 Y-101.798701 Z1
G01 X85.997835 Y-101.798701 Z0.266667
G01 X86.214286 Y-101.798701 Z0
G01 X99.634199 Y-101.798701 Z0
G01 X99.634199 Y-102.015152 Z0
G01 X99.634199 Y-102.231602 Z0
G01 X99.634199 Y-102.448052 Z0
G01 X85.781385 Y-102.448052 Z0
G01 X85.564935 Y-102.448052 Z0.439216
G01 X85.348485 Y-102.448052 Z1
G01 X67.383117 Y-102.448052 Z1
G01 X67.166667 Y-102.448052 Z0
G01 X65.218615 Y-102.448052 Z0
G01 X65.002165 Y-102.448052 Z0.376471
G01 X64.785714 Y-102.448052 Z1
G01 X58.075758 Y-102.448052 Z1
G01 X57.859307 Y-102.448052 Z0.501961
G01 X57.642857 Y-102.448052 Z0
G01 X55.911255 Y-102.448052 Z0
G01 X55.694805 Y-102.448052 Z0.12549
G01 X55.478355 Y-102.448052 Z1
G01 X51.798701 Y-102.448052 Z1
G01 X51.582251 Y-102.448052 Z0.376471
G01 X51.365801 Y-102.448052 Z0
G01 X50.5 Y-102.448052 Z0
G01 X50.28355 Y-102.448052 Z0.423529
G01 X50.0671 Y-102.448052 Z1
G01 X48.335498 Y-102.448052 Z1
G01 X48.119048 Y-102.448052 Z0.921569
G01 X47.902597 Y-102.448052 Z0.12549
G01 X47.686147 Y-102.448052 Z0
G01 X45.738095 Y-102.448052 Z0
G01 X45.521645 Y-102.448052 Z0.266667
G01 X45.305195 Y-102.448052 Z0.984314
G01 X45.088745 Y-102.448052 Z1
G01 X43.790043 Y-102.448052 Z1
G01 X43.573593 Y-102.448052 Z0.501961
G01 X43.357143 Y-102.448052 Z0
G01 X42.491342 Y-102.448052 Z0
G01 X42.274892 Y-102.448052 Z0.74902
G01 X42.058442 Y-102.448052 Z1
G01 X38.811688 Y-102.448052 Z1
G01 X38.595238 Y-102.448052 Z0
G01 X36.647186 Y-102.448052 Z0
G01 X36.430736 Y-102.448052 Z0.501961
G01 X36.214286 Y-102.448052 Z1
G01 X31.668831 Y-102.448052 Z1
G01 X31.452381 Y-102.448052 Z0.376471
G01 X31.235931 Y-102.448052 Z0
G01 X29.504329 Y-102.448052 Z0
G01 X29.287879 Y-102.448052 Z0.12549
G01 X29.071429 Y-102.448052 Z1
G01 X14.569264 Y-102.448052 Z1
G01 X14.352814 Y-102.448052 Z0.827451
G01 X14.136364 Y-102.448052 Z0.015686
G01 X13.919913 Y-102.448052 Z0
G01 X0.28355 Y-102.448052 Z0
G01 X0.28355 Y-102.664502 Z0
G01 X0.28355 Y-102.880952 Z0
G01 X0.28355 Y-103.097403 Z0
G01 X14.352814 Y-103.097403 Z0
G01 X14.569264 Y-103.097403 Z0.094118
G01 X14.785714 Y-103.097403 Z0.937255
G01 X15.002165 Y-103.097403 Z1
G01 X29.071429 Y-103.097403 Z1
G01 X29.287879 Y-103.097403 Z0.12549
G01 X29.504329 Y-103.097403 Z0
G01 X31.235931 Y-103.097403 Z0
G01 X31.452381 Y-103.097403 Z0.376471
G01 X31.668831 Y-103.097403 Z1
G01 X36.214286 Y-103.097403 Z1
G01 X36.430736 Y-103.097403 Z0.501961
G01 X36.647186 Y-103.097403 Z0
G01 X38.595238 Y-103.097403 Z0
G01 X38.811688 Y-103.097403 Z1
G01 X42.058442 Y-103.097403 Z1
G01 X42.274892 Y-103.097403 Z0.627451
G01 X42.491342 Y-103.097403 Z0
G01 X43.357143 Y-103.097403 Z0
G01 X43.573593 Y-103.097403 Z0.360784
G01 X43.790043 Y-103.097403 Z1
G01 X45.738095 Y-103.097403 Z1
G01 X45.954545 Y-103.097403 Z0.54902
G01 X46.170996 Y-103.097403 Z0
G01 X48.335498 Y-103.097403 Z0
G01 X48.551948 Y-103.097403 Z0.721569
G01 X48.768398 Y-103.097403 Z1
G01 X50.0671 Y-103.097403 Z1
G01 X50.28355 Y-103.097403 Z0.627451
G01 X50.5 Y-103.097403 Z0
G01 X51.365801 Y-103.097403 Z0
G01 X51.582251 Y-103.097403 Z0.423529
G01 X51.798701 Y-103.097403 Z1
G01 X55.478355 Y-103.097403 Z1
G01 X55.694805 Y-103.097403 Z0.12549
G01 X55.911255 Y-103.097403 Z0
G01 X57.642857 Y-103.097403 Z0
G01 X57.859307 Y-103.097403 Z0.501961
G01 X58.075758 Y-103.097403 Z1
G01 X64.785714 Y-103.097403 Z1
G01 X65.002165 Y-103.097403 Z0.376471
G01 X65.218615 Y-103.097403 Z0
G01 X67.166667 Y-103.097403 Z0
G01 X67.383117 Y-103.097403 Z1
G01 X84.915584 Y-103.097403 Z1
G01 X85.132035 Y-103.097403 Z0.611765
G01 X85.348485 Y-103.097403 Z0
G01 X99.634199 Y-103.097403 Z0
G01 X99.634199 Y-103.313853 Z0
G01 X99.634199 Y-103.530303 Z0
G01 X99.634199 Y-103.746753 Z0
G01 X84.915584 Y-103.746753 Z0
G01 X84.699134 Y-103.746753 Z0.780392
G01 X84.482684 Y-103.746753 Z1
G01 X67.383117 Y-103.746753 Z1
G01 X67.166667 Y-103.746753 Z0
G01 X65.218615 Y-103.746753 Z0
G01 X65.002165 Y-103.746753 Z0.376471
G01 X64.785714 Y-103.746753 Z1
G01 X58.075758 Y-103.746753 Z1
G01 X57.859307 Y-103.746753 Z0.501961
G01 X57.642857 Y-103.746753 Z0
G01 X55.911255 Y-103.746753 Z0
G01 X55.694805 Y-103.746753 Z0.12549
G01 X55.478355 Y-103.746753 Z1
G01 X51.798701 Y-103.746753 Z1
G01 X51.582251 Y-103.746753 Z0.501961
G01 X51.365801 Y-103.746753 Z0
G01 X50.5 Y-103.746753 Z0
G01 X50.28355 Y-103.746753 Z0.627451
G01 X50.0671 Y-103.746753 Z1
G01 X49.201299 Y-103.746753 Z1
G01 X48.984848 Y-103.746753 Z0.376471
G01 X48.768398 Y-103.746753 Z0
G01 X46.820346 Y-103.746753 Z0
G01 X46.603896 Y-103.746753 Z0.031373
G01 X46.387446 Y-103.746753 Z0.811765
G01 X46.170996 Y-103.746753 Z1
G01 X43.790043 Y-103.746753 Z1
G01 X43.573593 Y-103.746753 Z0.12549
G01 X43.357143 Y-103.746753 Z0
G01 X42.491342 Y-103.746753 Z0
G01 X42.274892 Y-103.746753 Z0.627451
G01 X42.058442 Y-103.746753 Z1
G01 X38.811688 Y-103.746753 Z1
G01 X38.595238 Y-103.746753 Z0.219608
G01 X38.378788 Y-103.746753 Z0
G01 X36.647186 Y-103.746753 Z0
G01 X36.430736 Y-103.746753 Z0.501961
G01 X36.214286 Y-103.746753 Z1
G01 X31.668831 Y-103.746753 Z1
G01 X31.452381 Y-103.746753 Z0.25098
G01 X31.235931 Y-103.746753 Z0
G01 X29.504329 Y-103.746753 Z0
G01 X29.287879 Y-103.746753 Z0.25098
G01 X29.071429 Y-103.746753 Z1
G01 X15.218615 Y-103.746753 Z1
G01 X15.002165 Y-103.746753 Z0.235294
G01 X14.785714 Y-103.746753 Z0
G01 X0.28355 Y-103.746753 Z0
G01 X0.28355 Y-103.963203 Z0
G01 X0.28355 Y-104.179654 Z0
G01 X0.28355 Y-104.396104 Z0
G01 X15.218615 Y-104.396104 Z0
G01 X15.435065 Y-104.396104 Z0.266667
G01 X15.651515 Y-104.396104 Z0.984314
G01 X15.867965 Y-104.396104 Z1
G01 X29.071429 Y-104.396104 Z1
G01 X29.287879 Y-104.396104 Z0.486275
G01 X29.504329 Y-104.396104 Z0
G01 X31.235931 Y-104.396104 Z0
G01 X31.452381 Y-104.396104 Z0.047059
G01 X31.668831 Y-104.396104 Z1
G01 X36.214286 Y-104.396104 Z1
G01 X36.430736 Y-104.396104 Z0.501961
G01 X36.647186 Y-104.396104 Z0
G01 X38.378788 Y-104.396104 Z0
G01 X38.595238 Y-104.396104 Z0.643137
G01 X38.811688 Y-104.396104 Z1
G01 X42.058442 Y-104.396104 Z1
G01 X42.274892 Y-104.396104 Z0.627451
G01 X42.491342 Y-104.396104 Z0
G01 X43.573593 Y-104.396104 Z0
G01 X43.790043 Y-104.396104 Z0.952941
G01 X44.006494 Y-104.396104 Z1
G01 X46.603896 Y-104.396104 Z1
G01 X46.820346 Y-104.396104 Z0.968627
G01 X47.036797 Y-104.396104 Z0.188235
G01 X47.253247 Y-104.396104 Z0
G01 X49.201299 Y-104.396104 Z0
G01 X49.417749 Y-104.396104 Z0.015686
G01 X50.28355 Y-104.396104 Z0.015686
G01 X50.5 Y-104.396104 Z0
G01 X51.365801 Y-104.396104 Z0
G01 X51.582251 Y-104.396104 Z0.501961
G01 X51.798701 Y-104.396104 Z1
G01 X55.478355 Y-104.396104 Z1
G01 X55.694805 Y-104.396104 Z0.12549
G01 X55.911255 Y-104.396104 Z0
G01 X57.642857 Y-104.396104 Z0
G01 X57.859307 Y-104.396104 Z0.501961
G01 X58.075758 Y-104.396104 Z1
G01 X64.785714 Y-104.396104 Z1
G01 X65.002165 Y-104.396104 Z0.376471
G01 X65.218615 Y-104.396104 Z0
G01 X67.166667 Y-104.396104 Z0
G01 X67.383117 Y-104.396104 Z1
G01 X84.049784 Y-104.396104 Z1
G01 X84.266234 Y-104.396104 Z0.764706
G01 X84.482684 Y-104.396104 Z0.015686
G01 X84.699134 Y-104.396104 Z0
G01 X99.634199 Y-104.396104 Z0
G01 X99.634199 Y-104.612554 Z0
G01 X99.634199 Y-104.829004 Z0
G01 X99.634199 Y-105.045455 Z0
G01 X84.049784 Y-105.045455 Z0
G01 X83.833333 Y-105.045455 Z0.533333
G01 X83.616883 Y-105.045455 Z1
G01 X67.383117 Y-105.045455 Z1
G01 X67.166667 Y-105.045455 Z0
G01 X65.218615 Y-105.045455 Z0
G01 X65.002165 Y-105.045455 Z0.376471
G01 X64.785714 Y-105.045455 Z1
G01 X58.075758 Y-105.045455 Z1
G01 X57.859307 Y-105.045455 Z0.501961
G01 X57.642857 Y-105.045455 Z0
G01 X55.911255 Y-105.045455 Z0
G01 X55.694805 Y-105.045455 Z0.12549
G01 X55.478355 Y-105.045455 Z1
G01 X51.798701 Y-105.045455 Z1
G01 X51.582251 Y-105.045455 Z0.501961
G01 X51.365801 Y-105.045455 Z0
G01 X47.686147 Y-105.045455 Z0
G01 X47.469697 Y-105.045455 Z0.454902
G01 X47.253247 Y-105.045455 Z1
G01 X44.006494 Y-105.045455 Z1
G01 X43.790043 Y-105.045455 Z0.74902
G01 X43.573593 Y-105.045455 Z0
G01 X42.491342 Y-105.045455 Z0
G01 X42.274892 Y-105.045455 Z0.627451
G01 X42.058442 Y-105.045455 Z1
G01 X38.595238 Y-105.045455 Z1
G01 X38.378788 Y-105.045455 Z0.360784
G01 X38.162338 Y-105.045455 Z0
G01 X36.647186 Y-105.045455 Z0
G01 X36.430736 Y-105.045455 Z0.423529
G01 X36.214286 Y-105.045455 Z1
G01 X31.885281 Y-105.045455 Z1
G01 X31.668831 Y-105.045455 Z0.580392
G01 X31.452381 Y-105.045455 Z0
G01 X29.504329 Y-105.045455 Z0
G01 X29.287879 Y-105.045455 Z0.937255
G01 X29.071429 Y-105.045455 Z1
G01 X16.300866 Y-105.045455 Z1
G01 X16.084416 Y-105.045455 Z0.905882
G01 X15.867965 Y-105.045455 Z0.094118
G01 X15.651515 Y-105.045455 Z0
G01 X0.28355 Y-105.045455 Z0
G01 X0.28355 Y-105.261905 Z0
G01 X0.28355 Y-105.478355 Z0
G01 X0.28355 Y-105.694805 Z0
G01 X16.084416 Y-105.694805 Z0
G01 X16.300866 Y-105.694805 Z0.015686
G01 X16.517316 Y-105.694805 Z0.764706
G01 X16.733766 Y-105.694805 Z1
G01 X29.287879 Y-105.694805 Z1
G01 X29.504329 Y-105.694805 Z0.67451
G01 X29.720779 Y-105.694805 Z0
G01 X31.668831 Y-105.694805 Z0
G01 X31.885281 Y-105.694805 Z0.737255
G01 X32.101732 Y-105.694805 Z1
G01 X36.214286 Y-105.694805 Z1
G01 X36.430736 Y-105.694805 Z0.203922
G01 X36.647186 Y-105.694805 Z0
G01 X37.945887 Y-105.694805 Z0
G01 X38.162338 Y-105.694805 Z0.407843
G01 X38.378788 Y-105.694805 Z1
G01 X42.058442 Y-105.694805 Z1
G01 X42.274892 Y-105.694805 Z0.501961
G01 X42.491342 Y-105.694805 Z0
G01 X43.573593 Y-105.694805 Z0
G01 X43.790043 Y-105.694805 Z0.54902
G01 X44.006494 Y-105.694805 Z1
G01 X47.686147 Y-105.694805 Z1
G01 X47.902597 Y-105.694805 Z0.737255
G01 X48.119048 Y-105.694805 Z0.015686
G01 X48.335498 Y-105.694805 Z0
G01 X51.365801 Y-105.694805 Z0
G01 X51.582251 Y-105.694805 Z0.501961
G01 X51.798701 Y-105.694805 Z1
G01 X55.478355 Y-105.694805 Z1
G01 X55.694805 Y-105.694805 Z0.12549
G01 X55.911255 Y-105.694805 Z0
G01 X57.642857 Y-105.694805 Z0
G01 X57.859307 Y-105.694805 Z0.501961
G01 X58.075758 Y-105.694805 Z1
G01 X64.785714 Y-105.694805 Z1
G01 X65.002165 Y-105.694805 Z0.376471
G01 X65.218615 Y-105.694805 Z0
G01 X67.166667 Y-105.694805 Z0
G01 X67.383117 Y-105.694805 Z1
G01 X83.183983 Y-105.694805 Z1
G01 X83.400433 Y-105.694805 Z0.313725
G01 X83.616883 Y-105.694805 Z0
G01 X99.634199 Y-105.694805 Z0
G01 X99.634199 Y-105.911255 Z0
G01 X99.634199 Y-106.127706 Z0
G01 X99.634199 Y-106.344156 Z0
G01 X83.183983 Y-106.344156 Z0
G01 X82.967532 Y-106.344156 Z0.12549
G01 X82.751082 Y-106.344156 Z0.937255
G01 X82.534632 Y-106.344156 Z1
G01 X67.383117 Y-106.344156 Z1
G01 X67.166667 Y-106.344156 Z0
G01 X65.218615 Y-106.344156 Z0
G01 X65.002165 Y-106.344156 Z0.376471
G01 X64.785714 Y-106.344156 Z1
G01 X58.075758 Y-106.344156 Z1
G01 X57.859307 Y-106.344156 Z0.501961
G01 X57.642857 Y-106.344156 Z0
G01 X55.911255 Y-106.344156 Z0
G01 X55.694805 Y-106.344156 Z0.12549
G01 X55.478355 Y-106.344156 Z1
G01 X51.798701 Y-106.344156 Z1
G01 X51.582251 Y-106.344156 Z0.501961
G01 X51.365801 Y-106.344156 Z0
G01 X48.768398 Y-106.344156 Z0
