( PCB Cuts )
( Generated by Rapid-PCB.com )
( Material Size)
( X= 160.000, Y= 100.000, Z= 1.580)
()
G00
G17
G21
G40
G49
G54
G80
G90
G94
G00 F3000 Z3.000
M03 S9000
G00 F3000 X-61.500 Y31.500
G00 F1500 Z0
G01 F600 Z-2.000
G01 F600 X-61.500 Y-41.500
G01 F600 X51.500 Y-41.500
G01 F600 X51.500 Y31.500
G01 F600 X-61.500 Y31.500
G00 F3000 Z3.000
G00 F3000 Z3.000
G00 F3000 X0.000 Y0.000
M05
M30
%