( PCB Contour )
( Generated by Rapid-PCB.com )
( Material Size)
( X= 160.000, Y= 100.000, Z= 1.580)
()
G00
G17
G21
G40
G49
G54
G80
G90
G94
G00 F3000 Z3.000
M03 S9000
G00 F3000 X-55.964 Y28.476
G00 F1500 Z0
G01 F600 Z-0.200
G01 F600 X-56.491 Y28.364
G01 F600 X-56.983 Y28.145
G01 F600 X-57.419 Y27.828
G01 F600 X-57.779 Y27.428
G01 F600 X-58.049 Y26.961
G01 F600 X-58.215 Y26.449
G01 F600 X-58.271 Y25.913
G01 F600 X-58.215 Y25.377
G01 F600 X-58.049 Y24.865
G01 F600 X-57.779 Y24.398
G01 F600 X-57.419 Y23.998
G01 F600 X-56.983 Y23.681
G01 F600 X-56.491 Y23.462
G01 F600 X-55.964 Y23.350
G01 F600 X-55.425 Y23.350
G01 F600 X-54.898 Y23.462
G01 F600 X-54.406 Y23.681
G01 F600 X-53.971 Y23.998
G01 F600 X-53.610 Y24.398
G01 F600 X-53.341 Y24.865
G01 F600 X-53.174 Y25.377
G01 F600 X-53.118 Y25.913
G01 F600 X-53.174 Y26.449
G01 F600 X-53.341 Y26.961
G01 F600 X-53.610 Y27.428
G01 F600 X-53.971 Y27.828
G01 F600 X-54.406 Y28.145
G01 F600 X-54.898 Y28.364
G01 F600 X-55.425 Y28.476
G01 F600 X-55.964 Y28.476
G00 F3000 Z3.000
G00 F3000 X45.636 Y28.476
G00 F1500 Z0
G01 F600 Z-0.200
G01 F600 X45.109 Y28.364
G01 F600 X44.617 Y28.145
G01 F600 X44.181 Y27.828
G01 F600 X43.821 Y27.428
G01 F600 X43.551 Y26.961
G01 F600 X43.385 Y26.449
G01 F600 X43.329 Y25.913
G01 F600 X43.385 Y25.377
G01 F600 X43.551 Y24.865
G01 F600 X43.821 Y24.398
G01 F600 X44.181 Y23.998
G01 F600 X44.617 Y23.681
G01 F600 X45.109 Y23.462
G01 F600 X45.636 Y23.350
G01 F600 X46.175 Y23.350
G01 F600 X46.702 Y23.462
G01 F600 X47.194 Y23.681
G01 F600 X47.630 Y23.998
G01 F600 X47.990 Y24.398
G01 F600 X48.259 Y24.865
G01 F600 X48.426 Y25.377
G01 F600 X48.482 Y25.913
G01 F600 X48.426 Y26.449
G01 F600 X48.259 Y26.961
G01 F600 X47.990 Y27.428
G01 F600 X47.630 Y27.828
G01 F600 X47.194 Y28.145
G01 F600 X46.702 Y28.364
G01 F600 X46.175 Y28.476
G01 F600 X45.636 Y28.476
G00 F3000 Z3.000
G00 F3000 X13.533 Y28.237
G00 F1500 Z0
G01 F600 Z-0.200
G01 F600 X13.533 Y28.212
G01 F600 X13.482 Y28.212
G01 F600 X13.482 Y28.161
G01 F600 X13.457 Y28.161
G01 F600 X13.457 Y27.754
G01 F600 X13.482 Y27.754
G01 F600 X13.482 Y27.729
G01 F600 X13.508 Y27.729
G01 F600 X13.508 Y27.704
G01 F600 X13.558 Y27.704
G01 F600 X13.558 Y27.678
G01 F600 X13.940 Y27.678
G01 F600 X13.940 Y27.704
G01 F600 X13.965 Y27.704
G01 F600 X13.965 Y27.729
G01 F600 X13.990 Y27.729
G01 F600 X13.990 Y27.754
G01 F600 X14.016 Y27.754
G01 F600 X14.016 Y27.805
G01 F600 X14.041 Y27.805
G01 F600 X14.041 Y28.136
G01 F600 X14.016 Y28.136
G01 F600 X14.016 Y28.186
G01 F600 X13.990 Y28.186
G01 F600 X13.990 Y28.212
G01 F600 X13.965 Y28.212
G01 F600 X13.965 Y28.237
G01 F600 X13.533 Y28.237
G00 F3000 Z3.000
G00 F3000 X-15.474 Y28.237
G00 F1500 Z0
G01 F600 Z-0.200
G01 F600 X-15.474 Y28.212
G01 F600 X-15.499 Y28.212
G01 F600 X-15.499 Y28.186
G01 F600 X-15.525 Y28.186
G01 F600 X-15.525 Y28.136
G01 F600 X-15.550 Y28.136
G01 F600 X-15.550 Y27.805
G01 F600 X-15.525 Y27.805
G01 F600 X-15.525 Y27.754
G01 F600 X-15.499 Y27.754
G01 F600 X-15.499 Y27.729
G01 F600 X-15.474 Y27.729
G01 F600 X-15.474 Y27.704
G01 F600 X-15.449 Y27.704
G01 F600 X-15.449 Y27.678
G01 F600 X-15.067 Y27.678
G01 F600 X-15.067 Y27.704
G01 F600 X-15.017 Y27.704
G01 F600 X-15.017 Y27.729
G01 F600 X-14.991 Y27.729
G01 F600 X-14.991 Y27.754
G01 F600 X-14.966 Y27.754
G01 F600 X-14.966 Y28.161
G01 F600 X-14.991 Y28.161
G01 F600 X-14.991 Y28.212
G01 F600 X-15.042 Y28.212
G01 F600 X-15.042 Y28.237
G01 F600 X-15.474 Y28.237
G00 F3000 Z3.000
G00 F3000 X3.932 Y28.136
G00 F1500 Z0
G01 F600 Z-0.200
G01 F600 X3.932 Y28.110
G01 F600 X3.856 Y28.110
G01 F600 X3.856 Y28.085
G01 F600 X3.830 Y28.085
G01 F600 X3.830 Y28.034
G01 F600 X3.805 Y28.034
G01 F600 X3.805 Y28.009
G01 F600 X3.779 Y28.009
G01 F600 X3.779 Y27.958
G01 F600 X3.754 Y27.958
G01 F600 X3.754 Y27.907
G01 F600 X3.729 Y27.907
G01 F600 X3.729 Y27.856
G01 F600 X3.703 Y27.856
G01 F600 X3.703 Y27.831
G01 F600 X3.678 Y27.831
G01 F600 X3.678 Y27.780
G01 F600 X3.652 Y27.780
G01 F600 X3.652 Y27.729
G01 F600 X3.627 Y27.729
G01 F600 X3.627 Y27.704
G01 F600 X3.602 Y27.704
G01 F600 X3.602 Y27.653
G01 F600 X3.576 Y27.653
G01 F600 X3.576 Y27.602
G01 F600 X3.551 Y27.602
G01 F600 X3.551 Y27.551
G01 F600 X3.525 Y27.551
G01 F600 X3.525 Y27.526
G01 F600 X3.500 Y27.526
G01 F600 X3.500 Y27.475
G01 F600 X3.475 Y27.475
G01 F600 X3.475 Y27.424
G01 F600 X3.449 Y27.424
G01 F600 X3.449 Y27.399
G01 F600 X3.424 Y27.399
G01 F600 X3.424 Y27.348
G01 F600 X3.398 Y27.348
G01 F600 X3.398 Y27.297
G01 F600 X3.373 Y27.297
G01 F600 X3.373 Y27.272
G01 F600 X3.348 Y27.272
G01 F600 X3.348 Y27.221
G01 F600 X3.322 Y27.221
G01 F600 X3.322 Y27.170
G01 F600 X3.297 Y27.170
G01 F600 X3.297 Y27.120
G01 F600 X3.271 Y27.120
G01 F600 X3.271 Y27.094
G01 F600 X3.246 Y27.094
G01 F600 X3.246 Y27.043
G01 F600 X3.221 Y27.043
G01 F600 X3.221 Y26.993
G01 F600 X3.195 Y26.993
G01 F600 X3.195 Y26.967
G01 F600 X3.170 Y26.967
G01 F600 X3.170 Y26.916
G01 F600 X3.144 Y26.916
G01 F600 X3.144 Y26.866
G01 F600 X3.119 Y26.866
G01 F600 X3.119 Y26.815
G01 F600 X3.094 Y26.815
G01 F600 X3.094 Y26.789
G01 F600 X3.068 Y26.789
G01 F600 X3.068 Y26.739
G01 F600 X3.043 Y26.739
G01 F600 X3.043 Y26.688
G01 F600 X3.017 Y26.688
G01 F600 X3.017 Y26.662
G01 F600 X2.992 Y26.662
G01 F600 X2.992 Y26.612
G01 F600 X2.967 Y26.612
G01 F600 X2.967 Y26.561
G01 F600 X2.941 Y26.561
G01 F600 X2.941 Y26.510
G01 F600 X2.916 Y26.510
G01 F600 X2.916 Y26.485
G01 F600 X2.890 Y26.485
G01 F600 X2.890 Y26.434
G01 F600 X2.865 Y26.434
G01 F600 X2.865 Y26.383
G01 F600 X2.840 Y26.383
G01 F600 X2.840 Y26.358
G01 F600 X2.814 Y26.358
G01 F600 X2.814 Y26.307
G01 F600 X2.789 Y26.307
G01 F600 X2.789 Y26.256
G01 F600 X2.763 Y26.256
G01 F600 X2.763 Y26.205
G01 F600 X2.738 Y26.205
G01 F600 X2.738 Y26.180
G01 F600 X2.712 Y26.180
G01 F600 X2.712 Y26.129
G01 F600 X2.687 Y26.129
G01 F600 X2.687 Y26.078
G01 F600 X2.662 Y26.078
G01 F600 X2.662 Y25.875
G01 F600 X2.687 Y25.875
G01 F600 X2.687 Y25.799
G01 F600 X2.712 Y25.799
G01 F600 X2.712 Y25.773
G01 F600 X2.738 Y25.773
G01 F600 X2.738 Y25.748
G01 F600 X3.043 Y25.748
G01 F600 X3.043 Y25.773
G01 F600 X3.068 Y25.773
G01 F600 X3.068 Y25.799
G01 F600 X3.094 Y25.799
G01 F600 X3.094 Y25.824
G01 F600 X3.119 Y25.824
G01 F600 X3.119 Y25.875
G01 F600 X3.145 Y25.875
G01 F600 X3.145 Y25.926
G01 F600 X3.170 Y25.926
G01 F600 X3.170 Y25.976
G01 F600 X3.195 Y25.976
G01 F600 X3.195 Y26.002
G01 F600 X3.221 Y26.002
G01 F600 X3.221 Y26.053
G01 F600 X3.246 Y26.053
G01 F600 X3.246 Y26.103
G01 F600 X3.272 Y26.103
G01 F600 X3.272 Y26.129
G01 F600 X3.297 Y26.129
G01 F600 X3.297 Y26.180
G01 F600 X3.322 Y26.180
G01 F600 X3.322 Y26.230
G01 F600 X3.348 Y26.230
G01 F600 X3.348 Y26.281
G01 F600 X3.373 Y26.281
G01 F600 X3.373 Y26.307
G01 F600 X3.399 Y26.307
G01 F600 X3.399 Y26.357
G01 F600 X3.424 Y26.357
G01 F600 X3.424 Y26.408
G01 F600 X3.449 Y26.408
G01 F600 X3.449 Y26.434
G01 F600 X3.475 Y26.434
G01 F600 X3.475 Y26.484
G01 F600 X3.500 Y26.484
G01 F600 X3.500 Y26.535
G01 F600 X3.526 Y26.535
G01 F600 X3.526 Y26.586
G01 F600 X3.551 Y26.586
G01 F600 X3.551 Y26.611
G01 F600 X3.576 Y26.611
G01 F600 X3.576 Y26.662
G01 F600 X3.602 Y26.662
G01 F600 X3.602 Y26.713
G01 F600 X3.627 Y26.713
G01 F600 X3.627 Y26.738
G01 F600 X3.653 Y26.738
G01 F600 X3.653 Y26.789
G01 F600 X3.678 Y26.789
G01 F600 X3.678 Y26.840
G01 F600 X3.703 Y26.840
G01 F600 X3.703 Y26.865
G01 F600 X3.729 Y26.865
G01 F600 X3.729 Y26.916
G01 F600 X3.754 Y26.916
G01 F600 X3.754 Y26.967
G01 F600 X3.780 Y26.967
G01 F600 X3.780 Y27.018
G01 F600 X3.805 Y27.018
G01 F600 X3.805 Y27.043
G01 F600 X3.830 Y27.043
G01 F600 X3.830 Y27.094
G01 F600 X3.856 Y27.094
G01 F600 X3.856 Y27.145
G01 F600 X3.881 Y27.145
G01 F600 X3.881 Y27.170
G01 F600 X3.907 Y27.170
G01 F600 X3.907 Y27.221
G01 F600 X3.932 Y27.221
G01 F600 X3.932 Y27.272
G01 F600 X3.957 Y27.272
G01 F600 X3.957 Y27.323
G01 F600 X3.983 Y27.323
G01 F600 X3.983 Y27.348
G01 F600 X4.008 Y27.348
G01 F600 X4.008 Y27.399
G01 F600 X4.034 Y27.399
G01 F600 X4.034 Y27.450
G01 F600 X4.059 Y27.450
G01 F600 X4.059 Y27.475
G01 F600 X4.084 Y27.475
G01 F600 X4.084 Y27.526
G01 F600 X4.110 Y27.526
G01 F600 X4.110 Y27.577
G01 F600 X4.135 Y27.577
G01 F600 X4.135 Y27.627
G01 F600 X4.160 Y27.627
G01 F600 X4.160 Y27.653
G01 F600 X4.186 Y27.653
G01 F600 X4.186 Y27.704
G01 F600 X4.211 Y27.704
G01 F600 X4.211 Y27.754
G01 F600 X4.237 Y27.754
G01 F600 X4.237 Y28.059
G01 F600 X4.211 Y28.059
G01 F600 X4.211 Y28.085
G01 F600 X4.186 Y28.085
G01 F600 X4.186 Y28.110
G01 F600 X4.135 Y28.110
G01 F600 X4.135 Y28.136
G01 F600 X3.932 Y28.136
G00 F3000 Z3.000
G00 F3000 X5.557 Y28.136
G00 F1500 Z0
G01 F600 Z-0.200
G01 F600 X5.557 Y28.110
G01 F600 X5.430 Y28.110
G01 F600 X5.430 Y28.085
G01 F600 X5.380 Y28.085
G01 F600 X5.380 Y28.059
G01 F600 X5.354 Y28.059
G01 F600 X5.354 Y28.034
G01 F600 X5.303 Y28.034
G01 F600 X5.303 Y28.009
G01 F600 X5.278 Y28.009
G01 F600 X5.278 Y27.983
G01 F600 X5.253 Y27.983
G01 F600 X5.253 Y27.932
G01 F600 X5.227 Y27.932
G01 F600 X5.227 Y27.907
G01 F600 X5.202 Y27.907
G01 F600 X5.202 Y27.882
G01 F600 X5.176 Y27.882
G01 F600 X5.176 Y27.856
G01 F600 X5.151 Y27.856
G01 F600 X5.151 Y27.805
G01 F600 X5.126 Y27.805
G01 F600 X5.126 Y27.780
G01 F600 X5.100 Y27.780
G01 F600 X5.100 Y27.755
G01 F600 X5.075 Y27.755
G01 F600 X5.075 Y27.704
G01 F600 X5.049 Y27.704
G01 F600 X5.049 Y27.678
G01 F600 X5.024 Y27.678
G01 F600 X5.024 Y27.653
G01 F600 X4.998 Y27.653
G01 F600 X4.998 Y27.628
G01 F600 X4.973 Y27.628
G01 F600 X4.973 Y27.577
G01 F600 X4.948 Y27.577
G01 F600 X4.948 Y27.551
G01 F600 X4.922 Y27.551
G01 F600 X4.922 Y27.526
G01 F600 X4.897 Y27.526
G01 F600 X4.897 Y27.475
G01 F600 X4.872 Y27.475
G01 F600 X4.872 Y27.450
G01 F600 X4.846 Y27.450
G01 F600 X4.846 Y27.424
G01 F600 X4.821 Y27.424
G01 F600 X4.821 Y27.374
G01 F600 X4.795 Y27.374
G01 F600 X4.795 Y27.323
G01 F600 X4.770 Y27.323
G01 F600 X4.770 Y27.247
G01 F600 X4.745 Y27.247
G01 F600 X4.745 Y26.053
G01 F600 X4.770 Y26.053
G01 F600 X4.770 Y25.976
G01 F600 X4.795 Y25.976
G01 F600 X4.795 Y25.951
G01 F600 X4.821 Y25.951
G01 F600 X4.821 Y25.900
G01 F600 X4.846 Y25.900
G01 F600 X4.846 Y25.875
G01 F600 X4.872 Y25.875
G01 F600 X4.872 Y25.849
G01 F600 X4.897 Y25.849
G01 F600 X4.897 Y25.824
G01 F600 X4.922 Y25.824
G01 F600 X4.922 Y25.799
G01 F600 X4.973 Y25.799
G01 F600 X4.973 Y25.773
G01 F600 X5.049 Y25.773
G01 F600 X5.049 Y25.748
G01 F600 X6.015 Y25.748
G01 F600 X6.015 Y25.773
G01 F600 X6.066 Y25.773
G01 F600 X6.066 Y25.799
G01 F600 X6.116 Y25.799
G01 F600 X6.116 Y25.824
G01 F600 X6.142 Y25.824
G01 F600 X6.142 Y25.849
G01 F600 X6.192 Y25.849
G01 F600 X6.192 Y25.875
G01 F600 X6.218 Y25.875
G01 F600 X6.218 Y25.926
G01 F600 X6.243 Y25.926
G01 F600 X6.243 Y25.951
G01 F600 X6.269 Y25.951
G01 F600 X6.269 Y26.002
G01 F600 X6.294 Y26.002
G01 F600 X6.294 Y26.078
G01 F600 X6.320 Y26.078
G01 F600 X6.320 Y26.916
G01 F600 X5.557 Y26.916
G01 F600 X5.557 Y26.891
G01 F600 X5.506 Y26.891
G01 F600 X5.506 Y26.866
G01 F600 X5.481 Y26.866
G01 F600 X5.481 Y26.840
G01 F600 X5.456 Y26.840
G01 F600 X5.456 Y26.535
G01 F600 X5.481 Y26.535
G01 F600 X5.481 Y26.510
G01 F600 X5.506 Y26.510
G01 F600 X5.506 Y26.484
G01 F600 X5.583 Y26.484
G01 F600 X5.583 Y26.459
G01 F600 X5.888 Y26.459
G01 F600 X5.888 Y26.307
G01 F600 X5.862 Y26.307
G01 F600 X5.862 Y26.256
G01 F600 X5.837 Y26.256
G01 F600 X5.837 Y26.205
G01 F600 X5.786 Y26.205
G01 F600 X5.786 Y26.180
G01 F600 X5.278 Y26.180
G01 F600 X5.278 Y26.205
G01 F600 X5.227 Y26.205
G01 F600 X5.227 Y26.231
G01 F600 X5.202 Y26.231
G01 F600 X5.202 Y26.281
G01 F600 X5.176 Y26.281
G01 F600 X5.176 Y27.018
G01 F600 X5.202 Y27.018
G01 F600 X5.202 Y27.094
G01 F600 X5.227 Y27.094
G01 F600 X5.227 Y27.119
G01 F600 X5.253 Y27.119
G01 F600 X5.253 Y27.145
G01 F600 X5.278 Y27.145
G01 F600 X5.278 Y27.196
G01 F600 X5.304 Y27.196
G01 F600 X5.304 Y27.221
G01 F600 X5.329 Y27.221
G01 F600 X5.329 Y27.246
G01 F600 X5.354 Y27.246
G01 F600 X5.354 Y27.297
G01 F600 X5.380 Y27.297
G01 F600 X5.380 Y27.323
G01 F600 X5.405 Y27.323
G01 F600 X5.405 Y27.348
G01 F600 X5.431 Y27.348
G01 F600 X5.431 Y27.373
G01 F600 X5.456 Y27.373
G01 F600 X5.456 Y27.424
G01 F600 X5.481 Y27.424
G01 F600 X5.481 Y27.450
G01 F600 X5.507 Y27.450
G01 F600 X5.507 Y27.475
G01 F600 X5.532 Y27.475
G01 F600 X5.532 Y27.526
G01 F600 X5.558 Y27.526
G01 F600 X5.558 Y27.551
G01 F600 X5.583 Y27.551
G01 F600 X5.583 Y27.577
G01 F600 X5.608 Y27.577
G01 F600 X5.608 Y27.602
G01 F600 X5.634 Y27.602
G01 F600 X5.634 Y27.653
G01 F600 X5.684 Y27.653
G01 F600 X5.684 Y27.678
G01 F600 X6.218 Y27.678
G01 F600 X6.218 Y27.704
G01 F600 X6.269 Y27.704
G01 F600 X6.269 Y27.729
G01 F600 X6.294 Y27.729
G01 F600 X6.294 Y27.780
G01 F600 X6.320 Y27.780
G01 F600 X6.320 Y28.034
G01 F600 X6.294 Y28.034
G01 F600 X6.294 Y28.085
G01 F600 X6.243 Y28.085
G01 F600 X6.243 Y28.110
G01 F600 X6.192 Y28.110
G01 F600 X6.192 Y28.136
G01 F600 X5.557 Y28.136
G00 F3000 Z3.000
G00 F3000 X-11.715 Y28.136
G00 F1500 Z0
G01 F600 Z-0.200
G01 F600 X-11.715 Y28.110
G01 F600 X-11.766 Y28.110
G01 F600 X-11.766 Y28.085
G01 F600 X-11.791 Y28.085
G01 F600 X-11.791 Y28.059
G01 F600 X-11.816 Y28.059
G01 F600 X-11.816 Y25.824
G01 F600 X-11.791 Y25.824
G01 F600 X-11.791 Y25.773
G01 F600 X-11.740 Y25.773
G01 F600 X-11.740 Y25.748
G01 F600 X-11.460 Y25.748
G01 F600 X-11.460 Y25.773
G01 F600 X-11.435 Y25.773
G01 F600 X-11.435 Y25.799
G01 F600 X-11.410 Y25.799
G01 F600 X-11.410 Y25.824
G01 F600 X-11.384 Y25.824
G01 F600 X-11.384 Y26.789
G01 F600 X-11.334 Y26.789
G01 F600 X-11.334 Y26.815
G01 F600 X-11.308 Y26.815
G01 F600 X-11.308 Y26.840
G01 F600 X-11.257 Y26.840
G01 F600 X-11.257 Y26.865
G01 F600 X-11.232 Y26.865
G01 F600 X-11.232 Y26.891
G01 F600 X-11.181 Y26.891
G01 F600 X-11.181 Y26.916
G01 F600 X-11.156 Y26.916
G01 F600 X-11.156 Y26.942
G01 F600 X-11.105 Y26.942
G01 F600 X-11.105 Y26.967
G01 F600 X-11.054 Y26.967
G01 F600 X-11.054 Y26.992
G01 F600 X-11.029 Y26.992
G01 F600 X-11.029 Y27.018
G01 F600 X-10.978 Y27.018
G01 F600 X-10.978 Y27.043
G01 F600 X-10.953 Y27.043
G01 F600 X-10.953 Y27.069
G01 F600 X-10.800 Y27.069
G01 F600 X-10.800 Y27.043
G01 F600 X-10.775 Y27.043
G01 F600 X-10.775 Y27.018
G01 F600 X-10.750 Y27.018
G01 F600 X-10.750 Y26.992
G01 F600 X-10.724 Y26.992
G01 F600 X-10.724 Y26.561
G01 F600 X-10.699 Y26.561
G01 F600 X-10.699 Y25.849
G01 F600 X-10.673 Y25.849
G01 F600 X-10.673 Y25.799
G01 F600 X-10.648 Y25.799
G01 F600 X-10.648 Y25.773
G01 F600 X-10.623 Y25.773
G01 F600 X-10.623 Y25.748
G01 F600 X-10.318 Y25.748
G01 F600 X-10.318 Y25.773
G01 F600 X-10.292 Y25.773
G01 F600 X-10.292 Y25.799
G01 F600 X-10.267 Y25.799
G01 F600 X-10.267 Y25.849
G01 F600 X-10.241 Y25.849
G01 F600 X-10.241 Y26.205
G01 F600 X-10.267 Y26.205
G01 F600 X-10.267 Y26.993
G01 F600 X-10.292 Y26.993
G01 F600 X-10.292 Y27.221
G01 F600 X-10.318 Y27.221
G01 F600 X-10.318 Y27.272
G01 F600 X-10.343 Y27.272
G01 F600 X-10.343 Y27.323
G01 F600 X-10.368 Y27.323
G01 F600 X-10.368 Y27.348
G01 F600 X-10.394 Y27.348
G01 F600 X-10.394 Y27.399
G01 F600 X-10.444 Y27.399
G01 F600 X-10.444 Y27.424
G01 F600 X-10.470 Y27.424
G01 F600 X-10.470 Y27.450
G01 F600 X-10.495 Y27.450
G01 F600 X-10.495 Y27.475
G01 F600 X-10.546 Y27.475
G01 F600 X-10.546 Y27.501
G01 F600 X-10.648 Y27.501
G01 F600 X-10.648 Y27.526
G01 F600 X-11.080 Y27.526
G01 F600 X-11.080 Y27.501
G01 F600 X-11.181 Y27.501
G01 F600 X-11.181 Y27.475
G01 F600 X-11.232 Y27.475
G01 F600 X-11.232 Y27.450
G01 F600 X-11.283 Y27.450
G01 F600 X-11.283 Y27.424
G01 F600 X-11.308 Y27.424
G01 F600 X-11.308 Y27.399
G01 F600 X-11.359 Y27.399
G01 F600 X-11.359 Y27.374
G01 F600 X-11.384 Y27.374
G01 F600 X-11.384 Y28.034
G01 F600 X-11.410 Y28.034
G01 F600 X-11.410 Y28.085
G01 F600 X-11.460 Y28.085
G01 F600 X-11.460 Y28.110
G01 F600 X-11.511 Y28.110
G01 F600 X-11.511 Y28.136
G01 F600 X-11.715 Y28.136
G00 F3000 Z3.000
G00 F3000 X-7.575 Y28.136
G00 F1500 Z0
G01 F600 Z-0.200
G01 F600 X-7.575 Y28.110
G01 F600 X-7.625 Y28.110
G01 F600 X-7.625 Y28.085
G01 F600 X-7.651 Y28.085
G01 F600 X-7.651 Y28.059
G01 F600 X-7.676 Y28.059
G01 F600 X-7.676 Y25.824
G01 F600 X-7.651 Y25.824
G01 F600 X-7.651 Y25.773
G01 F600 X-7.600 Y25.773
G01 F600 X-7.600 Y25.748
G01 F600 X-7.320 Y25.748
G01 F600 X-7.320 Y25.773
G01 F600 X-7.295 Y25.773
G01 F600 X-7.295 Y25.799
G01 F600 X-7.270 Y25.799
G01 F600 X-7.270 Y25.824
G01 F600 X-7.244 Y25.824
G01 F600 X-7.244 Y25.799
G01 F600 X-7.194 Y25.799
G01 F600 X-7.194 Y25.773
G01 F600 X-7.143 Y25.773
G01 F600 X-7.143 Y25.748
G01 F600 X-6.508 Y25.748
G01 F600 X-6.508 Y25.773
G01 F600 X-6.457 Y25.773
G01 F600 X-6.457 Y25.799
G01 F600 X-6.406 Y25.799
G01 F600 X-6.406 Y25.824
G01 F600 X-6.381 Y25.824
G01 F600 X-6.381 Y25.849
G01 F600 X-6.330 Y25.849
G01 F600 X-6.330 Y25.875
G01 F600 X-6.304 Y25.875
G01 F600 X-6.304 Y25.900
G01 F600 X-6.279 Y25.900
G01 F600 X-6.279 Y25.926
G01 F600 X-6.254 Y25.926
G01 F600 X-6.254 Y25.951
G01 F600 X-6.228 Y25.951
G01 F600 X-6.228 Y25.976
G01 F600 X-6.203 Y25.976
G01 F600 X-6.203 Y26.002
G01 F600 X-6.177 Y26.002
G01 F600 X-6.177 Y26.053
G01 F600 X-6.152 Y26.053
G01 F600 X-6.152 Y26.103
G01 F600 X-6.127 Y26.103
G01 F600 X-6.127 Y26.154
G01 F600 X-6.101 Y26.154
G01 F600 X-6.101 Y27.094
G01 F600 X-6.127 Y27.094
G01 F600 X-6.127 Y27.170
G01 F600 X-6.152 Y27.170
G01 F600 X-6.152 Y27.221
G01 F600 X-6.177 Y27.221
G01 F600 X-6.177 Y27.247
G01 F600 X-6.203 Y27.247
G01 F600 X-6.203 Y27.272
G01 F600 X-6.228 Y27.272
G01 F600 X-6.228 Y27.323
G01 F600 X-6.279 Y27.323
G01 F600 X-6.279 Y27.348
G01 F600 X-6.304 Y27.348
G01 F600 X-6.304 Y27.374
G01 F600 X-6.330 Y27.374
G01 F600 X-6.330 Y27.399
G01 F600 X-6.355 Y27.399
G01 F600 X-6.355 Y27.424
G01 F600 X-6.381 Y27.424
G01 F600 X-6.381 Y27.450
G01 F600 X-6.431 Y27.450
G01 F600 X-6.431 Y27.475
G01 F600 X-6.482 Y27.475
G01 F600 X-6.482 Y27.501
G01 F600 X-6.558 Y27.501
G01 F600 X-6.558 Y27.526
G01 F600 X-7.067 Y27.526
G01 F600 X-7.067 Y27.501
G01 F600 X-7.168 Y27.501
G01 F600 X-7.168 Y27.475
G01 F600 X-7.219 Y27.475
G01 F600 X-7.219 Y27.450
G01 F600 X-7.244 Y27.450
G01 F600 X-7.244 Y28.034
G01 F600 X-7.270 Y28.034
G01 F600 X-7.270 Y28.085
G01 F600 X-7.295 Y28.085
G01 F600 X-7.295 Y28.110
G01 F600 X-7.371 Y28.110
G01 F600 X-7.371 Y28.136
G01 F600 X-7.575 Y28.136
G00 F3000 Z3.000
G00 F3000 X33.751 Y28.136
G00 F1500 Z0
G01 F600 Z-0.200
G01 F600 X33.751 Y28.110
G01 F600 X33.726 Y28.110
G01 F600 X33.726 Y27.551
G01 F600 X33.751 Y27.551
G01 F600 X33.751 Y27.500
G01 F600 X33.777 Y27.500
G01 F600 X33.777 Y27.475
G01 F600 X33.802 Y27.475
G01 F600 X33.802 Y27.450
G01 F600 X34.107 Y27.450
G01 F600 X34.107 Y27.475
G01 F600 X34.133 Y27.475
G01 F600 X34.133 Y27.500
G01 F600 X34.158 Y27.500
G01 F600 X34.158 Y27.551
G01 F600 X34.183 Y27.551
G01 F600 X34.183 Y27.678
G01 F600 X34.310 Y27.678
G01 F600 X34.310 Y25.799
G01 F600 X34.336 Y25.799
G01 F600 X34.336 Y25.773
G01 F600 X34.361 Y25.773
G01 F600 X34.361 Y25.748
G01 F600 X34.666 Y25.748
G01 F600 X34.666 Y25.773
G01 F600 X34.691 Y25.773
G01 F600 X34.691 Y25.799
G01 F600 X34.717 Y25.799
G01 F600 X34.717 Y25.824
G01 F600 X34.742 Y25.824
G01 F600 X34.742 Y27.678
G01 F600 X34.869 Y27.678
G01 F600 X34.869 Y27.526
G01 F600 X34.894 Y27.526
G01 F600 X34.894 Y27.500
G01 F600 X34.920 Y27.500
G01 F600 X34.920 Y27.475
G01 F600 X34.945 Y27.475
G01 F600 X34.945 Y27.450
G01 F600 X35.225 Y27.450
G01 F600 X35.225 Y27.475
G01 F600 X35.276 Y27.475
G01 F600 X35.276 Y27.526
G01 F600 X35.301 Y27.526
G01 F600 X35.301 Y28.136
G01 F600 X33.751 Y28.136
G00 F3000 Z3.000
G00 F3000 X29.611 Y28.136
G00 F1500 Z0
G01 F600 Z-0.200
G01 F600 X29.611 Y28.110
G01 F600 X29.586 Y28.110
G01 F600 X29.586 Y25.849
G01 F600 X29.611 Y25.849
G01 F600 X29.611 Y25.799
G01 F600 X29.637 Y25.799
G01 F600 X29.637 Y25.773
G01 F600 X29.662 Y25.773
G01 F600 X29.662 Y25.748
G01 F600 X29.967 Y25.748
G01 F600 X29.967 Y25.773
G01 F600 X29.992 Y25.773
G01 F600 X29.992 Y25.799
G01 F600 X30.018 Y25.799
G01 F600 X30.018 Y25.875
G01 F600 X30.043 Y25.875
G01 F600 X30.043 Y27.043
G01 F600 X30.068 Y27.043
G01 F600 X30.068 Y26.992
G01 F600 X30.094 Y26.992
G01 F600 X30.094 Y26.942
G01 F600 X30.119 Y26.942
G01 F600 X30.119 Y26.891
G01 F600 X30.145 Y26.891
G01 F600 X30.145 Y26.815
G01 F600 X30.170 Y26.815
G01 F600 X30.170 Y26.764
G01 F600 X30.195 Y26.764
G01 F600 X30.195 Y26.713
G01 F600 X30.221 Y26.713
G01 F600 X30.221 Y26.662
G01 F600 X30.246 Y26.662
G01 F600 X30.246 Y26.586
G01 F600 X30.272 Y26.586
G01 F600 X30.272 Y26.535
G01 F600 X30.297 Y26.535
G01 F600 X30.297 Y26.484
G01 F600 X30.322 Y26.484
G01 F600 X30.322 Y26.408
G01 F600 X30.348 Y26.408
G01 F600 X30.348 Y26.357
G01 F600 X30.373 Y26.357
G01 F600 X30.373 Y26.307
G01 F600 X30.399 Y26.307
G01 F600 X30.399 Y26.256
G01 F600 X30.424 Y26.256
G01 F600 X30.424 Y26.180
G01 F600 X30.449 Y26.180
G01 F600 X30.449 Y26.129
G01 F600 X30.475 Y26.129
G01 F600 X30.475 Y26.078
G01 F600 X30.500 Y26.078
G01 F600 X30.500 Y26.002
G01 F600 X30.526 Y26.002
G01 F600 X30.526 Y25.951
G01 F600 X30.551 Y25.951
G01 F600 X30.551 Y25.900
G01 F600 X30.576 Y25.900
G01 F600 X30.576 Y25.849
G01 F600 X30.602 Y25.849
G01 F600 X30.602 Y25.773
G01 F600 X30.627 Y25.773
G01 F600 X30.627 Y25.748
G01 F600 X31.161 Y25.748
G01 F600 X31.161 Y28.059
G01 F600 X31.135 Y28.059
G01 F600 X31.135 Y28.085
G01 F600 X31.110 Y28.085
G01 F600 X31.110 Y28.110
G01 F600 X31.059 Y28.110
G01 F600 X31.059 Y28.136
G01 F600 X30.856 Y28.136
G01 F600 X30.856 Y28.110
G01 F600 X30.780 Y28.110
G01 F600 X30.780 Y28.085
G01 F600 X30.754 Y28.085
G01 F600 X30.754 Y28.034
G01 F600 X30.729 Y28.034
G01 F600 X30.729 Y26.764
G01 F600 X30.704 Y26.764
G01 F600 X30.704 Y26.840
G01 F600 X30.678 Y26.840
G01 F600 X30.678 Y26.891
G01 F600 X30.653 Y26.891
G01 F600 X30.653 Y26.942
G01 F600 X30.627 Y26.942
G01 F600 X30.627 Y27.018
G01 F600 X30.602 Y27.018
G01 F600 X30.602 Y27.069
G01 F600 X30.577 Y27.069
G01 F600 X30.577 Y27.120
G01 F600 X30.551 Y27.120
G01 F600 X30.551 Y27.170
G01 F600 X30.526 Y27.170
G01 F600 X30.526 Y27.247
G01 F600 X30.500 Y27.247
G01 F600 X30.500 Y27.297
G01 F600 X30.475 Y27.297
G01 F600 X30.475 Y27.348
G01 F600 X30.450 Y27.348
G01 F600 X30.450 Y27.399
G01 F600 X30.424 Y27.399
G01 F600 X30.424 Y27.475
G01 F600 X30.399 Y27.475
G01 F600 X30.399 Y27.526
G01 F600 X30.373 Y27.526
G01 F600 X30.373 Y27.577
G01 F600 X30.348 Y27.577
G01 F600 X30.348 Y27.653
G01 F600 X30.323 Y27.653
G01 F600 X30.323 Y27.704
G01 F600 X30.297 Y27.704
G01 F600 X30.297 Y27.755
G01 F600 X30.272 Y27.755
G01 F600 X30.272 Y27.805
G01 F600 X30.246 Y27.805
G01 F600 X30.246 Y27.882
G01 F600 X30.221 Y27.882
G01 F600 X30.221 Y27.932
G01 F600 X30.196 Y27.932
G01 F600 X30.196 Y27.983
G01 F600 X30.170 Y27.983
G01 F600 X30.170 Y28.059
G01 F600 X30.145 Y28.059
G01 F600 X30.145 Y28.110
G01 F600 X30.119 Y28.110
G01 F600 X30.119 Y28.136
G01 F600 X29.611 Y28.136
G00 F3000 Z3.000
G00 F3000 X31.770 Y28.136
G00 F1500 Z0
G01 F600 Z-0.200
G01 F600 X31.770 Y28.110
G01 F600 X31.719 Y28.110
G01 F600 X31.719 Y28.085
G01 F600 X31.694 Y28.085
G01 F600 X31.694 Y28.059
G01 F600 X31.669 Y28.059
G01 F600 X31.669 Y27.754
G01 F600 X31.694 Y27.754
G01 F600 X31.694 Y27.729
G01 F600 X31.719 Y27.729
G01 F600 X31.719 Y27.704
G01 F600 X31.770 Y27.704
G01 F600 X31.770 Y27.678
G01 F600 X32.227 Y27.678
G01 F600 X32.227 Y26.180
G01 F600 X31.745 Y26.180
G01 F600 X31.745 Y26.154
G01 F600 X31.719 Y26.154
G01 F600 X31.719 Y26.129
G01 F600 X31.694 Y26.129
G01 F600 X31.694 Y26.104
G01 F600 X31.669 Y26.104
G01 F600 X31.669 Y25.824
G01 F600 X31.694 Y25.824
G01 F600 X31.694 Y25.773
G01 F600 X31.745 Y25.773
G01 F600 X31.745 Y25.748
G01 F600 X33.167 Y25.748
G01 F600 X33.167 Y25.773
G01 F600 X33.193 Y25.773
G01 F600 X33.193 Y25.799
G01 F600 X33.218 Y25.799
G01 F600 X33.218 Y25.824
G01 F600 X33.244 Y25.824
G01 F600 X33.244 Y26.078
G01 F600 X33.218 Y26.078
G01 F600 X33.218 Y26.129
G01 F600 X33.193 Y26.129
G01 F600 X33.193 Y26.154
G01 F600 X33.142 Y26.154
G01 F600 X33.142 Y26.180
G01 F600 X32.659 Y26.180
G01 F600 X32.659 Y27.678
G01 F600 X33.142 Y27.678
G01 F600 X33.142 Y27.704
G01 F600 X33.193 Y27.704
G01 F600 X33.193 Y27.729
G01 F600 X33.218 Y27.729
G01 F600 X33.218 Y27.780
G01 F600 X33.244 Y27.780
G01 F600 X33.244 Y28.034
G01 F600 X33.218 Y28.034
G01 F600 X33.218 Y28.059
G01 F600 X33.193 Y28.059
G01 F600 X33.193 Y28.085
G01 F600 X33.167 Y28.085
G01 F600 X33.167 Y28.110
G01 F600 X33.117 Y28.110
G01 F600 X33.117 Y28.136
G01 F600 X31.770 Y28.136
G00 F3000 Z3.000
G00 F3000 X20.492 Y28.136
G00 F1500 Z0
G01 F600 Z-0.200
G01 F600 X20.492 Y28.110
G01 F600 X20.442 Y28.110
G01 F600 X20.442 Y28.085
G01 F600 X20.416 Y28.085
G01 F600 X20.416 Y28.059
G01 F600 X20.391 Y28.059
G01 F600 X20.391 Y28.034
G01 F600 X20.366 Y28.034
G01 F600 X20.366 Y27.983
G01 F600 X20.340 Y27.983
G01 F600 X20.340 Y27.958
G01 F600 X20.315 Y27.958
G01 F600 X20.315 Y27.907
G01 F600 X20.289 Y27.907
G01 F600 X20.289 Y27.856
G01 F600 X20.264 Y27.856
G01 F600 X20.264 Y27.805
G01 F600 X20.239 Y27.805
G01 F600 X20.239 Y27.780
G01 F600 X20.213 Y27.780
G01 F600 X20.213 Y27.729
G01 F600 X20.188 Y27.729
G01 F600 X20.188 Y27.678
G01 F600 X20.162 Y27.678
G01 F600 X20.162 Y27.653
G01 F600 X20.137 Y27.653
G01 F600 X20.137 Y27.602
G01 F600 X20.111 Y27.602
G01 F600 X20.111 Y27.551
G01 F600 X20.086 Y27.551
G01 F600 X20.086 Y27.501
G01 F600 X20.061 Y27.501
G01 F600 X20.061 Y27.475
G01 F600 X20.035 Y27.475
G01 F600 X20.035 Y27.424
G01 F600 X20.010 Y27.424
G01 F600 X20.010 Y27.374
G01 F600 X19.985 Y27.374
G01 F600 X19.985 Y27.348
G01 F600 X19.959 Y27.348
G01 F600 X19.959 Y27.297
G01 F600 X19.934 Y27.297
G01 F600 X19.934 Y27.247
G01 F600 X19.908 Y27.247
G01 F600 X19.908 Y27.196
G01 F600 X19.883 Y27.196
G01 F600 X19.883 Y27.170
G01 F600 X19.858 Y27.170
G01 F600 X19.858 Y27.120
G01 F600 X19.832 Y27.120
G01 F600 X19.832 Y27.069
G01 F600 X19.807 Y27.069
G01 F600 X19.807 Y27.043
G01 F600 X19.781 Y27.043
G01 F600 X19.781 Y26.993
G01 F600 X19.756 Y26.993
G01 F600 X19.756 Y26.942
G01 F600 X19.730 Y26.942
G01 F600 X19.730 Y26.891
G01 F600 X19.705 Y26.891
G01 F600 X19.705 Y26.866
G01 F600 X19.680 Y26.866
G01 F600 X19.680 Y26.815
G01 F600 X19.654 Y26.815
G01 F600 X19.654 Y26.764
G01 F600 X19.629 Y26.764
G01 F600 X19.629 Y26.739
G01 F600 X19.604 Y26.739
G01 F600 X19.604 Y26.688
G01 F600 X19.578 Y26.688
G01 F600 X19.578 Y26.637
G01 F600 X19.553 Y26.637
G01 F600 X19.553 Y26.612
G01 F600 X19.527 Y26.612
G01 F600 X19.527 Y26.561
G01 F600 X19.502 Y26.561
G01 F600 X19.502 Y26.510
G01 F600 X19.477 Y26.510
G01 F600 X19.477 Y26.459
G01 F600 X19.451 Y26.459
G01 F600 X19.451 Y26.434
G01 F600 X19.426 Y26.434
G01 F600 X19.426 Y26.383
G01 F600 X19.400 Y26.383
G01 F600 X19.400 Y26.332
G01 F600 X19.375 Y26.332
G01 F600 X19.375 Y26.307
G01 F600 X19.350 Y26.307
G01 F600 X19.350 Y26.256
G01 F600 X19.324 Y26.256
G01 F600 X19.324 Y26.205
G01 F600 X19.299 Y26.205
G01 F600 X19.299 Y26.154
G01 F600 X19.273 Y26.154
G01 F600 X19.273 Y26.129
G01 F600 X19.248 Y26.129
G01 F600 X19.248 Y25.799
G01 F600 X19.273 Y25.799
G01 F600 X19.273 Y25.773
G01 F600 X19.299 Y25.773
G01 F600 X19.299 Y25.748
G01 F600 X19.604 Y25.748
G01 F600 X19.604 Y25.773
G01 F600 X19.629 Y25.773
G01 F600 X19.629 Y25.799
G01 F600 X19.655 Y25.799
G01 F600 X19.655 Y25.824
G01 F600 X19.680 Y25.824
G01 F600 X19.680 Y25.875
G01 F600 X19.705 Y25.875
G01 F600 X19.705 Y25.900
G01 F600 X19.731 Y25.900
G01 F600 X19.731 Y25.951
G01 F600 X19.756 Y25.951
G01 F600 X19.756 Y26.002
G01 F600 X19.782 Y26.002
G01 F600 X19.782 Y26.053
G01 F600 X19.807 Y26.053
G01 F600 X19.807 Y26.078
G01 F600 X19.832 Y26.078
G01 F600 X19.832 Y26.129
G01 F600 X19.858 Y26.129
G01 F600 X19.858 Y26.180
G01 F600 X19.883 Y26.180
G01 F600 X19.883 Y26.205
G01 F600 X19.909 Y26.205
G01 F600 X19.909 Y26.256
G01 F600 X19.934 Y26.256
G01 F600 X19.934 Y26.307
G01 F600 X19.959 Y26.307
G01 F600 X19.959 Y26.357
G01 F600 X19.985 Y26.357
G01 F600 X19.985 Y26.383
G01 F600 X20.010 Y26.383
G01 F600 X20.010 Y26.434
G01 F600 X20.036 Y26.434
G01 F600 X20.036 Y26.484
G01 F600 X20.061 Y26.484
G01 F600 X20.061 Y26.510
G01 F600 X20.086 Y26.510
G01 F600 X20.086 Y26.561
G01 F600 X20.112 Y26.561
G01 F600 X20.112 Y26.611
G01 F600 X20.137 Y26.611
G01 F600 X20.137 Y26.662
G01 F600 X20.163 Y26.662
G01 F600 X20.163 Y26.688
G01 F600 X20.188 Y26.688
G01 F600 X20.188 Y26.738
G01 F600 X20.213 Y26.738
G01 F600 X20.213 Y26.789
G01 F600 X20.239 Y26.789
G01 F600 X20.239 Y26.815
G01 F600 X20.264 Y26.815
G01 F600 X20.264 Y26.865
G01 F600 X20.290 Y26.865
G01 F600 X20.290 Y26.916
G01 F600 X20.315 Y26.916
G01 F600 X20.315 Y26.967
G01 F600 X20.340 Y26.967
G01 F600 X20.340 Y26.992
G01 F600 X20.366 Y26.992
G01 F600 X20.366 Y27.043
G01 F600 X20.391 Y27.043
G01 F600 X20.391 Y27.094
G01 F600 X20.416 Y27.094
G01 F600 X20.416 Y27.119
G01 F600 X20.442 Y27.119
G01 F600 X20.442 Y27.170
G01 F600 X20.467 Y27.170
G01 F600 X20.467 Y27.221
G01 F600 X20.493 Y27.221
G01 F600 X20.493 Y27.272
G01 F600 X20.518 Y27.272
G01 F600 X20.518 Y27.297
G01 F600 X20.544 Y27.297
G01 F600 X20.544 Y27.348
G01 F600 X20.569 Y27.348
G01 F600 X20.569 Y27.399
G01 F600 X20.594 Y27.399
G01 F600 X20.594 Y27.424
G01 F600 X20.620 Y27.424
G01 F600 X20.620 Y27.475
G01 F600 X20.645 Y27.475
G01 F600 X20.645 Y27.526
G01 F600 X20.671 Y27.526
G01 F600 X20.671 Y27.551
G01 F600 X20.696 Y27.551
G01 F600 X20.696 Y27.602
G01 F600 X20.721 Y27.602
G01 F600 X20.721 Y27.653
G01 F600 X20.747 Y27.653
G01 F600 X20.747 Y27.704
G01 F600 X20.772 Y27.704
G01 F600 X20.772 Y27.729
G01 F600 X20.797 Y27.729
G01 F600 X20.797 Y27.805
G01 F600 X20.823 Y27.805
G01 F600 X20.823 Y28.009
G01 F600 X20.797 Y28.009
G01 F600 X20.797 Y28.059
G01 F600 X20.772 Y28.059
G01 F600 X20.772 Y28.085
G01 F600 X20.747 Y28.085
G01 F600 X20.747 Y28.110
G01 F600 X20.696 Y28.110
G01 F600 X20.696 Y28.136
G01 F600 X20.492 Y28.136
G00 F3000 Z3.000
G00 F3000 X21.305 Y28.136
G00 F1500 Z0
G01 F600 Z-0.200
G01 F600 X21.305 Y25.748
G01 F600 X22.449 Y25.748
G01 F600 X22.449 Y25.773
G01 F600 X22.525 Y25.773
G01 F600 X22.525 Y25.799
G01 F600 X22.576 Y25.799
G01 F600 X22.576 Y25.824
G01 F600 X22.626 Y25.824
G01 F600 X22.626 Y25.849
G01 F600 X22.652 Y25.849
G01 F600 X22.652 Y25.875
G01 F600 X22.677 Y25.875
G01 F600 X22.677 Y25.900
G01 F600 X22.703 Y25.900
G01 F600 X22.703 Y25.926
G01 F600 X22.728 Y25.926
G01 F600 X22.728 Y25.951
G01 F600 X22.753 Y25.951
G01 F600 X22.753 Y25.976
G01 F600 X22.779 Y25.976
G01 F600 X22.779 Y26.002
G01 F600 X22.804 Y26.002
G01 F600 X22.804 Y26.053
G01 F600 X22.829 Y26.053
G01 F600 X22.829 Y26.103
G01 F600 X22.855 Y26.103
G01 F600 X22.855 Y26.180
G01 F600 X22.880 Y26.180
G01 F600 X22.880 Y26.713
G01 F600 X22.855 Y26.713
G01 F600 X22.855 Y26.789
G01 F600 X22.829 Y26.789
G01 F600 X22.829 Y26.840
G01 F600 X22.804 Y26.840
G01 F600 X22.804 Y26.891
G01 F600 X22.779 Y26.891
G01 F600 X22.779 Y26.916
G01 F600 X22.753 Y26.916
G01 F600 X22.753 Y26.942
G01 F600 X22.779 Y26.942
G01 F600 X22.779 Y26.967
G01 F600 X22.804 Y26.967
G01 F600 X22.804 Y27.018
G01 F600 X22.829 Y27.018
G01 F600 X22.829 Y27.069
G01 F600 X22.855 Y27.069
G01 F600 X22.855 Y27.145
G01 F600 X22.880 Y27.145
G01 F600 X22.880 Y27.678
G01 F600 X22.855 Y27.678
G01 F600 X22.855 Y27.755
G01 F600 X22.829 Y27.755
G01 F600 X22.829 Y27.805
G01 F600 X22.804 Y27.805
G01 F600 X22.804 Y27.856
G01 F600 X22.779 Y27.856
G01 F600 X22.779 Y27.882
G01 F600 X22.753 Y27.882
G01 F600 X22.753 Y27.932
G01 F600 X22.728 Y27.932
G01 F600 X22.728 Y27.958
G01 F600 X22.703 Y27.958
G01 F600 X22.703 Y27.983
G01 F600 X22.652 Y27.983
G01 F600 X22.652 Y28.009
G01 F600 X22.626 Y28.009
G01 F600 X22.626 Y28.034
G01 F600 X22.601 Y28.034
G01 F600 X22.601 Y28.059
G01 F600 X22.550 Y28.059
G01 F600 X22.550 Y28.085
G01 F600 X22.474 Y28.085
G01 F600 X22.474 Y28.110
G01 F600 X22.372 Y28.110
G01 F600 X22.372 Y28.136
G01 F600 X21.305 Y28.136
G00 F3000 Z3.000
G00 F3000 X17.292 Y28.136
G00 F1500 Z0
G01 F600 Z-0.200
G01 F600 X17.292 Y28.110
G01 F600 X17.241 Y28.110
G01 F600 X17.241 Y28.085
G01 F600 X17.191 Y28.085
G01 F600 X17.191 Y28.034
G01 F600 X17.165 Y28.034
G01 F600 X17.165 Y25.824
G01 F600 X17.191 Y25.824
G01 F600 X17.191 Y25.799
G01 F600 X17.216 Y25.799
G01 F600 X17.216 Y25.773
G01 F600 X17.241 Y25.773
G01 F600 X17.241 Y25.748
G01 F600 X17.521 Y25.748
G01 F600 X17.521 Y25.773
G01 F600 X17.572 Y25.773
G01 F600 X17.572 Y25.799
G01 F600 X17.597 Y25.799
G01 F600 X17.597 Y26.307
G01 F600 X17.623 Y26.307
G01 F600 X17.623 Y26.332
G01 F600 X17.648 Y26.332
G01 F600 X17.648 Y26.357
G01 F600 X17.673 Y26.357
G01 F600 X17.673 Y26.332
G01 F600 X17.724 Y26.332
G01 F600 X17.724 Y26.307
G01 F600 X17.749 Y26.307
G01 F600 X17.749 Y26.281
G01 F600 X17.775 Y26.281
G01 F600 X17.775 Y26.256
G01 F600 X17.800 Y26.256
G01 F600 X17.800 Y26.230
G01 F600 X17.826 Y26.230
G01 F600 X17.826 Y26.205
G01 F600 X17.851 Y26.205
G01 F600 X17.851 Y26.180
G01 F600 X17.902 Y26.180
G01 F600 X17.902 Y26.154
G01 F600 X17.927 Y26.154
G01 F600 X17.927 Y26.129
G01 F600 X17.953 Y26.129
G01 F600 X17.953 Y26.103
G01 F600 X17.978 Y26.103
G01 F600 X17.978 Y26.078
G01 F600 X18.003 Y26.078
G01 F600 X18.003 Y26.053
G01 F600 X18.029 Y26.053
G01 F600 X18.029 Y26.027
G01 F600 X18.079 Y26.027
G01 F600 X18.079 Y26.002
G01 F600 X18.105 Y26.002
G01 F600 X18.105 Y25.976
G01 F600 X18.130 Y25.976
G01 F600 X18.130 Y25.951
G01 F600 X18.156 Y25.951
G01 F600 X18.156 Y25.926
G01 F600 X18.181 Y25.926
G01 F600 X18.181 Y25.900
G01 F600 X18.207 Y25.900
G01 F600 X18.207 Y25.875
G01 F600 X18.257 Y25.875
G01 F600 X18.257 Y25.849
G01 F600 X18.283 Y25.849
G01 F600 X18.283 Y25.824
G01 F600 X18.308 Y25.824
G01 F600 X18.308 Y25.799
G01 F600 X18.334 Y25.799
G01 F600 X18.334 Y25.773
G01 F600 X18.384 Y25.773
G01 F600 X18.384 Y25.748
G01 F600 X18.664 Y25.748
G01 F600 X18.664 Y25.773
G01 F600 X18.715 Y25.773
G01 F600 X18.715 Y25.824
G01 F600 X18.740 Y25.824
G01 F600 X18.740 Y26.104
G01 F600 X18.715 Y26.104
G01 F600 X18.715 Y26.129
G01 F600 X18.689 Y26.129
G01 F600 X18.689 Y26.154
G01 F600 X18.664 Y26.154
G01 F600 X18.664 Y26.180
G01 F600 X18.639 Y26.180
G01 F600 X18.639 Y26.205
G01 F600 X18.613 Y26.205
G01 F600 X18.613 Y26.231
G01 F600 X18.588 Y26.231
G01 F600 X18.588 Y26.256
G01 F600 X18.562 Y26.256
G01 F600 X18.562 Y26.281
G01 F600 X18.512 Y26.281
G01 F600 X18.512 Y26.307
G01 F600 X18.486 Y26.307
G01 F600 X18.486 Y26.332
G01 F600 X18.461 Y26.332
G01 F600 X18.461 Y26.358
G01 F600 X18.435 Y26.358
G01 F600 X18.435 Y26.383
G01 F600 X18.410 Y26.383
G01 F600 X18.410 Y26.408
G01 F600 X18.359 Y26.408
G01 F600 X18.359 Y26.434
G01 F600 X18.334 Y26.434
G01 F600 X18.334 Y26.459
G01 F600 X18.308 Y26.459
G01 F600 X18.308 Y26.485
G01 F600 X18.283 Y26.485
G01 F600 X18.283 Y26.510
G01 F600 X18.258 Y26.510
G01 F600 X18.258 Y26.535
G01 F600 X18.232 Y26.535
G01 F600 X18.232 Y26.561
G01 F600 X18.181 Y26.561
G01 F600 X18.181 Y26.586
G01 F600 X18.156 Y26.586
G01 F600 X18.156 Y26.612
G01 F600 X18.131 Y26.612
G01 F600 X18.131 Y26.637
G01 F600 X18.105 Y26.637
G01 F600 X18.105 Y26.662
G01 F600 X18.080 Y26.662
G01 F600 X18.080 Y26.713
G01 F600 X18.105 Y26.713
G01 F600 X18.105 Y26.738
G01 F600 X18.131 Y26.738
G01 F600 X18.131 Y26.764
G01 F600 X18.156 Y26.764
G01 F600 X18.156 Y26.789
G01 F600 X18.181 Y26.789
G01 F600 X18.181 Y26.815
G01 F600 X18.207 Y26.815
G01 F600 X18.207 Y26.840
G01 F600 X18.258 Y26.840
G01 F600 X18.258 Y26.865
G01 F600 X18.283 Y26.865
G01 F600 X18.283 Y26.891
G01 F600 X18.308 Y26.891
G01 F600 X18.308 Y26.916
G01 F600 X18.334 Y26.916
G01 F600 X18.334 Y26.942
G01 F600 X18.359 Y26.942
G01 F600 X18.359 Y26.967
G01 F600 X18.384 Y26.967
G01 F600 X18.384 Y26.992
G01 F600 X18.435 Y26.992
G01 F600 X18.435 Y27.018
G01 F600 X18.461 Y27.018
G01 F600 X18.461 Y27.043
G01 F600 X18.486 Y27.043
G01 F600 X18.486 Y27.069
G01 F600 X18.512 Y27.069
G01 F600 X18.512 Y27.094
G01 F600 X18.537 Y27.094
G01 F600 X18.537 Y27.119
G01 F600 X18.562 Y27.119
G01 F600 X18.562 Y27.145
G01 F600 X18.588 Y27.145
G01 F600 X18.588 Y27.450
G01 F600 X18.562 Y27.450
G01 F600 X18.562 Y27.475
G01 F600 X18.537 Y27.475
G01 F600 X18.537 Y27.501
G01 F600 X18.486 Y27.501
G01 F600 X18.486 Y27.526
G01 F600 X18.283 Y27.526
G01 F600 X18.283 Y27.501
G01 F600 X18.207 Y27.501
G01 F600 X18.207 Y27.475
G01 F600 X18.181 Y27.475
G01 F600 X18.181 Y27.450
G01 F600 X18.156 Y27.450
G01 F600 X18.156 Y27.424
G01 F600 X18.130 Y27.424
G01 F600 X18.130 Y27.399
G01 F600 X18.105 Y27.399
G01 F600 X18.105 Y27.374
G01 F600 X18.054 Y27.374
G01 F600 X18.054 Y27.348
G01 F600 X18.029 Y27.348
G01 F600 X18.029 Y27.323
G01 F600 X18.003 Y27.323
G01 F600 X18.003 Y27.297
G01 F600 X17.978 Y27.297
G01 F600 X17.978 Y27.272
G01 F600 X17.953 Y27.272
G01 F600 X17.953 Y27.247
G01 F600 X17.927 Y27.247
G01 F600 X17.927 Y27.221
G01 F600 X17.876 Y27.221
G01 F600 X17.876 Y27.196
G01 F600 X17.851 Y27.196
G01 F600 X17.851 Y27.170
G01 F600 X17.826 Y27.170
G01 F600 X17.826 Y27.145
G01 F600 X17.800 Y27.145
G01 F600 X17.800 Y27.120
G01 F600 X17.775 Y27.120
G01 F600 X17.775 Y27.094
G01 F600 X17.749 Y27.094
G01 F600 X17.749 Y27.069
G01 F600 X17.698 Y27.069
G01 F600 X17.698 Y27.043
G01 F600 X17.673 Y27.043
G01 F600 X17.673 Y27.018
G01 F600 X17.648 Y27.018
G01 F600 X17.648 Y26.993
G01 F600 X17.622 Y26.993
G01 F600 X17.622 Y26.967
G01 F600 X17.597 Y26.967
G01 F600 X17.597 Y28.059
G01 F600 X17.572 Y28.059
G01 F600 X17.572 Y28.085
G01 F600 X17.546 Y28.085
G01 F600 X17.546 Y28.110
G01 F600 X17.495 Y28.110
G01 F600 X17.495 Y28.136
G01 F600 X17.292 Y28.136
G00 F3000 Z3.000
G00 F3000 X27.630 Y28.136
G00 F1500 Z0
G01 F600 Z-0.200
G01 F600 X27.630 Y28.110
G01 F600 X27.579 Y28.110
G01 F600 X27.579 Y28.085
G01 F600 X27.554 Y28.085
G01 F600 X27.554 Y28.059
G01 F600 X27.528 Y28.059
G01 F600 X27.528 Y26.027
G01 F600 X27.554 Y26.027
G01 F600 X27.554 Y25.976
G01 F600 X27.579 Y25.976
G01 F600 X27.579 Y25.926
G01 F600 X27.605 Y25.926
G01 F600 X27.605 Y25.900
G01 F600 X27.630 Y25.900
G01 F600 X27.630 Y25.875
G01 F600 X27.655 Y25.875
G01 F600 X27.655 Y25.849
G01 F600 X27.681 Y25.849
G01 F600 X27.681 Y25.824
G01 F600 X27.706 Y25.824
G01 F600 X27.706 Y25.799
G01 F600 X27.757 Y25.799
G01 F600 X27.757 Y25.773
G01 F600 X27.833 Y25.773
G01 F600 X27.833 Y25.748
G01 F600 X28.799 Y25.748
G01 F600 X28.799 Y25.773
G01 F600 X28.849 Y25.773
G01 F600 X28.849 Y25.799
G01 F600 X28.900 Y25.799
G01 F600 X28.900 Y25.824
G01 F600 X28.926 Y25.824
G01 F600 X28.926 Y25.849
G01 F600 X28.951 Y25.849
G01 F600 X28.951 Y25.875
G01 F600 X28.976 Y25.875
G01 F600 X28.976 Y25.900
G01 F600 X29.002 Y25.900
G01 F600 X29.002 Y25.926
G01 F600 X29.027 Y25.926
G01 F600 X29.027 Y25.951
G01 F600 X29.053 Y25.951
G01 F600 X29.053 Y26.002
G01 F600 X29.078 Y26.002
G01 F600 X29.078 Y26.103
G01 F600 X29.103 Y26.103
G01 F600 X29.103 Y28.034
G01 F600 X29.078 Y28.034
G01 F600 X29.078 Y28.059
G01 F600 X29.053 Y28.059
G01 F600 X29.053 Y28.085
G01 F600 X29.027 Y28.085
G01 F600 X29.027 Y28.110
G01 F600 X28.976 Y28.110
G01 F600 X28.976 Y28.136
G01 F600 X28.773 Y28.136
G01 F600 X28.773 Y28.110
G01 F600 X28.722 Y28.110
G01 F600 X28.722 Y28.085
G01 F600 X28.697 Y28.085
G01 F600 X28.697 Y28.059
G01 F600 X28.671 Y28.059
G01 F600 X28.671 Y27.983
G01 F600 X28.646 Y27.983
G01 F600 X28.646 Y26.256
G01 F600 X28.620 Y26.256
G01 F600 X28.620 Y26.231
G01 F600 X28.595 Y26.231
G01 F600 X28.595 Y26.205
G01 F600 X28.570 Y26.205
G01 F600 X28.570 Y26.180
G01 F600 X28.062 Y26.180
G01 F600 X28.062 Y26.205
G01 F600 X28.011 Y26.205
G01 F600 X28.011 Y26.231
G01 F600 X27.986 Y26.231
G01 F600 X27.986 Y26.281
G01 F600 X27.960 Y26.281
G01 F600 X27.960 Y28.034
G01 F600 X27.935 Y28.034
G01 F600 X27.935 Y28.085
G01 F600 X27.884 Y28.085
G01 F600 X27.884 Y28.110
G01 F600 X27.833 Y28.110
G01 F600 X27.833 Y28.136
G01 F600 X27.630 Y28.136
G00 F3000 Z3.000
G00 F3000 X23.388 Y28.136
G00 F1500 Z0
G01 F600 Z-0.200
G01 F600 X23.388 Y25.748
G01 F600 X24.531 Y25.748
G01 F600 X24.531 Y25.773
G01 F600 X24.608 Y25.773
G01 F600 X24.608 Y25.799
G01 F600 X24.658 Y25.799
G01 F600 X24.658 Y25.824
G01 F600 X24.684 Y25.824
G01 F600 X24.684 Y25.849
G01 F600 X24.735 Y25.849
G01 F600 X24.735 Y25.875
G01 F600 X24.760 Y25.875
G01 F600 X24.760 Y25.900
G01 F600 X24.785 Y25.900
G01 F600 X24.785 Y25.926
G01 F600 X24.811 Y25.926
G01 F600 X24.811 Y25.951
G01 F600 X24.836 Y25.951
G01 F600 X24.836 Y25.976
G01 F600 X24.861 Y25.976
G01 F600 X24.861 Y26.027
G01 F600 X24.887 Y26.027
G01 F600 X24.887 Y26.078
G01 F600 X24.912 Y26.078
G01 F600 X24.912 Y26.129
G01 F600 X24.938 Y26.129
G01 F600 X24.938 Y26.230
G01 F600 X24.963 Y26.230
G01 F600 X24.963 Y26.662
G01 F600 X24.938 Y26.662
G01 F600 X24.938 Y26.764
G01 F600 X24.912 Y26.764
G01 F600 X24.912 Y26.815
G01 F600 X24.887 Y26.815
G01 F600 X24.887 Y26.866
G01 F600 X24.861 Y26.866
G01 F600 X24.861 Y26.916
G01 F600 X24.836 Y26.916
G01 F600 X24.836 Y26.967
G01 F600 X24.861 Y26.967
G01 F600 X24.861 Y26.992
G01 F600 X24.887 Y26.992
G01 F600 X24.887 Y27.043
G01 F600 X24.912 Y27.043
G01 F600 X24.912 Y27.094
G01 F600 X24.938 Y27.094
G01 F600 X24.938 Y27.196
G01 F600 X24.963 Y27.196
G01 F600 X24.963 Y27.628
G01 F600 X24.938 Y27.628
G01 F600 X24.938 Y27.729
G01 F600 X24.912 Y27.729
G01 F600 X24.912 Y27.780
G01 F600 X24.887 Y27.780
G01 F600 X24.887 Y27.831
G01 F600 X24.861 Y27.831
G01 F600 X24.861 Y27.882
G01 F600 X24.836 Y27.882
G01 F600 X24.836 Y27.907
G01 F600 X24.811 Y27.907
G01 F600 X24.811 Y27.932
G01 F600 X24.785 Y27.932
G01 F600 X24.785 Y27.958
G01 F600 X24.760 Y27.958
G01 F600 X24.760 Y27.983
G01 F600 X24.735 Y27.983
G01 F600 X24.735 Y28.009
G01 F600 X24.709 Y28.009
G01 F600 X24.709 Y28.034
G01 F600 X24.658 Y28.034
G01 F600 X24.658 Y28.059
G01 F600 X24.608 Y28.059
G01 F600 X24.608 Y28.085
G01 F600 X24.557 Y28.085
G01 F600 X24.557 Y28.110
G01 F600 X24.430 Y28.110
G01 F600 X24.430 Y28.136
G01 F600 X23.388 Y28.136
G00 F3000 Z3.000
G00 F3000 X-13.518 Y28.009
G00 F1500 Z0
G01 F600 Z-0.200
G01 F600 X-13.518 Y27.983
G01 F600 X-13.569 Y27.983
G01 F600 X-13.569 Y27.958
G01 F600 X-13.594 Y27.958
G01 F600 X-13.594 Y27.882
G01 F600 X-13.620 Y27.882
G01 F600 X-13.620 Y27.526
G01 F600 X-13.798 Y27.526
G01 F600 X-13.798 Y27.501
G01 F600 X-13.848 Y27.501
G01 F600 X-13.848 Y27.475
G01 F600 X-13.874 Y27.475
G01 F600 X-13.874 Y27.424
G01 F600 X-13.899 Y27.424
G01 F600 X-13.899 Y27.170
G01 F600 X-13.874 Y27.170
G01 F600 X-13.874 Y27.119
G01 F600 X-13.848 Y27.119
G01 F600 X-13.848 Y27.094
G01 F600 X-13.772 Y27.094
G01 F600 X-13.772 Y27.069
G01 F600 X-13.620 Y27.069
G01 F600 X-13.620 Y26.103
G01 F600 X-13.594 Y26.103
G01 F600 X-13.594 Y26.002
G01 F600 X-13.569 Y26.002
G01 F600 X-13.569 Y25.951
G01 F600 X-13.543 Y25.951
G01 F600 X-13.543 Y25.926
G01 F600 X-13.518 Y25.926
G01 F600 X-13.518 Y25.900
G01 F600 X-13.493 Y25.900
G01 F600 X-13.493 Y25.849
G01 F600 X-13.442 Y25.849
G01 F600 X-13.442 Y25.824
G01 F600 X-13.417 Y25.824
G01 F600 X-13.417 Y25.799
G01 F600 X-13.366 Y25.799
G01 F600 X-13.366 Y25.773
G01 F600 X-13.315 Y25.773
G01 F600 X-13.315 Y25.748
G01 F600 X-12.629 Y25.748
G01 F600 X-12.629 Y25.773
G01 F600 X-12.553 Y25.773
G01 F600 X-12.553 Y25.799
G01 F600 X-12.502 Y25.799
G01 F600 X-12.502 Y25.824
G01 F600 X-12.477 Y25.824
G01 F600 X-12.477 Y25.849
G01 F600 X-12.451 Y25.849
G01 F600 X-12.451 Y25.875
G01 F600 X-12.426 Y25.875
G01 F600 X-12.426 Y25.900
G01 F600 X-12.400 Y25.900
G01 F600 X-12.400 Y25.926
G01 F600 X-12.375 Y25.926
G01 F600 X-12.375 Y25.976
G01 F600 X-12.350 Y25.976
G01 F600 X-12.350 Y26.027
G01 F600 X-12.324 Y26.027
G01 F600 X-12.324 Y26.358
G01 F600 X-12.350 Y26.358
G01 F600 X-12.350 Y26.383
G01 F600 X-12.375 Y26.383
G01 F600 X-12.375 Y26.408
G01 F600 X-12.426 Y26.408
G01 F600 X-12.426 Y26.434
G01 F600 X-12.629 Y26.434
G01 F600 X-12.629 Y26.408
G01 F600 X-12.705 Y26.408
G01 F600 X-12.705 Y26.383
G01 F600 X-12.731 Y26.383
G01 F600 X-12.731 Y26.332
G01 F600 X-12.756 Y26.332
G01 F600 X-12.756 Y26.281
G01 F600 X-12.782 Y26.281
G01 F600 X-12.782 Y26.231
G01 F600 X-12.807 Y26.231
G01 F600 X-12.807 Y26.205
G01 F600 X-12.858 Y26.205
G01 F600 X-12.858 Y26.180
G01 F600 X-13.086 Y26.180
G01 F600 X-13.086 Y26.205
G01 F600 X-13.112 Y26.205
G01 F600 X-13.112 Y26.231
G01 F600 X-13.137 Y26.231
G01 F600 X-13.137 Y26.256
G01 F600 X-13.162 Y26.256
G01 F600 X-13.162 Y27.069
G01 F600 X-12.578 Y27.069
G01 F600 X-12.578 Y27.094
G01 F600 X-12.527 Y27.094
G01 F600 X-12.527 Y27.119
G01 F600 X-12.502 Y27.119
G01 F600 X-12.502 Y27.145
G01 F600 X-12.477 Y27.145
G01 F600 X-12.477 Y27.450
G01 F600 X-12.502 Y27.450
G01 F600 X-12.502 Y27.475
G01 F600 X-12.527 Y27.475
G01 F600 X-12.527 Y27.501
G01 F600 X-12.578 Y27.501
G01 F600 X-12.578 Y27.526
G01 F600 X-13.162 Y27.526
G01 F600 X-13.162 Y27.882
G01 F600 X-13.188 Y27.882
G01 F600 X-13.188 Y27.932
G01 F600 X-13.213 Y27.932
G01 F600 X-13.213 Y27.983
G01 F600 X-13.264 Y27.983
G01 F600 X-13.264 Y28.009
G01 F600 X-13.518 Y28.009
G00 F3000 Z3.000
G00 F3000 X23.820 Y27.678
G00 F1500 Z0
G01 F600 Z-0.200
G01 F600 X24.328 Y27.678
G01 F600 X24.328 Y27.653
G01 F600 X24.379 Y27.653
G01 F600 X24.379 Y27.627
G01 F600 X24.404 Y27.627
G01 F600 X24.404 Y27.602
G01 F600 X24.430 Y27.602
G01 F600 X24.430 Y27.577
G01 F600 X24.455 Y27.577
G01 F600 X24.455 Y27.551
G01 F600 X24.480 Y27.551
G01 F600 X24.480 Y27.500
G01 F600 X24.506 Y27.500
G01 F600 X24.506 Y27.323
G01 F600 X24.480 Y27.323
G01 F600 X24.480 Y27.297
G01 F600 X24.455 Y27.297
G01 F600 X24.455 Y27.247
G01 F600 X24.430 Y27.247
G01 F600 X24.430 Y27.221
G01 F600 X24.379 Y27.221
G01 F600 X24.379 Y27.196
G01 F600 X24.353 Y27.196
G01 F600 X24.353 Y27.170
G01 F600 X24.252 Y27.170
G01 F600 X24.252 Y27.145
G01 F600 X23.820 Y27.145
G01 F600 X23.820 Y27.678
G00 F3000 Z3.000
G00 F3000 X21.737 Y27.678
G00 F1500 Z0
G01 F600 Z-0.200
G01 F600 X22.245 Y27.678
G01 F600 X22.245 Y27.653
G01 F600 X22.296 Y27.653
G01 F600 X22.296 Y27.627
G01 F600 X22.347 Y27.627
G01 F600 X22.347 Y27.602
G01 F600 X22.372 Y27.602
G01 F600 X22.372 Y27.577
G01 F600 X22.398 Y27.577
G01 F600 X22.398 Y27.526
G01 F600 X22.423 Y27.526
G01 F600 X22.423 Y27.450
G01 F600 X22.448 Y27.450
G01 F600 X22.448 Y27.374
G01 F600 X22.423 Y27.374
G01 F600 X22.423 Y27.323
G01 F600 X22.398 Y27.323
G01 F600 X22.398 Y27.272
G01 F600 X22.372 Y27.272
G01 F600 X22.372 Y27.247
G01 F600 X22.347 Y27.247
G01 F600 X22.347 Y27.221
G01 F600 X22.321 Y27.221
G01 F600 X22.321 Y27.196
G01 F600 X22.271 Y27.196
G01 F600 X22.271 Y27.170
G01 F600 X22.194 Y27.170
G01 F600 X22.194 Y27.145
G01 F600 X21.763 Y27.145
G01 F600 X21.763 Y27.170
G01 F600 X21.737 Y27.170
G01 F600 X21.737 Y27.678
G00 F3000 Z3.000
G00 F3000 X-17.557 Y27.526
G00 F1500 Z0
G01 F600 Z-0.200
G01 F600 X-17.557 Y27.501
G01 F600 X-17.658 Y27.501
G01 F600 X-17.658 Y27.475
G01 F600 X-17.709 Y27.475
G01 F600 X-17.709 Y27.450
G01 F600 X-17.760 Y27.450
G01 F600 X-17.760 Y27.424
G01 F600 X-17.785 Y27.424
G01 F600 X-17.785 Y27.399
G01 F600 X-17.811 Y27.399
G01 F600 X-17.811 Y27.374
G01 F600 X-17.836 Y27.374
G01 F600 X-17.836 Y27.348
G01 F600 X-17.887 Y27.348
G01 F600 X-17.887 Y27.323
G01 F600 X-17.912 Y27.323
G01 F600 X-17.912 Y27.297
G01 F600 X-17.938 Y27.297
G01 F600 X-17.938 Y27.247
G01 F600 X-17.963 Y27.247
G01 F600 X-17.963 Y27.221
G01 F600 X-17.989 Y27.221
G01 F600 X-17.989 Y27.170
G01 F600 X-18.014 Y27.170
G01 F600 X-18.014 Y27.094
G01 F600 X-18.039 Y27.094
G01 F600 X-18.039 Y26.281
G01 F600 X-18.014 Y26.281
G01 F600 X-18.014 Y26.205
G01 F600 X-17.989 Y26.205
G01 F600 X-17.989 Y26.154
G01 F600 X-17.963 Y26.154
G01 F600 X-17.963 Y26.129
G01 F600 X-17.938 Y26.129
G01 F600 X-17.938 Y26.103
G01 F600 X-17.912 Y26.103
G01 F600 X-17.912 Y26.078
G01 F600 X-17.887 Y26.078
G01 F600 X-17.887 Y26.053
G01 F600 X-17.861 Y26.053
G01 F600 X-17.861 Y26.027
G01 F600 X-17.836 Y26.027
G01 F600 X-17.836 Y26.002
G01 F600 X-17.811 Y26.002
G01 F600 X-17.811 Y25.976
G01 F600 X-17.785 Y25.976
G01 F600 X-17.785 Y25.951
G01 F600 X-17.735 Y25.951
G01 F600 X-17.735 Y25.926
G01 F600 X-17.709 Y25.926
G01 F600 X-17.709 Y25.900
G01 F600 X-17.658 Y25.900
G01 F600 X-17.658 Y25.875
G01 F600 X-17.531 Y25.875
G01 F600 X-17.531 Y25.849
G01 F600 X-17.099 Y25.849
G01 F600 X-17.099 Y25.875
G01 F600 X-16.998 Y25.875
G01 F600 X-16.998 Y25.900
G01 F600 X-16.922 Y25.900
G01 F600 X-16.922 Y25.926
G01 F600 X-16.896 Y25.926
G01 F600 X-16.896 Y25.748
G01 F600 X-16.922 Y25.748
G01 F600 X-16.922 Y25.723
G01 F600 X-16.947 Y25.723
G01 F600 X-16.947 Y25.697
G01 F600 X-16.973 Y25.697
G01 F600 X-16.973 Y25.672
G01 F600 X-16.998 Y25.672
G01 F600 X-16.998 Y25.646
G01 F600 X-17.023 Y25.646
G01 F600 X-17.023 Y25.621
G01 F600 X-17.049 Y25.621
G01 F600 X-17.049 Y25.596
G01 F600 X-17.100 Y25.596
G01 F600 X-17.100 Y25.570
G01 F600 X-17.811 Y25.570
G01 F600 X-17.811 Y25.545
G01 F600 X-17.861 Y25.545
G01 F600 X-17.861 Y25.494
G01 F600 X-17.887 Y25.494
G01 F600 X-17.887 Y25.214
G01 F600 X-17.861 Y25.214
G01 F600 X-17.861 Y25.164
G01 F600 X-17.811 Y25.164
G01 F600 X-17.811 Y25.138
G01 F600 X-16.871 Y25.138
G01 F600 X-16.871 Y25.164
G01 F600 X-16.794 Y25.164
G01 F600 X-16.794 Y25.189
G01 F600 X-16.769 Y25.189
G01 F600 X-16.769 Y25.214
G01 F600 X-16.718 Y25.214
G01 F600 X-16.718 Y25.240
G01 F600 X-16.693 Y25.240
G01 F600 X-16.693 Y25.265
G01 F600 X-16.668 Y25.265
G01 F600 X-16.668 Y25.291
G01 F600 X-16.642 Y25.291
G01 F600 X-16.642 Y25.316
G01 F600 X-16.617 Y25.316
G01 F600 X-16.617 Y25.341
G01 F600 X-16.591 Y25.341
G01 F600 X-16.591 Y25.367
G01 F600 X-16.566 Y25.367
G01 F600 X-16.566 Y25.392
G01 F600 X-16.541 Y25.392
G01 F600 X-16.541 Y25.418
G01 F600 X-16.515 Y25.418
G01 F600 X-16.515 Y25.468
G01 F600 X-16.490 Y25.468
G01 F600 X-16.490 Y25.519
G01 F600 X-16.464 Y25.519
G01 F600 X-16.464 Y27.450
G01 F600 X-16.490 Y27.450
G01 F600 X-16.490 Y27.475
G01 F600 X-16.515 Y27.475
G01 F600 X-16.515 Y27.501
G01 F600 X-16.566 Y27.501
G01 F600 X-16.566 Y27.526
G01 F600 X-16.795 Y27.526
G01 F600 X-16.795 Y27.501
G01 F600 X-16.846 Y27.501
G01 F600 X-16.846 Y27.475
G01 F600 X-16.871 Y27.475
G01 F600 X-16.871 Y27.424
G01 F600 X-16.896 Y27.424
G01 F600 X-16.896 Y27.450
G01 F600 X-16.922 Y27.450
G01 F600 X-16.922 Y27.475
G01 F600 X-16.972 Y27.475
G01 F600 X-16.972 Y27.501
G01 F600 X-17.099 Y27.501
G01 F600 X-17.099 Y27.526
G01 F600 X-17.557 Y27.526
G00 F3000 Z3.000
G00 F3000 X-0.996 Y27.526
G00 F1500 Z0
G01 F600 Z-0.200
G01 F600 X-0.996 Y27.501
G01 F600 X-1.098 Y27.501
G01 F600 X-1.098 Y27.475
G01 F600 X-1.148 Y27.475
G01 F600 X-1.148 Y27.450
G01 F600 X-1.199 Y27.450
G01 F600 X-1.199 Y27.424
G01 F600 X-1.225 Y27.424
G01 F600 X-1.225 Y27.399
G01 F600 X-1.250 Y27.399
G01 F600 X-1.250 Y27.374
G01 F600 X-1.275 Y27.374
G01 F600 X-1.275 Y27.348
G01 F600 X-1.301 Y27.348
G01 F600 X-1.301 Y27.323
G01 F600 X-1.326 Y27.323
G01 F600 X-1.326 Y27.297
G01 F600 X-1.352 Y27.297
G01 F600 X-1.352 Y27.272
G01 F600 X-1.377 Y27.272
G01 F600 X-1.377 Y27.247
G01 F600 X-1.402 Y27.247
G01 F600 X-1.402 Y27.196
G01 F600 X-1.428 Y27.196
G01 F600 X-1.428 Y27.145
G01 F600 X-1.453 Y27.145
G01 F600 X-1.453 Y27.069
G01 F600 X-1.479 Y27.069
G01 F600 X-1.479 Y26.205
G01 F600 X-1.453 Y26.205
G01 F600 X-1.453 Y26.103
G01 F600 X-1.428 Y26.103
G01 F600 X-1.428 Y26.053
G01 F600 X-1.402 Y26.053
G01 F600 X-1.402 Y26.002
G01 F600 X-1.377 Y26.002
G01 F600 X-1.377 Y25.976
G01 F600 X-1.352 Y25.976
G01 F600 X-1.352 Y25.951
G01 F600 X-1.326 Y25.951
G01 F600 X-1.326 Y25.926
G01 F600 X-1.301 Y25.926
G01 F600 X-1.301 Y25.900
G01 F600 X-1.275 Y25.900
G01 F600 X-1.275 Y25.875
G01 F600 X-1.250 Y25.875
G01 F600 X-1.250 Y25.849
G01 F600 X-1.199 Y25.849
G01 F600 X-1.199 Y25.824
G01 F600 X-1.174 Y25.824
G01 F600 X-1.174 Y25.799
G01 F600 X-1.123 Y25.799
G01 F600 X-1.123 Y25.773
G01 F600 X-1.072 Y25.773
G01 F600 X-1.072 Y25.748
G01 F600 X-0.285 Y25.748
G01 F600 X-0.285 Y25.773
G01 F600 X-0.234 Y25.773
G01 F600 X-0.234 Y25.799
G01 F600 X-0.183 Y25.799
G01 F600 X-0.183 Y25.824
G01 F600 X-0.158 Y25.824
G01 F600 X-0.158 Y25.849
G01 F600 X-0.132 Y25.849
G01 F600 X-0.132 Y25.875
G01 F600 X-0.107 Y25.875
G01 F600 X-0.107 Y25.900
G01 F600 X-0.056 Y25.900
G01 F600 X-0.056 Y25.926
G01 F600 X-0.031 Y25.926
G01 F600 X-0.031 Y25.951
G01 F600 X-0.005 Y25.951
G01 F600 X-0.005 Y26.002
G01 F600 X0.020 Y26.002
G01 F600 X0.020 Y26.027
G01 F600 X0.046 Y26.027
G01 F600 X0.046 Y26.053
G01 F600 X0.071 Y26.053
G01 F600 X0.071 Y26.103
G01 F600 X0.097 Y26.103
G01 F600 X0.097 Y27.145
G01 F600 X0.071 Y27.145
G01 F600 X0.071 Y27.196
G01 F600 X0.046 Y27.196
G01 F600 X0.046 Y27.247
G01 F600 X0.020 Y27.247
G01 F600 X0.020 Y27.272
G01 F600 X-0.005 Y27.272
G01 F600 X-0.005 Y27.297
G01 F600 X-0.031 Y27.297
G01 F600 X-0.031 Y27.323
G01 F600 X-0.056 Y27.323
G01 F600 X-0.056 Y27.348
G01 F600 X-0.081 Y27.348
G01 F600 X-0.081 Y27.374
G01 F600 X-0.107 Y27.374
G01 F600 X-0.107 Y27.399
G01 F600 X-0.158 Y27.399
G01 F600 X-0.158 Y27.424
G01 F600 X-0.183 Y27.424
G01 F600 X-0.183 Y27.450
G01 F600 X-0.208 Y27.450
G01 F600 X-0.208 Y27.475
G01 F600 X-0.285 Y27.475
G01 F600 X-0.285 Y27.501
G01 F600 X-0.361 Y27.501
G01 F600 X-0.361 Y27.526
G01 F600 X-0.996 Y27.526
G00 F3000 Z3.000
G00 F3000 X0.680 Y27.526
G00 F1500 Z0
G01 F600 Z-0.200
G01 F600 X0.680 Y27.501
G01 F600 X0.630 Y27.501
G01 F600 X0.630 Y27.475
G01 F600 X0.604 Y27.475
G01 F600 X0.604 Y27.424
G01 F600 X0.579 Y27.424
G01 F600 X0.579 Y25.824
G01 F600 X0.604 Y25.824
G01 F600 X0.604 Y25.773
G01 F600 X0.655 Y25.773
G01 F600 X0.655 Y25.748
G01 F600 X0.935 Y25.748
G01 F600 X0.935 Y25.773
G01 F600 X0.986 Y25.773
G01 F600 X0.986 Y25.824
G01 F600 X1.011 Y25.824
G01 F600 X1.011 Y26.891
G01 F600 X1.036 Y26.891
G01 F600 X1.036 Y26.916
G01 F600 X1.062 Y26.916
G01 F600 X1.062 Y26.942
G01 F600 X1.087 Y26.942
G01 F600 X1.087 Y26.967
G01 F600 X1.113 Y26.967
G01 F600 X1.113 Y26.992
G01 F600 X1.163 Y26.992
G01 F600 X1.163 Y25.824
G01 F600 X1.189 Y25.824
G01 F600 X1.189 Y25.799
G01 F600 X1.214 Y25.799
G01 F600 X1.214 Y25.773
G01 F600 X1.239 Y25.773
G01 F600 X1.239 Y25.748
G01 F600 X1.544 Y25.748
G01 F600 X1.544 Y25.773
G01 F600 X1.570 Y25.773
G01 F600 X1.570 Y25.799
G01 F600 X1.595 Y25.799
G01 F600 X1.595 Y25.875
G01 F600 X1.621 Y25.875
G01 F600 X1.621 Y26.942
G01 F600 X1.671 Y26.942
G01 F600 X1.671 Y26.967
G01 F600 X1.697 Y26.967
G01 F600 X1.697 Y26.992
G01 F600 X1.722 Y26.992
G01 F600 X1.722 Y26.510
G01 F600 X1.747 Y26.510
G01 F600 X1.747 Y25.875
G01 F600 X1.773 Y25.875
G01 F600 X1.773 Y25.799
G01 F600 X1.798 Y25.799
G01 F600 X1.798 Y25.773
G01 F600 X1.824 Y25.773
G01 F600 X1.824 Y25.748
G01 F600 X2.129 Y25.748
G01 F600 X2.129 Y25.773
G01 F600 X2.154 Y25.773
G01 F600 X2.154 Y25.799
G01 F600 X2.179 Y25.799
G01 F600 X2.179 Y25.849
G01 F600 X2.205 Y25.849
G01 F600 X2.205 Y26.231
G01 F600 X2.179 Y26.231
G01 F600 X2.179 Y26.891
G01 F600 X2.154 Y26.891
G01 F600 X2.154 Y27.272
G01 F600 X2.129 Y27.272
G01 F600 X2.129 Y27.323
G01 F600 X2.103 Y27.323
G01 F600 X2.103 Y27.374
G01 F600 X2.078 Y27.374
G01 F600 X2.078 Y27.399
G01 F600 X2.052 Y27.399
G01 F600 X2.052 Y27.424
G01 F600 X2.027 Y27.424
G01 F600 X2.027 Y27.450
G01 F600 X1.976 Y27.450
G01 F600 X1.976 Y27.475
G01 F600 X1.925 Y27.475
G01 F600 X1.925 Y27.501
G01 F600 X1.544 Y27.501
G01 F600 X1.544 Y27.475
G01 F600 X1.493 Y27.475
G01 F600 X1.493 Y27.450
G01 F600 X1.443 Y27.450
G01 F600 X1.443 Y27.475
G01 F600 X1.392 Y27.475
G01 F600 X1.392 Y27.501
G01 F600 X1.316 Y27.501
G01 F600 X1.316 Y27.526
G01 F600 X1.062 Y27.526
G01 F600 X1.062 Y27.501
G01 F600 X0.909 Y27.501
G01 F600 X0.909 Y27.526
G01 F600 X0.680 Y27.526
G00 F3000 Z3.000
G00 F3000 X-2.926 Y27.526
G00 F1500 Z0
G01 F600 Z-0.200
G01 F600 X-2.926 Y27.501
G01 F600 X-3.028 Y27.501
G01 F600 X-3.028 Y27.475
G01 F600 X-3.079 Y27.475
G01 F600 X-3.079 Y27.450
G01 F600 X-3.130 Y27.450
G01 F600 X-3.130 Y27.424
G01 F600 X-3.155 Y27.424
G01 F600 X-3.155 Y27.399
G01 F600 X-3.180 Y27.399
G01 F600 X-3.180 Y27.374
G01 F600 X-3.231 Y27.374
G01 F600 X-3.231 Y27.348
G01 F600 X-3.256 Y27.348
G01 F600 X-3.256 Y27.323
G01 F600 X-3.282 Y27.323
G01 F600 X-3.282 Y27.297
G01 F600 X-3.307 Y27.297
G01 F600 X-3.307 Y27.272
G01 F600 X-3.333 Y27.272
G01 F600 X-3.333 Y27.247
G01 F600 X-3.358 Y27.247
G01 F600 X-3.358 Y27.221
G01 F600 X-3.384 Y27.221
G01 F600 X-3.384 Y27.196
G01 F600 X-3.409 Y27.196
G01 F600 X-3.409 Y27.170
G01 F600 X-3.434 Y27.170
G01 F600 X-3.434 Y27.145
G01 F600 X-3.460 Y27.145
G01 F600 X-3.460 Y27.120
G01 F600 X-3.485 Y27.120
G01 F600 X-3.485 Y27.069
G01 F600 X-3.510 Y27.069
G01 F600 X-3.510 Y26.993
G01 F600 X-3.536 Y26.993
G01 F600 X-3.536 Y26.256
G01 F600 X-3.510 Y26.256
G01 F600 X-3.510 Y26.180
G01 F600 X-3.485 Y26.180
G01 F600 X-3.485 Y26.154
G01 F600 X-3.460 Y26.154
G01 F600 X-3.460 Y26.103
G01 F600 X-3.434 Y26.103
G01 F600 X-3.434 Y26.078
G01 F600 X-3.409 Y26.078
G01 F600 X-3.409 Y26.053
G01 F600 X-3.384 Y26.053
G01 F600 X-3.384 Y26.027
G01 F600 X-3.358 Y26.027
G01 F600 X-3.358 Y26.002
G01 F600 X-3.307 Y26.002
G01 F600 X-3.307 Y25.976
G01 F600 X-3.282 Y25.976
G01 F600 X-3.282 Y25.951
G01 F600 X-3.256 Y25.951
G01 F600 X-3.256 Y25.926
G01 F600 X-3.231 Y25.926
G01 F600 X-3.231 Y25.900
G01 F600 X-3.206 Y25.900
G01 F600 X-3.206 Y25.875
G01 F600 X-3.180 Y25.875
G01 F600 X-3.180 Y25.849
G01 F600 X-3.130 Y25.849
G01 F600 X-3.130 Y25.824
G01 F600 X-3.104 Y25.824
G01 F600 X-3.104 Y25.799
G01 F600 X-3.053 Y25.799
G01 F600 X-3.053 Y25.773
G01 F600 X-3.002 Y25.773
G01 F600 X-3.002 Y25.748
G01 F600 X-2.037 Y25.748
G01 F600 X-2.037 Y25.773
G01 F600 X-2.012 Y25.773
G01 F600 X-2.012 Y25.799
G01 F600 X-1.986 Y25.799
G01 F600 X-1.986 Y25.824
G01 F600 X-1.961 Y25.824
G01 F600 X-1.961 Y26.078
G01 F600 X-1.986 Y26.078
G01 F600 X-1.986 Y26.129
G01 F600 X-2.012 Y26.129
G01 F600 X-2.012 Y26.154
G01 F600 X-2.037 Y26.154
G01 F600 X-2.037 Y26.180
G01 F600 X-2.774 Y26.180
G01 F600 X-2.774 Y26.205
G01 F600 X-2.799 Y26.205
G01 F600 X-2.799 Y26.231
G01 F600 X-2.850 Y26.231
G01 F600 X-2.850 Y26.256
G01 F600 X-2.875 Y26.256
G01 F600 X-2.875 Y26.281
G01 F600 X-2.901 Y26.281
G01 F600 X-2.901 Y26.307
G01 F600 X-2.926 Y26.307
G01 F600 X-2.926 Y26.332
G01 F600 X-2.952 Y26.332
G01 F600 X-2.952 Y26.358
G01 F600 X-2.977 Y26.358
G01 F600 X-2.977 Y26.383
G01 F600 X-3.028 Y26.383
G01 F600 X-3.028 Y26.408
G01 F600 X-3.053 Y26.408
G01 F600 X-3.053 Y26.434
G01 F600 X-3.079 Y26.434
G01 F600 X-3.079 Y26.485
G01 F600 X-3.104 Y26.485
G01 F600 X-3.104 Y26.789
G01 F600 X-3.079 Y26.789
G01 F600 X-3.079 Y26.815
G01 F600 X-3.053 Y26.815
G01 F600 X-3.053 Y26.840
G01 F600 X-3.028 Y26.840
G01 F600 X-3.028 Y26.865
G01 F600 X-3.002 Y26.865
G01 F600 X-3.002 Y26.891
G01 F600 X-2.977 Y26.891
G01 F600 X-2.977 Y26.916
G01 F600 X-2.926 Y26.916
G01 F600 X-2.926 Y26.942
G01 F600 X-2.901 Y26.942
G01 F600 X-2.901 Y26.967
G01 F600 X-2.875 Y26.967
G01 F600 X-2.875 Y26.992
G01 F600 X-2.850 Y26.992
G01 F600 X-2.850 Y27.018
G01 F600 X-2.825 Y27.018
G01 F600 X-2.825 Y27.043
G01 F600 X-2.774 Y27.043
G01 F600 X-2.774 Y27.069
G01 F600 X-2.088 Y27.069
G01 F600 X-2.088 Y27.094
G01 F600 X-2.012 Y27.094
G01 F600 X-2.012 Y27.119
G01 F600 X-1.986 Y27.119
G01 F600 X-1.986 Y27.170
G01 F600 X-1.961 Y27.170
G01 F600 X-1.961 Y27.424
G01 F600 X-1.986 Y27.424
G01 F600 X-1.986 Y27.475
G01 F600 X-2.012 Y27.475
G01 F600 X-2.012 Y27.501
G01 F600 X-2.063 Y27.501
G01 F600 X-2.063 Y27.526
G01 F600 X-2.926 Y27.526
G00 F3000 Z3.000
G00 F3000 X6.929 Y27.526
G00 F1500 Z0
G01 F600 Z-0.200
G01 F600 X6.929 Y27.501
G01 F600 X6.878 Y27.501
G01 F600 X6.878 Y27.475
G01 F600 X6.853 Y27.475
G01 F600 X6.853 Y27.450
G01 F600 X6.827 Y27.450
G01 F600 X6.827 Y27.399
G01 F600 X6.802 Y27.399
G01 F600 X6.802 Y25.875
G01 F600 X6.827 Y25.875
G01 F600 X6.827 Y25.799
G01 F600 X6.853 Y25.799
G01 F600 X6.853 Y25.773
G01 F600 X6.878 Y25.773
G01 F600 X6.878 Y25.748
G01 F600 X7.183 Y25.748
G01 F600 X7.183 Y25.773
G01 F600 X7.208 Y25.773
G01 F600 X7.208 Y25.799
G01 F600 X7.234 Y25.799
G01 F600 X7.234 Y25.849
G01 F600 X7.259 Y25.849
G01 F600 X7.259 Y26.688
G01 F600 X7.285 Y26.688
G01 F600 X7.285 Y26.713
G01 F600 X7.310 Y26.713
G01 F600 X7.310 Y26.738
G01 F600 X7.361 Y26.738
G01 F600 X7.361 Y26.764
G01 F600 X7.386 Y26.764
G01 F600 X7.386 Y26.789
G01 F600 X7.412 Y26.789
G01 F600 X7.412 Y26.815
G01 F600 X7.437 Y26.815
G01 F600 X7.437 Y26.840
G01 F600 X7.463 Y26.840
G01 F600 X7.463 Y26.865
G01 F600 X7.488 Y26.865
G01 F600 X7.488 Y26.891
G01 F600 X7.539 Y26.891
G01 F600 X7.539 Y26.916
G01 F600 X7.564 Y26.916
G01 F600 X7.564 Y26.942
G01 F600 X7.590 Y26.942
G01 F600 X7.590 Y26.967
G01 F600 X7.615 Y26.967
G01 F600 X7.615 Y26.992
G01 F600 X7.640 Y26.992
G01 F600 X7.640 Y27.018
G01 F600 X7.666 Y27.018
G01 F600 X7.666 Y27.043
G01 F600 X7.717 Y27.043
G01 F600 X7.717 Y27.069
G01 F600 X7.869 Y27.069
G01 F600 X7.869 Y27.043
G01 F600 X7.920 Y27.043
G01 F600 X7.920 Y26.992
G01 F600 X7.945 Y26.992
G01 F600 X7.945 Y26.815
G01 F600 X7.970 Y26.815
G01 F600 X7.970 Y26.764
G01 F600 X7.996 Y26.764
G01 F600 X7.996 Y26.738
G01 F600 X8.046 Y26.738
G01 F600 X8.046 Y26.713
G01 F600 X8.301 Y26.713
G01 F600 X8.301 Y26.738
G01 F600 X8.351 Y26.738
G01 F600 X8.351 Y26.789
G01 F600 X8.377 Y26.789
G01 F600 X8.377 Y26.840
G01 F600 X8.402 Y26.840
G01 F600 X8.402 Y27.094
G01 F600 X8.377 Y27.094
G01 F600 X8.377 Y27.247
G01 F600 X8.351 Y27.247
G01 F600 X8.351 Y27.297
G01 F600 X8.326 Y27.297
G01 F600 X8.326 Y27.323
G01 F600 X8.301 Y27.323
G01 F600 X8.301 Y27.374
G01 F600 X8.275 Y27.374
G01 F600 X8.275 Y27.399
G01 F600 X8.250 Y27.399
G01 F600 X8.250 Y27.424
G01 F600 X8.199 Y27.424
G01 F600 X8.199 Y27.450
G01 F600 X8.174 Y27.450
G01 F600 X8.174 Y27.475
G01 F600 X8.123 Y27.475
G01 F600 X8.123 Y27.501
G01 F600 X8.021 Y27.501
G01 F600 X8.021 Y27.526
G01 F600 X7.488 Y27.526
G01 F600 X7.488 Y27.501
G01 F600 X7.437 Y27.501
G01 F600 X7.437 Y27.475
G01 F600 X7.412 Y27.475
G01 F600 X7.412 Y27.450
G01 F600 X7.386 Y27.450
G01 F600 X7.386 Y27.424
G01 F600 X7.335 Y27.424
G01 F600 X7.335 Y27.399
G01 F600 X7.310 Y27.399
G01 F600 X7.310 Y27.374
G01 F600 X7.285 Y27.374
G01 F600 X7.285 Y27.348
G01 F600 X7.259 Y27.348
G01 F600 X7.259 Y27.424
G01 F600 X7.234 Y27.424
G01 F600 X7.234 Y27.450
G01 F600 X7.208 Y27.450
G01 F600 X7.208 Y27.475
G01 F600 X7.183 Y27.475
G01 F600 X7.183 Y27.501
G01 F600 X7.132 Y27.501
G01 F600 X7.132 Y27.526
G01 F600 X6.929 Y27.526
G00 F3000 Z3.000
G00 F3000 X-15.728 Y27.526
G00 F1500 Z0
G01 F600 Z-0.200
G01 F600 X-15.728 Y27.501
G01 F600 X-15.753 Y27.501
G01 F600 X-15.753 Y27.475
G01 F600 X-15.804 Y27.475
G01 F600 X-15.804 Y27.424
G01 F600 X-15.830 Y27.424
G01 F600 X-15.830 Y27.170
G01 F600 X-15.804 Y27.170
G01 F600 X-15.804 Y27.119
G01 F600 X-15.779 Y27.119
G01 F600 X-15.779 Y27.094
G01 F600 X-15.703 Y27.094
G01 F600 X-15.703 Y27.069
G01 F600 X-15.398 Y27.069
G01 F600 X-15.398 Y26.180
G01 F600 X-15.728 Y26.180
G01 F600 X-15.728 Y26.154
G01 F600 X-15.779 Y26.154
G01 F600 X-15.779 Y26.129
G01 F600 X-15.804 Y26.129
G01 F600 X-15.804 Y26.078
G01 F600 X-15.830 Y26.078
G01 F600 X-15.830 Y25.824
G01 F600 X-15.804 Y25.824
G01 F600 X-15.804 Y25.799
G01 F600 X-15.779 Y25.799
G01 F600 X-15.779 Y25.773
G01 F600 X-15.753 Y25.773
G01 F600 X-15.753 Y25.748
G01 F600 X-14.610 Y25.748
G01 F600 X-14.610 Y25.773
G01 F600 X-14.585 Y25.773
G01 F600 X-14.585 Y25.799
G01 F600 X-14.559 Y25.799
G01 F600 X-14.559 Y25.824
G01 F600 X-14.534 Y25.824
G01 F600 X-14.534 Y26.104
G01 F600 X-14.559 Y26.104
G01 F600 X-14.559 Y26.129
G01 F600 X-14.585 Y26.129
G01 F600 X-14.585 Y26.154
G01 F600 X-14.610 Y26.154
G01 F600 X-14.610 Y26.180
G01 F600 X-14.966 Y26.180
G01 F600 X-14.966 Y27.450
G01 F600 X-14.991 Y27.450
G01 F600 X-14.991 Y27.475
G01 F600 X-15.017 Y27.475
G01 F600 X-15.017 Y27.501
G01 F600 X-15.067 Y27.501
G01 F600 X-15.067 Y27.526
G01 F600 X-15.728 Y27.526
G00 F3000 Z3.000
G00 F3000 X-9.657 Y27.526
G00 F1500 Z0
G01 F600 Z-0.200
G01 F600 X-9.657 Y27.501
G01 F600 X-9.683 Y27.501
G01 F600 X-9.683 Y27.475
G01 F600 X-9.734 Y27.475
G01 F600 X-9.734 Y27.424
G01 F600 X-9.759 Y27.424
G01 F600 X-9.759 Y26.967
G01 F600 X-9.734 Y26.967
G01 F600 X-9.734 Y26.180
G01 F600 X-9.708 Y26.180
G01 F600 X-9.708 Y26.027
G01 F600 X-9.683 Y26.027
G01 F600 X-9.683 Y25.976
G01 F600 X-9.657 Y25.976
G01 F600 X-9.657 Y25.926
G01 F600 X-9.632 Y25.926
G01 F600 X-9.632 Y25.900
G01 F600 X-9.607 Y25.900
G01 F600 X-9.607 Y25.875
G01 F600 X-9.581 Y25.875
G01 F600 X-9.581 Y25.849
G01 F600 X-9.556 Y25.849
G01 F600 X-9.556 Y25.824
G01 F600 X-9.530 Y25.824
G01 F600 X-9.530 Y25.799
G01 F600 X-9.479 Y25.799
G01 F600 X-9.479 Y25.773
G01 F600 X-9.429 Y25.773
G01 F600 X-9.429 Y25.748
G01 F600 X-8.844 Y25.748
G01 F600 X-8.844 Y25.773
G01 F600 X-8.793 Y25.773
G01 F600 X-8.793 Y25.799
G01 F600 X-8.743 Y25.799
G01 F600 X-8.743 Y25.824
G01 F600 X-8.692 Y25.824
G01 F600 X-8.692 Y25.849
G01 F600 X-8.667 Y25.849
G01 F600 X-8.667 Y25.875
G01 F600 X-8.616 Y25.875
G01 F600 X-8.616 Y25.824
G01 F600 X-8.591 Y25.824
G01 F600 X-8.591 Y25.799
G01 F600 X-8.565 Y25.799
G01 F600 X-8.565 Y25.773
G01 F600 X-8.540 Y25.773
G01 F600 X-8.540 Y25.748
G01 F600 X-8.260 Y25.748
G01 F600 X-8.260 Y25.773
G01 F600 X-8.209 Y25.773
G01 F600 X-8.209 Y25.824
G01 F600 X-8.184 Y25.824
G01 F600 X-8.184 Y27.450
G01 F600 X-8.209 Y27.450
G01 F600 X-8.209 Y27.475
G01 F600 X-8.235 Y27.475
G01 F600 X-8.235 Y27.501
G01 F600 X-8.286 Y27.501
G01 F600 X-8.286 Y27.526
G01 F600 X-8.514 Y27.526
G01 F600 X-8.514 Y27.501
G01 F600 X-8.565 Y27.501
G01 F600 X-8.565 Y27.475
G01 F600 X-8.591 Y27.475
G01 F600 X-8.591 Y27.424
G01 F600 X-8.616 Y27.424
G01 F600 X-8.616 Y26.459
G01 F600 X-8.667 Y26.459
G01 F600 X-8.667 Y26.434
G01 F600 X-8.718 Y26.434
G01 F600 X-8.718 Y26.408
G01 F600 X-8.743 Y26.408
G01 F600 X-8.743 Y26.383
G01 F600 X-8.794 Y26.383
G01 F600 X-8.794 Y26.358
G01 F600 X-8.819 Y26.358
G01 F600 X-8.819 Y26.332
G01 F600 X-8.870 Y26.332
G01 F600 X-8.870 Y26.307
G01 F600 X-8.921 Y26.307
G01 F600 X-8.921 Y26.281
G01 F600 X-8.946 Y26.281
G01 F600 X-8.946 Y26.256
G01 F600 X-8.997 Y26.256
G01 F600 X-8.997 Y26.231
G01 F600 X-9.022 Y26.231
G01 F600 X-9.022 Y26.205
G01 F600 X-9.073 Y26.205
G01 F600 X-9.073 Y26.180
G01 F600 X-9.200 Y26.180
G01 F600 X-9.200 Y26.205
G01 F600 X-9.225 Y26.205
G01 F600 X-9.225 Y26.231
G01 F600 X-9.251 Y26.231
G01 F600 X-9.251 Y26.256
G01 F600 X-9.276 Y26.256
G01 F600 X-9.276 Y26.637
G01 F600 X-9.302 Y26.637
G01 F600 X-9.302 Y27.348
G01 F600 X-9.327 Y27.348
G01 F600 X-9.327 Y27.450
G01 F600 X-9.352 Y27.450
G01 F600 X-9.352 Y27.475
G01 F600 X-9.378 Y27.475
G01 F600 X-9.378 Y27.501
G01 F600 X-9.428 Y27.501
G01 F600 X-9.428 Y27.526
G01 F600 X-9.657 Y27.526
G00 F3000 Z3.000
G00 F3000 X8.986 Y27.526
G00 F1500 Z0
G01 F600 Z-0.200
G01 F600 X8.986 Y27.501
G01 F600 X8.936 Y27.501
G01 F600 X8.936 Y27.475
G01 F600 X8.910 Y27.475
G01 F600 X8.910 Y27.424
G01 F600 X8.885 Y27.424
G01 F600 X8.885 Y26.764
G01 F600 X8.910 Y26.764
G01 F600 X8.910 Y26.103
G01 F600 X8.936 Y26.103
G01 F600 X8.936 Y26.002
G01 F600 X8.961 Y26.002
G01 F600 X8.961 Y25.951
G01 F600 X8.986 Y25.951
G01 F600 X8.986 Y25.926
G01 F600 X9.012 Y25.926
G01 F600 X9.012 Y25.900
G01 F600 X9.037 Y25.900
G01 F600 X9.037 Y25.849
G01 F600 X9.088 Y25.849
G01 F600 X9.088 Y25.824
G01 F600 X9.113 Y25.824
G01 F600 X9.113 Y25.799
G01 F600 X9.164 Y25.799
G01 F600 X9.164 Y25.773
G01 F600 X9.215 Y25.773
G01 F600 X9.215 Y25.748
G01 F600 X9.799 Y25.748
G01 F600 X9.799 Y25.773
G01 F600 X9.850 Y25.773
G01 F600 X9.850 Y25.799
G01 F600 X9.901 Y25.799
G01 F600 X9.901 Y25.824
G01 F600 X9.952 Y25.824
G01 F600 X9.952 Y25.849
G01 F600 X9.977 Y25.849
G01 F600 X9.977 Y25.875
G01 F600 X10.028 Y25.875
G01 F600 X10.028 Y25.824
G01 F600 X10.053 Y25.824
G01 F600 X10.053 Y25.773
G01 F600 X10.104 Y25.773
G01 F600 X10.104 Y25.748
G01 F600 X10.383 Y25.748
G01 F600 X10.383 Y25.773
G01 F600 X10.409 Y25.773
G01 F600 X10.409 Y25.799
G01 F600 X10.434 Y25.799
G01 F600 X10.434 Y25.824
G01 F600 X10.460 Y25.824
G01 F600 X10.460 Y27.424
G01 F600 X10.434 Y27.424
G01 F600 X10.434 Y27.475
G01 F600 X10.409 Y27.475
G01 F600 X10.409 Y27.501
G01 F600 X10.358 Y27.501
G01 F600 X10.358 Y27.526
G01 F600 X10.129 Y27.526
G01 F600 X10.129 Y27.501
G01 F600 X10.079 Y27.501
G01 F600 X10.079 Y27.475
G01 F600 X10.053 Y27.475
G01 F600 X10.053 Y27.450
G01 F600 X10.028 Y27.450
G01 F600 X10.028 Y26.485
G01 F600 X10.002 Y26.485
G01 F600 X10.002 Y26.459
G01 F600 X9.977 Y26.459
G01 F600 X9.977 Y26.434
G01 F600 X9.926 Y26.434
G01 F600 X9.926 Y26.408
G01 F600 X9.901 Y26.408
G01 F600 X9.901 Y26.383
G01 F600 X9.850 Y26.383
G01 F600 X9.850 Y26.358
G01 F600 X9.799 Y26.358
G01 F600 X9.799 Y26.332
G01 F600 X9.774 Y26.332
G01 F600 X9.774 Y26.307
G01 F600 X9.723 Y26.307
G01 F600 X9.723 Y26.281
G01 F600 X9.697 Y26.281
G01 F600 X9.697 Y26.256
G01 F600 X9.647 Y26.256
G01 F600 X9.647 Y26.231
G01 F600 X9.596 Y26.231
G01 F600 X9.596 Y26.205
G01 F600 X9.571 Y26.205
G01 F600 X9.571 Y26.180
G01 F600 X9.444 Y26.180
G01 F600 X9.444 Y26.205
G01 F600 X9.418 Y26.205
G01 F600 X9.418 Y26.231
G01 F600 X9.393 Y26.231
G01 F600 X9.393 Y26.256
G01 F600 X9.367 Y26.256
G01 F600 X9.367 Y26.434
G01 F600 X9.342 Y26.434
G01 F600 X9.342 Y27.145
G01 F600 X9.317 Y27.145
G01 F600 X9.317 Y27.450
G01 F600 X9.291 Y27.450
G01 F600 X9.291 Y27.475
G01 F600 X9.266 Y27.475
G01 F600 X9.266 Y27.501
G01 F600 X9.215 Y27.501
G01 F600 X9.215 Y27.526
G01 F600 X8.986 Y27.526
G00 F3000 Z3.000
G00 F3000 X11.069 Y27.526
G00 F1500 Z0
G01 F600 Z-0.200
G01 F600 X11.069 Y27.501
G01 F600 X11.018 Y27.501
G01 F600 X11.018 Y27.475
G01 F600 X10.993 Y27.475
G01 F600 X10.993 Y27.450
G01 F600 X10.968 Y27.450
G01 F600 X10.968 Y27.374
G01 F600 X10.942 Y27.374
G01 F600 X10.942 Y25.875
G01 F600 X10.968 Y25.875
G01 F600 X10.968 Y25.799
G01 F600 X10.993 Y25.799
G01 F600 X10.993 Y25.773
G01 F600 X11.018 Y25.773
G01 F600 X11.018 Y25.748
G01 F600 X11.323 Y25.748
G01 F600 X11.323 Y25.773
G01 F600 X11.349 Y25.773
G01 F600 X11.349 Y25.799
G01 F600 X11.374 Y25.799
G01 F600 X11.374 Y25.849
G01 F600 X11.399 Y25.849
G01 F600 X11.399 Y26.789
G01 F600 X11.425 Y26.789
G01 F600 X11.425 Y26.815
G01 F600 X11.476 Y26.815
G01 F600 X11.476 Y26.840
G01 F600 X11.527 Y26.840
G01 F600 X11.527 Y26.865
G01 F600 X11.552 Y26.865
G01 F600 X11.552 Y26.891
G01 F600 X11.603 Y26.891
G01 F600 X11.603 Y26.916
G01 F600 X11.628 Y26.916
G01 F600 X11.628 Y26.942
G01 F600 X11.679 Y26.942
G01 F600 X11.679 Y26.967
G01 F600 X11.704 Y26.967
G01 F600 X11.704 Y26.992
G01 F600 X11.755 Y26.992
G01 F600 X11.755 Y27.018
G01 F600 X11.780 Y27.018
G01 F600 X11.780 Y27.043
G01 F600 X11.831 Y27.043
G01 F600 X11.831 Y27.069
G01 F600 X11.984 Y27.069
G01 F600 X11.984 Y27.043
G01 F600 X12.009 Y27.043
G01 F600 X12.009 Y27.018
G01 F600 X12.034 Y27.018
G01 F600 X12.034 Y26.967
G01 F600 X12.060 Y26.967
G01 F600 X12.060 Y26.383
G01 F600 X12.085 Y26.383
G01 F600 X12.085 Y25.824
G01 F600 X12.111 Y25.824
G01 F600 X12.111 Y25.799
G01 F600 X12.136 Y25.799
G01 F600 X12.136 Y25.773
G01 F600 X12.161 Y25.773
G01 F600 X12.161 Y25.748
G01 F600 X12.466 Y25.748
G01 F600 X12.466 Y25.773
G01 F600 X12.492 Y25.773
G01 F600 X12.492 Y25.799
G01 F600 X12.517 Y25.799
G01 F600 X12.517 Y26.815
G01 F600 X12.492 Y26.815
G01 F600 X12.492 Y27.196
G01 F600 X12.466 Y27.196
G01 F600 X12.466 Y27.272
G01 F600 X12.441 Y27.272
G01 F600 X12.441 Y27.323
G01 F600 X12.415 Y27.323
G01 F600 X12.415 Y27.348
G01 F600 X12.390 Y27.348
G01 F600 X12.390 Y27.374
G01 F600 X12.365 Y27.374
G01 F600 X12.365 Y27.399
G01 F600 X12.339 Y27.399
G01 F600 X12.339 Y27.424
G01 F600 X12.314 Y27.424
G01 F600 X12.314 Y27.450
G01 F600 X12.263 Y27.450
G01 F600 X12.263 Y27.475
G01 F600 X12.238 Y27.475
G01 F600 X12.238 Y27.501
G01 F600 X12.111 Y27.501
G01 F600 X12.111 Y27.526
G01 F600 X11.679 Y27.526
G01 F600 X11.679 Y27.501
G01 F600 X11.603 Y27.501
G01 F600 X11.603 Y27.475
G01 F600 X11.552 Y27.475
G01 F600 X11.552 Y27.450
G01 F600 X11.501 Y27.450
G01 F600 X11.501 Y27.424
G01 F600 X11.450 Y27.424
G01 F600 X11.450 Y27.399
G01 F600 X11.425 Y27.399
G01 F600 X11.425 Y27.374
G01 F600 X11.399 Y27.374
G01 F600 X11.399 Y27.424
G01 F600 X11.374 Y27.424
G01 F600 X11.374 Y27.450
G01 F600 X11.349 Y27.450
G01 F600 X11.349 Y27.475
G01 F600 X11.323 Y27.475
G01 F600 X11.323 Y27.501
G01 F600 X11.298 Y27.501
G01 F600 X11.298 Y27.526
G01 F600 X11.069 Y27.526
G00 F3000 Z3.000
G00 F3000 X15.565 Y27.526
G00 F1500 Z0
G01 F600 Z-0.200
G01 F600 X15.565 Y27.501
G01 F600 X15.463 Y27.501
G01 F600 X15.463 Y27.475
G01 F600 X15.413 Y27.475
G01 F600 X15.413 Y27.450
G01 F600 X15.387 Y27.450
G01 F600 X15.387 Y27.424
G01 F600 X15.336 Y27.424
G01 F600 X15.336 Y27.399
G01 F600 X15.311 Y27.399
G01 F600 X15.311 Y27.374
G01 F600 X15.286 Y27.374
G01 F600 X15.286 Y27.348
G01 F600 X15.260 Y27.348
G01 F600 X15.260 Y27.323
G01 F600 X15.235 Y27.323
G01 F600 X15.235 Y27.297
G01 F600 X15.209 Y27.297
G01 F600 X15.209 Y27.272
G01 F600 X15.184 Y27.272
G01 F600 X15.184 Y27.247
G01 F600 X15.159 Y27.247
G01 F600 X15.159 Y27.196
G01 F600 X15.133 Y27.196
G01 F600 X15.133 Y27.145
G01 F600 X15.108 Y27.145
G01 F600 X15.108 Y26.993
G01 F600 X15.082 Y26.993
G01 F600 X15.082 Y26.256
G01 F600 X15.108 Y26.256
G01 F600 X15.108 Y26.103
G01 F600 X15.133 Y26.103
G01 F600 X15.133 Y26.053
G01 F600 X15.159 Y26.053
G01 F600 X15.159 Y26.002
G01 F600 X15.184 Y26.002
G01 F600 X15.184 Y25.976
G01 F600 X15.209 Y25.976
G01 F600 X15.209 Y25.951
G01 F600 X15.235 Y25.951
G01 F600 X15.235 Y25.926
G01 F600 X15.260 Y25.926
G01 F600 X15.260 Y25.900
G01 F600 X15.286 Y25.900
G01 F600 X15.286 Y25.875
G01 F600 X15.311 Y25.875
G01 F600 X15.311 Y25.849
G01 F600 X15.362 Y25.849
G01 F600 X15.362 Y25.824
G01 F600 X15.387 Y25.824
G01 F600 X15.387 Y25.799
G01 F600 X15.438 Y25.799
G01 F600 X15.438 Y25.773
G01 F600 X15.489 Y25.773
G01 F600 X15.489 Y25.748
G01 F600 X16.607 Y25.748
G01 F600 X16.607 Y25.773
G01 F600 X16.632 Y25.773
G01 F600 X16.632 Y25.799
G01 F600 X16.657 Y25.799
G01 F600 X16.657 Y25.849
G01 F600 X16.683 Y25.849
G01 F600 X16.683 Y26.078
G01 F600 X16.657 Y26.078
G01 F600 X16.657 Y26.129
G01 F600 X16.632 Y26.129
G01 F600 X16.632 Y26.154
G01 F600 X16.581 Y26.154
G01 F600 X16.581 Y26.180
G01 F600 X15.718 Y26.180
G01 F600 X15.718 Y26.205
G01 F600 X15.692 Y26.205
G01 F600 X15.692 Y26.231
G01 F600 X15.641 Y26.231
G01 F600 X15.641 Y26.256
G01 F600 X15.616 Y26.256
G01 F600 X15.616 Y26.281
G01 F600 X15.591 Y26.281
G01 F600 X15.591 Y26.307
G01 F600 X15.565 Y26.307
G01 F600 X15.565 Y26.357
G01 F600 X16.607 Y26.357
G01 F600 X16.607 Y26.383
G01 F600 X16.632 Y26.383
G01 F600 X16.632 Y26.408
G01 F600 X16.657 Y26.408
G01 F600 X16.657 Y26.459
G01 F600 X16.683 Y26.459
G01 F600 X16.683 Y27.043
G01 F600 X16.657 Y27.043
G01 F600 X16.657 Y27.145
G01 F600 X16.632 Y27.145
G01 F600 X16.632 Y27.196
G01 F600 X16.607 Y27.196
G01 F600 X16.607 Y27.247
G01 F600 X16.581 Y27.247
G01 F600 X16.581 Y27.272
G01 F600 X16.556 Y27.272
G01 F600 X16.556 Y27.297
G01 F600 X16.530 Y27.297
G01 F600 X16.530 Y27.323
G01 F600 X16.505 Y27.323
G01 F600 X16.505 Y27.348
G01 F600 X16.480 Y27.348
G01 F600 X16.480 Y27.374
G01 F600 X16.454 Y27.374
G01 F600 X16.454 Y27.399
G01 F600 X16.429 Y27.399
G01 F600 X16.429 Y27.424
G01 F600 X16.378 Y27.424
G01 F600 X16.378 Y27.450
G01 F600 X16.352 Y27.450
G01 F600 X16.352 Y27.475
G01 F600 X16.302 Y27.475
G01 F600 X16.302 Y27.501
G01 F600 X16.200 Y27.501
G01 F600 X16.200 Y27.526
G01 F600 X15.565 Y27.526
G00 F3000 Z3.000
G00 F3000 X13.279 Y27.526
G00 F1500 Z0
G01 F600 Z-0.200
G01 F600 X13.279 Y27.501
G01 F600 X13.228 Y27.501
G01 F600 X13.228 Y27.475
G01 F600 X13.203 Y27.475
G01 F600 X13.203 Y27.450
G01 F600 X13.177 Y27.450
G01 F600 X13.177 Y27.145
G01 F600 X13.203 Y27.145
G01 F600 X13.203 Y27.119
G01 F600 X13.228 Y27.119
G01 F600 X13.228 Y27.094
G01 F600 X13.279 Y27.094
G01 F600 X13.279 Y27.069
G01 F600 X13.584 Y27.069
G01 F600 X13.584 Y26.180
G01 F600 X13.254 Y26.180
G01 F600 X13.254 Y26.154
G01 F600 X13.203 Y26.154
G01 F600 X13.203 Y26.104
G01 F600 X13.177 Y26.104
G01 F600 X13.177 Y25.799
G01 F600 X13.203 Y25.799
G01 F600 X13.203 Y25.773
G01 F600 X13.228 Y25.773
G01 F600 X13.228 Y25.748
G01 F600 X14.397 Y25.748
G01 F600 X14.397 Y25.773
G01 F600 X14.422 Y25.773
G01 F600 X14.422 Y25.799
G01 F600 X14.448 Y25.799
G01 F600 X14.448 Y26.104
G01 F600 X14.422 Y26.104
G01 F600 X14.422 Y26.154
G01 F600 X14.371 Y26.154
G01 F600 X14.371 Y26.180
G01 F600 X14.041 Y26.180
G01 F600 X14.041 Y27.399
G01 F600 X14.016 Y27.399
G01 F600 X14.016 Y27.450
G01 F600 X13.990 Y27.450
G01 F600 X13.990 Y27.475
G01 F600 X13.965 Y27.475
G01 F600 X13.965 Y27.501
G01 F600 X13.914 Y27.501
G01 F600 X13.914 Y27.526
G01 F600 X13.279 Y27.526
G00 F3000 Z3.000
G00 F3000 X25.522 Y27.145
G00 F1500 Z0
G01 F600 Z-0.200
G01 F600 X25.522 Y27.120
G01 F600 X25.496 Y27.120
G01 F600 X25.496 Y27.094
G01 F600 X25.471 Y27.094
G01 F600 X25.471 Y27.069
G01 F600 X25.446 Y27.069
G01 F600 X25.446 Y26.688
G01 F600 X25.471 Y26.688
G01 F600 X25.471 Y26.637
G01 F600 X25.496 Y26.637
G01 F600 X25.496 Y26.611
G01 F600 X25.547 Y26.611
G01 F600 X25.547 Y26.586
G01 F600 X26.919 Y26.586
G01 F600 X26.919 Y26.611
G01 F600 X26.970 Y26.611
G01 F600 X26.970 Y26.637
G01 F600 X26.995 Y26.637
G01 F600 X26.995 Y26.662
G01 F600 X27.021 Y26.662
G01 F600 X27.021 Y27.069
G01 F600 X26.995 Y27.069
G01 F600 X26.995 Y27.120
G01 F600 X26.944 Y27.120
G01 F600 X26.944 Y27.145
G01 F600 X25.522 Y27.145
G00 F3000 Z3.000
G00 F3000 X15.718 Y27.069
G00 F1500 Z0
G01 F600 Z-0.200
G01 F600 X16.073 Y27.069
G01 F600 X16.073 Y27.043
G01 F600 X16.098 Y27.043
G01 F600 X16.098 Y27.018
G01 F600 X16.149 Y27.018
G01 F600 X16.149 Y26.992
G01 F600 X16.175 Y26.992
G01 F600 X16.175 Y26.967
G01 F600 X16.200 Y26.967
G01 F600 X16.200 Y26.916
G01 F600 X16.225 Y26.916
G01 F600 X16.225 Y26.789
G01 F600 X15.540 Y26.789
G01 F600 X15.540 Y26.916
G01 F600 X15.565 Y26.916
G01 F600 X15.565 Y26.942
G01 F600 X15.591 Y26.942
G01 F600 X15.591 Y26.967
G01 F600 X15.616 Y26.967
G01 F600 X15.616 Y26.992
G01 F600 X15.641 Y26.992
G01 F600 X15.641 Y27.018
G01 F600 X15.667 Y27.018
G01 F600 X15.667 Y27.043
G01 F600 X15.718 Y27.043
G01 F600 X15.718 Y27.069
G00 F3000 Z3.000
G00 F3000 X-0.869 Y27.069
G00 F1500 Z0
G01 F600 Z-0.200
G01 F600 X-0.513 Y27.069
G01 F600 X-0.513 Y27.043
G01 F600 X-0.463 Y27.043
G01 F600 X-0.463 Y27.018
G01 F600 X-0.437 Y27.018
G01 F600 X-0.437 Y26.992
G01 F600 X-0.412 Y26.992
G01 F600 X-0.412 Y26.967
G01 F600 X-0.386 Y26.967
G01 F600 X-0.386 Y26.942
G01 F600 X-0.361 Y26.942
G01 F600 X-0.361 Y26.916
G01 F600 X-0.336 Y26.916
G01 F600 X-0.336 Y26.358
G01 F600 X-0.361 Y26.358
G01 F600 X-0.361 Y26.307
G01 F600 X-0.386 Y26.307
G01 F600 X-0.386 Y26.281
G01 F600 X-0.412 Y26.281
G01 F600 X-0.412 Y26.256
G01 F600 X-0.463 Y26.256
G01 F600 X-0.463 Y26.231
G01 F600 X-0.488 Y26.231
G01 F600 X-0.488 Y26.205
G01 F600 X-0.513 Y26.205
G01 F600 X-0.513 Y26.180
G01 F600 X-0.843 Y26.180
G01 F600 X-0.843 Y26.205
G01 F600 X-0.869 Y26.205
G01 F600 X-0.869 Y26.231
G01 F600 X-0.920 Y26.231
G01 F600 X-0.920 Y26.256
G01 F600 X-0.945 Y26.256
G01 F600 X-0.945 Y26.281
G01 F600 X-0.970 Y26.281
G01 F600 X-0.970 Y26.307
G01 F600 X-0.996 Y26.307
G01 F600 X-0.996 Y26.332
G01 F600 X-1.021 Y26.332
G01 F600 X-1.021 Y26.916
G01 F600 X-0.996 Y26.916
G01 F600 X-0.996 Y26.942
G01 F600 X-0.970 Y26.942
G01 F600 X-0.970 Y26.967
G01 F600 X-0.945 Y26.967
G01 F600 X-0.945 Y26.992
G01 F600 X-0.920 Y26.992
G01 F600 X-0.920 Y27.018
G01 F600 X-0.894 Y27.018
G01 F600 X-0.894 Y27.043
G01 F600 X-0.869 Y27.043
G01 F600 X-0.869 Y27.069
G00 F3000 Z3.000
G00 F3000 X-6.914 Y27.069
G00 F1500 Z0
G01 F600 Z-0.200
G01 F600 X-6.736 Y27.069
G01 F600 X-6.736 Y27.043
G01 F600 X-6.686 Y27.043
G01 F600 X-6.686 Y27.018
G01 F600 X-6.660 Y27.018
G01 F600 X-6.660 Y26.992
G01 F600 X-6.635 Y26.992
G01 F600 X-6.635 Y26.967
G01 F600 X-6.609 Y26.967
G01 F600 X-6.609 Y26.942
G01 F600 X-6.584 Y26.942
G01 F600 X-6.584 Y26.916
G01 F600 X-6.559 Y26.916
G01 F600 X-6.559 Y26.332
G01 F600 X-6.584 Y26.332
G01 F600 X-6.584 Y26.307
G01 F600 X-6.609 Y26.307
G01 F600 X-6.609 Y26.281
G01 F600 X-6.635 Y26.281
G01 F600 X-6.635 Y26.256
G01 F600 X-6.660 Y26.256
G01 F600 X-6.660 Y26.231
G01 F600 X-6.686 Y26.231
G01 F600 X-6.686 Y26.205
G01 F600 X-6.736 Y26.205
G01 F600 X-6.736 Y26.180
G01 F600 X-6.914 Y26.180
G01 F600 X-6.914 Y26.205
G01 F600 X-6.939 Y26.205
G01 F600 X-6.939 Y26.231
G01 F600 X-6.990 Y26.231
G01 F600 X-6.990 Y26.256
G01 F600 X-7.016 Y26.256
G01 F600 X-7.016 Y26.281
G01 F600 X-7.041 Y26.281
G01 F600 X-7.041 Y26.307
G01 F600 X-7.066 Y26.307
G01 F600 X-7.066 Y26.332
G01 F600 X-7.092 Y26.332
G01 F600 X-7.092 Y26.358
G01 F600 X-7.117 Y26.358
G01 F600 X-7.117 Y26.383
G01 F600 X-7.168 Y26.383
G01 F600 X-7.168 Y26.408
G01 F600 X-7.193 Y26.408
G01 F600 X-7.193 Y26.434
G01 F600 X-7.219 Y26.434
G01 F600 X-7.219 Y26.485
G01 F600 X-7.244 Y26.485
G01 F600 X-7.244 Y26.789
G01 F600 X-7.219 Y26.789
G01 F600 X-7.219 Y26.815
G01 F600 X-7.193 Y26.815
G01 F600 X-7.193 Y26.840
G01 F600 X-7.168 Y26.840
G01 F600 X-7.168 Y26.865
G01 F600 X-7.143 Y26.865
G01 F600 X-7.143 Y26.891
G01 F600 X-7.117 Y26.891
G01 F600 X-7.117 Y26.916
G01 F600 X-7.066 Y26.916
G01 F600 X-7.066 Y26.942
G01 F600 X-7.041 Y26.942
G01 F600 X-7.041 Y26.967
G01 F600 X-7.016 Y26.967
G01 F600 X-7.016 Y26.992
G01 F600 X-6.990 Y26.992
G01 F600 X-6.990 Y27.018
G01 F600 X-6.965 Y27.018
G01 F600 X-6.965 Y27.043
G01 F600 X-6.914 Y27.043
G01 F600 X-6.914 Y27.069
G00 F3000 Z3.000
G00 F3000 X-17.430 Y27.069
G00 F1500 Z0
G01 F600 Z-0.200
G01 F600 X-17.227 Y27.069
G01 F600 X-17.227 Y27.043
G01 F600 X-17.176 Y27.043
G01 F600 X-17.176 Y27.018
G01 F600 X-17.150 Y27.018
G01 F600 X-17.150 Y26.992
G01 F600 X-17.125 Y26.992
G01 F600 X-17.125 Y26.967
G01 F600 X-17.100 Y26.967
G01 F600 X-17.100 Y26.942
G01 F600 X-17.074 Y26.942
G01 F600 X-17.074 Y26.916
G01 F600 X-17.049 Y26.916
G01 F600 X-17.049 Y26.891
G01 F600 X-16.998 Y26.891
G01 F600 X-16.998 Y26.865
G01 F600 X-16.973 Y26.865
G01 F600 X-16.973 Y26.840
G01 F600 X-16.947 Y26.840
G01 F600 X-16.947 Y26.815
G01 F600 X-16.922 Y26.815
G01 F600 X-16.922 Y26.764
G01 F600 X-16.896 Y26.764
G01 F600 X-16.896 Y26.612
G01 F600 X-16.922 Y26.612
G01 F600 X-16.922 Y26.561
G01 F600 X-16.947 Y26.561
G01 F600 X-16.947 Y26.535
G01 F600 X-16.973 Y26.535
G01 F600 X-16.973 Y26.510
G01 F600 X-16.998 Y26.510
G01 F600 X-16.998 Y26.485
G01 F600 X-17.049 Y26.485
G01 F600 X-17.049 Y26.459
G01 F600 X-17.074 Y26.459
G01 F600 X-17.074 Y26.434
G01 F600 X-17.100 Y26.434
G01 F600 X-17.100 Y26.408
G01 F600 X-17.125 Y26.408
G01 F600 X-17.125 Y26.383
G01 F600 X-17.150 Y26.383
G01 F600 X-17.150 Y26.358
G01 F600 X-17.176 Y26.358
G01 F600 X-17.176 Y26.332
G01 F600 X-17.227 Y26.332
G01 F600 X-17.227 Y26.307
G01 F600 X-17.430 Y26.307
G01 F600 X-17.430 Y26.332
G01 F600 X-17.480 Y26.332
G01 F600 X-17.480 Y26.358
G01 F600 X-17.506 Y26.358
G01 F600 X-17.506 Y26.383
G01 F600 X-17.531 Y26.383
G01 F600 X-17.531 Y26.408
G01 F600 X-17.556 Y26.408
G01 F600 X-17.556 Y26.434
G01 F600 X-17.582 Y26.434
G01 F600 X-17.582 Y26.510
G01 F600 X-17.607 Y26.510
G01 F600 X-17.607 Y26.865
G01 F600 X-17.582 Y26.865
G01 F600 X-17.582 Y26.916
G01 F600 X-17.556 Y26.916
G01 F600 X-17.556 Y26.967
G01 F600 X-17.531 Y26.967
G01 F600 X-17.531 Y26.992
G01 F600 X-17.480 Y26.992
G01 F600 X-17.480 Y27.018
G01 F600 X-17.455 Y27.018
G01 F600 X-17.455 Y27.043
G01 F600 X-17.430 Y27.043
G01 F600 X-17.430 Y27.069
G00 F3000 Z3.000
G00 F3000 X-5.085 Y26.789
G00 F1500 Z0
G01 F600 Z-0.200
G01 F600 X-5.085 Y26.764
G01 F600 X-5.136 Y26.764
G01 F600 X-5.136 Y26.739
G01 F600 X-5.162 Y26.739
G01 F600 X-5.162 Y26.713
G01 F600 X-5.187 Y26.713
G01 F600 X-5.187 Y26.180
G01 F600 X-5.162 Y26.180
G01 F600 X-5.162 Y26.154
G01 F600 X-5.136 Y26.154
G01 F600 X-5.136 Y26.129
G01 F600 X-5.111 Y26.129
G01 F600 X-5.111 Y26.103
G01 F600 X-4.552 Y26.103
G01 F600 X-4.552 Y26.129
G01 F600 X-4.501 Y26.129
G01 F600 X-4.501 Y26.180
G01 F600 X-4.476 Y26.180
G01 F600 X-4.476 Y26.230
G01 F600 X-4.450 Y26.230
G01 F600 X-4.450 Y26.662
G01 F600 X-4.476 Y26.662
G01 F600 X-4.476 Y26.713
G01 F600 X-4.501 Y26.713
G01 F600 X-4.501 Y26.764
G01 F600 X-4.552 Y26.764
G01 F600 X-4.552 Y26.789
G01 F600 X-5.085 Y26.789
G00 F3000 Z3.000
G00 F3000 X23.820 Y26.713
G00 F1500 Z0
G01 F600 Z-0.200
G01 F600 X24.303 Y26.713
G01 F600 X24.303 Y26.688
G01 F600 X24.353 Y26.688
G01 F600 X24.353 Y26.662
G01 F600 X24.404 Y26.662
G01 F600 X24.404 Y26.637
G01 F600 X24.430 Y26.637
G01 F600 X24.430 Y26.611
G01 F600 X24.455 Y26.611
G01 F600 X24.455 Y26.586
G01 F600 X24.480 Y26.586
G01 F600 X24.480 Y26.535
G01 F600 X24.506 Y26.535
G01 F600 X24.506 Y26.358
G01 F600 X24.480 Y26.358
G01 F600 X24.480 Y26.307
G01 F600 X24.455 Y26.307
G01 F600 X24.455 Y26.281
G01 F600 X24.430 Y26.281
G01 F600 X24.430 Y26.256
G01 F600 X24.404 Y26.256
G01 F600 X24.404 Y26.231
G01 F600 X24.353 Y26.231
G01 F600 X24.353 Y26.205
G01 F600 X24.303 Y26.205
G01 F600 X24.303 Y26.180
G01 F600 X23.820 Y26.180
G01 F600 X23.820 Y26.713
G00 F3000 Z3.000
G00 F3000 X21.737 Y26.713
G00 F1500 Z0
G01 F600 Z-0.200
G01 F600 X22.245 Y26.713
G01 F600 X22.245 Y26.688
G01 F600 X22.296 Y26.688
G01 F600 X22.296 Y26.662
G01 F600 X22.321 Y26.662
G01 F600 X22.321 Y26.637
G01 F600 X22.372 Y26.637
G01 F600 X22.372 Y26.586
G01 F600 X22.398 Y26.586
G01 F600 X22.398 Y26.561
G01 F600 X22.423 Y26.561
G01 F600 X22.423 Y26.484
G01 F600 X22.448 Y26.484
G01 F600 X22.448 Y26.408
G01 F600 X22.423 Y26.408
G01 F600 X22.423 Y26.332
G01 F600 X22.398 Y26.332
G01 F600 X22.398 Y26.307
G01 F600 X22.372 Y26.307
G01 F600 X22.372 Y26.281
G01 F600 X22.347 Y26.281
G01 F600 X22.347 Y26.256
G01 F600 X22.321 Y26.256
G01 F600 X22.321 Y26.231
G01 F600 X22.296 Y26.231
G01 F600 X22.296 Y26.205
G01 F600 X22.220 Y26.205
G01 F600 X22.220 Y26.180
G01 F600 X21.737 Y26.180
G01 F600 X21.737 Y26.713
G00 F3000 Z3.000
G00 F3000 X-39.199 Y24.921
G00 F1500 Z0
G01 F600 Z-0.200
G01 F600 X-39.279 Y24.904
G01 F600 X-39.346 Y24.870
G01 F600 X-39.733 Y24.870
G01 F600 X-39.811 Y24.853
G01 F600 X-39.830 Y24.845
G01 F600 X-40.063 Y24.845
G01 F600 X-40.143 Y24.828
G01 F600 X-40.209 Y24.794
G01 F600 X-40.342 Y24.794
G01 F600 X-40.420 Y24.777
G01 F600 X-40.440 Y24.768
G01 F600 X-40.495 Y24.768
G01 F600 X-40.575 Y24.751
G01 F600 X-40.641 Y24.718
G01 F600 X-40.672 Y24.718
G01 F600 X-40.750 Y24.701
G01 F600 X-40.814 Y24.673
G01 F600 X-40.838 Y24.664
G01 F600 X-40.903 Y24.650
G01 F600 X-40.923 Y24.641
G01 F600 X-41.003 Y24.641
G01 F600 X-41.081 Y24.625
G01 F600 X-41.144 Y24.597
G01 F600 X-41.168 Y24.588
G01 F600 X-41.233 Y24.574
G01 F600 X-41.273 Y24.556
G01 F600 X-41.310 Y24.548
G01 F600 X-41.381 Y24.514
G01 F600 X-41.409 Y24.514
G01 F600 X-41.487 Y24.498
G01 F600 X-41.560 Y24.465
G01 F600 X-41.597 Y24.438
G01 F600 X-41.612 Y24.438
G01 F600 X-41.692 Y24.421
G01 F600 X-41.771 Y24.381
G01 F600 X-41.813 Y24.372
G01 F600 X-41.852 Y24.360
G01 F600 X-41.919 Y24.345
G01 F600 X-41.992 Y24.313
G01 F600 X-42.055 Y24.267
G01 F600 X-42.073 Y24.249
G01 F600 X-42.097 Y24.244
G01 F600 X-42.116 Y24.235
G01 F600 X-42.146 Y24.235
G01 F600 X-42.224 Y24.218
G01 F600 X-42.297 Y24.186
G01 F600 X-42.348 Y24.148
G01 F600 X-42.376 Y24.142
G01 F600 X-42.449 Y24.110
G01 F600 X-42.503 Y24.071
G01 F600 X-42.526 Y24.058
G01 F600 X-42.574 Y24.027
G01 F600 X-42.630 Y24.015
G01 F600 X-42.704 Y23.983
G01 F600 X-42.753 Y23.945
G01 F600 X-42.782 Y23.939
G01 F600 X-42.855 Y23.907
G01 F600 X-42.920 Y23.860
G01 F600 X-42.959 Y23.815
G01 F600 X-42.983 Y23.805
G01 F600 X-43.032 Y23.768
G01 F600 X-43.063 Y23.761
G01 F600 X-43.137 Y23.725
G01 F600 X-43.186 Y23.703
G01 F600 X-43.239 Y23.664
G01 F600 X-43.264 Y23.651
G01 F600 X-43.315 Y23.614
G01 F600 X-43.340 Y23.600
G01 F600 X-43.403 Y23.555
G01 F600 X-43.445 Y23.506
G01 F600 X-43.473 Y23.492
G01 F600 X-43.519 Y23.482
G01 F600 X-43.592 Y23.449
G01 F600 X-43.657 Y23.402
G01 F600 X-43.704 Y23.347
G01 F600 X-43.723 Y23.333
G01 F600 X-43.751 Y23.317
G01 F600 X-43.795 Y23.297
G01 F600 X-43.858 Y23.251
G01 F600 X-43.915 Y23.194
G01 F600 X-43.958 Y23.144
G01 F600 X-43.987 Y23.123
G01 F600 X-44.022 Y23.082
G01 F600 X-44.052 Y23.075
G01 F600 X-44.125 Y23.043
G01 F600 X-44.191 Y22.995
G01 F600 X-44.238 Y22.941
G01 F600 X-44.264 Y22.921
G01 F600 X-44.322 Y22.864
G01 F600 X-44.365 Y22.813
G01 F600 X-44.397 Y22.790
G01 F600 X-44.456 Y22.764
G01 F600 X-44.520 Y22.717
G01 F600 X-44.573 Y22.658
G01 F600 X-44.605 Y22.606
G01 F600 X-44.621 Y22.590
G01 F600 X-44.667 Y22.554
G01 F600 X-44.723 Y22.514
G01 F600 X-44.776 Y22.455
G01 F600 X-44.808 Y22.403
G01 F600 X-44.880 Y22.331
G01 F600 X-44.924 Y22.280
G01 F600 X-44.950 Y22.261
G01 F600 X-45.032 Y22.179
G01 F600 X-45.082 Y22.123
G01 F600 X-45.112 Y22.069
G01 F600 X-45.130 Y22.056
G01 F600 X-45.183 Y21.997
G01 F600 X-45.207 Y21.956
G01 F600 X-45.218 Y21.951
G01 F600 X-45.280 Y21.905
G01 F600 X-45.337 Y21.849
G01 F600 X-45.386 Y21.794
G01 F600 X-45.422 Y21.731
G01 F600 X-45.446 Y21.688
G01 F600 X-45.488 Y21.641
G01 F600 X-45.518 Y21.587
G01 F600 X-45.529 Y21.579
G01 F600 X-45.596 Y21.593
G01 F600 X-45.651 Y21.593
G01 F600 X-45.671 Y21.602
G01 F600 X-45.746 Y21.618
G01 F600 X-45.922 Y21.629
G01 F600 X-45.976 Y21.653
G01 F600 X-46.054 Y21.670
G01 F600 X-46.311 Y21.670
G01 F600 X-46.331 Y21.678
G01 F600 X-46.409 Y21.695
G01 F600 X-46.743 Y21.695
G01 F600 X-46.821 Y21.678
G01 F600 X-46.841 Y21.670
G01 F600 X-47.378 Y21.670
G01 F600 X-47.457 Y21.653
G01 F600 X-47.528 Y21.619
G01 F600 X-47.708 Y21.619
G01 F600 X-47.786 Y21.602
G01 F600 X-47.806 Y21.593
G01 F600 X-47.911 Y21.593
G01 F600 X-47.991 Y21.576
G01 F600 X-48.058 Y21.543
G01 F600 X-48.089 Y21.543
G01 F600 X-48.167 Y21.526
G01 F600 X-48.236 Y21.495
G01 F600 X-48.280 Y21.470
G01 F600 X-48.289 Y21.466
G01 F600 X-48.318 Y21.466
G01 F600 X-48.396 Y21.450
G01 F600 X-48.467 Y21.418
G01 F600 X-48.510 Y21.390
G01 F600 X-48.572 Y21.390
G01 F600 X-48.650 Y21.374
G01 F600 X-48.723 Y21.341
G01 F600 X-48.776 Y21.302
G01 F600 X-48.801 Y21.289
G01 F600 X-48.836 Y21.263
G01 F600 X-48.851 Y21.263
G01 F600 X-48.929 Y21.247
G01 F600 X-49.000 Y21.215
G01 F600 X-49.051 Y21.183
G01 F600 X-49.107 Y21.170
G01 F600 X-49.180 Y21.138
G01 F600 X-49.241 Y21.094
G01 F600 X-49.279 Y21.060
G01 F600 X-49.335 Y21.033
G01 F600 X-49.382 Y21.011
G01 F600 X-49.439 Y20.972
G01 F600 X-49.463 Y20.967
G01 F600 X-49.535 Y20.935
G01 F600 X-49.600 Y20.888
G01 F600 X-49.639 Y20.844
G01 F600 X-49.663 Y20.833
G01 F600 X-49.731 Y20.783
G01 F600 X-49.790 Y20.757
G01 F600 X-49.852 Y20.711
G01 F600 X-49.883 Y20.680
G01 F600 X-49.929 Y20.629
G01 F600 X-49.957 Y20.594
G01 F600 X-50.003 Y20.560
G01 F600 X-50.040 Y20.527
G01 F600 X-50.094 Y20.503
G01 F600 X-50.160 Y20.455
G01 F600 X-50.214 Y20.388
G01 F600 X-50.250 Y20.362
G01 F600 X-50.275 Y20.349
G01 F600 X-50.337 Y20.304
G01 F600 X-50.386 Y20.248
G01 F600 X-50.414 Y20.213
G01 F600 X-50.464 Y20.176
G01 F600 X-50.512 Y20.121
G01 F600 X-50.540 Y20.101
G01 F600 X-50.594 Y20.040
G01 F600 X-50.627 Y19.977
G01 F600 X-50.667 Y19.948
G01 F600 X-50.719 Y19.890
G01 F600 X-50.754 Y19.835
G01 F600 X-50.791 Y19.791
G01 F600 X-50.819 Y19.770
G01 F600 X-50.873 Y19.711
G01 F600 X-50.905 Y19.656
G01 F600 X-50.924 Y19.634
G01 F600 X-50.954 Y19.580
G01 F600 X-50.972 Y19.567
G01 F600 X-51.025 Y19.508
G01 F600 X-51.055 Y19.456
G01 F600 X-51.076 Y19.437
G01 F600 X-51.126 Y19.382
G01 F600 X-51.159 Y19.328
G01 F600 X-51.203 Y19.279
G01 F600 X-51.243 Y19.210
G01 F600 X-51.252 Y19.183
G01 F600 X-51.279 Y19.152
G01 F600 X-51.311 Y19.097
G01 F600 X-51.330 Y19.076
G01 F600 X-51.370 Y19.007
G01 F600 X-51.394 Y18.931
G01 F600 X-51.397 Y18.909
G01 F600 X-51.406 Y18.898
G01 F600 X-51.446 Y18.829
G01 F600 X-51.469 Y18.761
G01 F600 X-51.482 Y18.746
G01 F600 X-51.514 Y18.691
G01 F600 X-51.533 Y18.670
G01 F600 X-51.573 Y18.601
G01 F600 X-51.597 Y18.526
G01 F600 X-51.602 Y18.488
G01 F600 X-51.616 Y18.455
G01 F600 X-51.648 Y18.400
G01 F600 X-51.666 Y18.354
G01 F600 X-51.700 Y18.296
G01 F600 X-51.724 Y18.221
G01 F600 X-51.730 Y18.179
G01 F600 X-51.747 Y18.117
G01 F600 X-51.776 Y18.067
G01 F600 X-51.801 Y17.991
G01 F600 X-51.809 Y17.916
G01 F600 X-51.809 Y17.865
G01 F600 X-51.824 Y17.812
G01 F600 X-51.852 Y17.762
G01 F600 X-51.877 Y17.687
G01 F600 X-51.885 Y17.611
G01 F600 X-51.885 Y17.565
G01 F600 X-51.903 Y17.534
G01 F600 X-51.928 Y17.458
G01 F600 X-51.936 Y17.383
G01 F600 X-51.936 Y17.324
G01 F600 X-51.932 Y17.288
G01 F600 X-51.934 Y17.261
G01 F600 X-51.953 Y17.204
G01 F600 X-51.961 Y17.129
G01 F600 X-51.961 Y17.032
G01 F600 X-51.979 Y17.000
G01 F600 X-52.004 Y16.925
G01 F600 X-52.012 Y16.849
G01 F600 X-52.012 Y16.486
G01 F600 X-52.004 Y16.410
G01 F600 X-51.980 Y16.337
G01 F600 X-52.004 Y16.264
G01 F600 X-52.012 Y16.189
G01 F600 X-52.012 Y16.155
G01 F600 X-52.004 Y16.080
G01 F600 X-51.980 Y16.005
G01 F600 X-52.229 Y16.005
G01 F600 X-52.307 Y15.989
G01 F600 X-52.380 Y15.956
G01 F600 X-52.445 Y15.910
G01 F600 X-52.498 Y15.850
G01 F600 X-52.538 Y15.781
G01 F600 X-52.563 Y15.705
G01 F600 X-52.571 Y15.630
G01 F600 X-52.571 Y15.546
G01 F600 X-52.563 Y15.471
G01 F600 X-52.538 Y15.395
G01 F600 X-52.498 Y15.325
G01 F600 X-52.445 Y15.266
G01 F600 X-52.380 Y15.219
G01 F600 X-52.307 Y15.187
G01 F600 X-52.229 Y15.170
G01 F600 X-51.997 Y15.170
G01 F600 X-51.919 Y15.187
G01 F600 X-51.899 Y15.196
G01 F600 X-51.847 Y15.196
G01 F600 X-51.837 Y15.191
G01 F600 X-51.830 Y15.179
G01 F600 X-51.826 Y15.140
G01 F600 X-51.809 Y15.086
G01 F600 X-51.809 Y15.038
G01 F600 X-51.803 Y14.989
G01 F600 X-53.703 Y14.989
G01 F600 X-53.781 Y14.973
G01 F600 X-53.854 Y14.940
G01 F600 X-53.918 Y14.894
G01 F600 X-53.973 Y14.833
G01 F600 X-54.012 Y14.757
G01 F600 X-54.037 Y14.714
G01 F600 X-54.061 Y14.639
G01 F600 X-54.069 Y14.563
G01 F600 X-54.069 Y14.530
G01 F600 X-54.061 Y14.455
G01 F600 X-54.037 Y14.379
G01 F600 X-53.997 Y14.309
G01 F600 X-53.943 Y14.250
G01 F600 X-53.879 Y14.203
G01 F600 X-53.806 Y14.171
G01 F600 X-53.728 Y14.154
G01 F600 X-53.623 Y14.154
G01 F600 X-53.545 Y14.171
G01 F600 X-53.525 Y14.180
G01 F600 X-51.514 Y14.180
G01 F600 X-51.494 Y14.171
G01 F600 X-51.449 Y14.162
G01 F600 X-51.434 Y14.136
G01 F600 X-51.414 Y14.106
G01 F600 X-51.392 Y14.040
G01 F600 X-51.369 Y13.971
G01 F600 X-51.331 Y13.909
G01 F600 X-51.319 Y13.871
G01 F600 X-51.279 Y13.801
G01 F600 X-51.232 Y13.751
G01 F600 X-51.202 Y13.698
G01 F600 X-51.176 Y13.673
G01 F600 X-51.166 Y13.642
G01 F600 X-51.126 Y13.572
G01 F600 X-51.056 Y13.500
G01 F600 X-51.024 Y13.444
G01 F600 X-50.973 Y13.393
G01 F600 X-50.963 Y13.363
G01 F600 X-50.922 Y13.292
G01 F600 X-50.856 Y13.225
G01 F600 X-50.808 Y13.177
G01 F600 X-50.769 Y13.135
G01 F600 X-50.760 Y13.109
G01 F600 X-50.719 Y13.038
G01 F600 X-50.656 Y12.974
G01 F600 X-50.618 Y12.932
G01 F600 X-50.585 Y12.903
G01 F600 X-50.542 Y12.856
G01 F600 X-50.509 Y12.827
G01 F600 X-50.463 Y12.776
G01 F600 X-50.407 Y12.738
G01 F600 X-50.390 Y12.709
G01 F600 X-50.336 Y12.649
G01 F600 X-50.280 Y12.611
G01 F600 X-50.263 Y12.582
G01 F600 X-50.212 Y12.525
G01 F600 X-50.178 Y12.497
G01 F600 X-50.133 Y12.447
G01 F600 X-50.071 Y12.401
G01 F600 X-49.995 Y12.362
G01 F600 X-49.944 Y12.325
G01 F600 X-49.922 Y12.314
G01 F600 X-49.899 Y12.293
G01 F600 X-49.854 Y12.244
G01 F600 X-49.790 Y12.197
G01 F600 X-49.721 Y12.167
G01 F600 X-49.655 Y12.142
G01 F600 X-49.639 Y12.134
G01 F600 X-49.600 Y12.091
G01 F600 X-49.535 Y12.044
G01 F600 X-49.474 Y12.019
G01 F600 X-49.448 Y11.990
G01 F600 X-49.385 Y11.944
G01 F600 X-49.330 Y11.917
G01 F600 X-49.310 Y11.906
G01 F600 X-49.256 Y11.867
G01 F600 X-49.183 Y11.834
G01 F600 X-49.145 Y11.826
G01 F600 X-49.107 Y11.812
G01 F600 X-49.081 Y11.792
G01 F600 X-49.056 Y11.779
G01 F600 X-49.002 Y11.740
G01 F600 X-48.932 Y11.708
G01 F600 X-48.897 Y11.698
G01 F600 X-48.850 Y11.663
G01 F600 X-48.777 Y11.631
G01 F600 X-48.699 Y11.614
G01 F600 X-48.670 Y11.614
G01 F600 X-48.650 Y11.606
G01 F600 X-48.579 Y11.591
G01 F600 X-48.529 Y11.580
G01 F600 X-48.473 Y11.558
G01 F600 X-48.443 Y11.536
G01 F600 X-48.370 Y11.504
G01 F600 X-48.292 Y11.487
G01 F600 X-48.263 Y11.487
G01 F600 X-48.248 Y11.481
G01 F600 X-48.180 Y11.456
G01 F600 X-48.116 Y11.428
G01 F600 X-48.038 Y11.411
G01 F600 X-48.009 Y11.411
G01 F600 X-47.989 Y11.402
G01 F600 X-47.917 Y11.387
G01 F600 X-47.842 Y11.376
G01 F600 X-47.786 Y11.352
G01 F600 X-47.712 Y11.336
G01 F600 X-47.612 Y11.325
G01 F600 X-47.558 Y11.301
G01 F600 X-47.480 Y11.284
G01 F600 X-47.323 Y11.284
G01 F600 X-47.304 Y11.275
G01 F600 X-47.226 Y11.259
G01 F600 X-46.257 Y11.259
G01 F600 X-46.178 Y11.276
G01 F600 X-46.152 Y11.288
G01 F600 X-46.133 Y11.284
G01 F600 X-46.003 Y11.284
G01 F600 X-45.925 Y11.301
G01 F600 X-45.861 Y11.329
G01 F600 X-45.845 Y11.335
G01 F600 X-45.723 Y11.335
G01 F600 X-45.644 Y11.352
G01 F600 X-45.579 Y11.385
G01 F600 X-45.560 Y11.384
G01 F600 X-45.525 Y11.348
G01 F600 X-45.485 Y11.303
G01 F600 X-45.440 Y11.272
G01 F600 X-45.426 Y11.229
G01 F600 X-45.386 Y11.160
G01 F600 X-45.367 Y11.139
G01 F600 X-45.335 Y11.084
G01 F600 X-45.284 Y11.027
G01 F600 X-45.249 Y10.997
G01 F600 X-45.194 Y10.941
G01 F600 X-45.150 Y10.895
G01 F600 X-45.118 Y10.865
G01 F600 X-45.068 Y10.815
G01 F600 X-45.030 Y10.773
G01 F600 X-44.996 Y10.743
G01 F600 X-44.947 Y10.692
G01 F600 X-44.915 Y10.662
G01 F600 X-44.902 Y10.647
G01 F600 X-44.893 Y10.619
G01 F600 X-44.853 Y10.550
G01 F600 X-44.799 Y10.491
G01 F600 X-44.736 Y10.445
G01 F600 X-44.681 Y10.417
G01 F600 X-44.659 Y10.406
G01 F600 X-44.609 Y10.356
G01 F600 X-44.586 Y10.332
G01 F600 X-44.544 Y10.287
G01 F600 X-44.488 Y10.249
G01 F600 X-44.471 Y10.219
G01 F600 X-44.413 Y10.158
G01 F600 X-44.380 Y10.127
G01 F600 X-44.339 Y10.084
G01 F600 X-44.320 Y10.063
G01 F600 X-44.261 Y10.009
G01 F600 X-44.215 Y9.958
G01 F600 X-44.151 Y9.911
G01 F600 X-44.120 Y9.897
G01 F600 X-44.116 Y9.890
G01 F600 X-44.063 Y9.831
G01 F600 X-43.998 Y9.784
G01 F600 X-43.940 Y9.758
G01 F600 X-43.929 Y9.750
G01 F600 X-43.910 Y9.729
G01 F600 X-43.845 Y9.681
G01 F600 X-43.774 Y9.653
G01 F600 X-43.747 Y9.633
G01 F600 X-43.725 Y9.621
G01 F600 X-43.701 Y9.601
G01 F600 X-43.656 Y9.551
G01 F600 X-43.594 Y9.506
