( PCB Contour )
( Generated by Rapid-PCB.com )
( Material Size)
( X= 110.000, Y= 70.000, Z= 1.580)
()
G00
G17
G21
G40
G49
G54
G80
G90
G94
G00 F3000 Z3.000
M03 S9000
G00 F3000 X-33.817 Y37.035
G00 F1500 Z0
G01 F600 Z-0.200
G01 F600 X-33.895 Y37.018
G01 F600 X-33.962 Y36.984
G01 F600 X-34.351 Y36.984
G01 F600 X-34.428 Y36.968
G01 F600 X-34.496 Y36.933
G01 F600 X-34.681 Y36.933
G01 F600 X-34.757 Y36.917
G01 F600 X-34.778 Y36.908
G01 F600 X-34.960 Y36.908
G01 F600 X-35.038 Y36.891
G01 F600 X-35.106 Y36.857
G01 F600 X-35.138 Y36.857
G01 F600 X-35.214 Y36.841
G01 F600 X-35.235 Y36.832
G01 F600 X-35.291 Y36.832
G01 F600 X-35.367 Y36.815
G01 F600 X-35.429 Y36.788
G01 F600 X-35.454 Y36.779
G01 F600 X-35.521 Y36.764
G01 F600 X-35.589 Y36.730
G01 F600 X-35.621 Y36.730
G01 F600 X-35.697 Y36.714
G01 F600 X-35.718 Y36.705
G01 F600 X-35.773 Y36.705
G01 F600 X-35.849 Y36.688
G01 F600 X-35.920 Y36.657
G01 F600 X-35.959 Y36.628
G01 F600 X-36.027 Y36.628
G01 F600 X-36.103 Y36.612
G01 F600 X-36.174 Y36.581
G01 F600 X-36.230 Y36.540
G01 F600 X-36.262 Y36.520
G01 F600 X-36.306 Y36.511
G01 F600 X-36.327 Y36.501
G01 F600 X-36.357 Y36.501
G01 F600 X-36.434 Y36.485
G01 F600 X-36.501 Y36.455
G01 F600 X-36.545 Y36.430
G01 F600 X-36.613 Y36.397
G01 F600 X-36.667 Y36.368
G01 F600 X-36.715 Y36.358
G01 F600 X-36.793 Y36.317
G01 F600 X-36.840 Y36.307
G01 F600 X-36.880 Y36.290
G01 F600 X-36.916 Y36.282
G01 F600 X-36.988 Y36.250
G01 F600 X-37.039 Y36.212
G01 F600 X-37.069 Y36.206
G01 F600 X-37.140 Y36.174
G01 F600 X-37.193 Y36.135
G01 F600 X-37.215 Y36.123
G01 F600 X-37.256 Y36.100
G01 F600 X-37.318 Y36.072
G01 F600 X-37.368 Y36.034
G01 F600 X-37.399 Y36.028
G01 F600 X-37.470 Y35.996
G01 F600 X-37.539 Y35.946
G01 F600 X-37.598 Y35.920
G01 F600 X-37.647 Y35.882
G01 F600 X-37.678 Y35.876
G01 F600 X-37.749 Y35.844
G01 F600 X-37.818 Y35.793
G01 F600 X-37.876 Y35.768
G01 F600 X-37.930 Y35.729
G01 F600 X-37.955 Y35.715
G01 F600 X-38.016 Y35.671
G01 F600 X-38.058 Y35.624
G01 F600 X-38.080 Y35.608
G01 F600 X-38.135 Y35.596
G01 F600 X-38.206 Y35.565
G01 F600 X-38.268 Y35.520
G01 F600 X-38.324 Y35.464
G01 F600 X-38.340 Y35.446
G01 F600 X-38.359 Y35.438
G01 F600 X-38.420 Y35.393
G01 F600 X-38.528 Y35.286
G01 F600 X-38.571 Y35.235
G01 F600 X-38.598 Y35.215
G01 F600 X-38.629 Y35.185
G01 F600 X-38.642 Y35.170
G01 F600 X-38.669 Y35.164
G01 F600 X-38.740 Y35.133
G01 F600 X-38.803 Y35.087
G01 F600 X-38.841 Y35.043
G01 F600 X-38.867 Y35.031
G01 F600 X-38.930 Y34.985
G01 F600 X-38.982 Y34.927
G01 F600 X-39.005 Y34.887
G01 F600 X-39.016 Y34.878
G01 F600 X-39.070 Y34.853
G01 F600 X-39.134 Y34.807
G01 F600 X-39.181 Y34.752
G01 F600 X-39.210 Y34.731
G01 F600 X-39.256 Y34.676
G01 F600 X-39.284 Y34.656
G01 F600 X-39.340 Y34.600
G01 F600 X-39.384 Y34.549
G01 F600 X-39.413 Y34.528
G01 F600 X-39.459 Y34.473
G01 F600 X-39.489 Y34.451
G01 F600 X-39.537 Y34.396
G01 F600 X-39.563 Y34.377
G01 F600 X-39.619 Y34.321
G01 F600 X-39.669 Y34.266
G01 F600 X-39.702 Y34.202
G01 F600 X-39.743 Y34.173
G01 F600 X-39.795 Y34.115
G01 F600 X-39.834 Y34.047
G01 F600 X-39.838 Y34.035
G01 F600 X-39.883 Y34.015
G01 F600 X-39.946 Y33.969
G01 F600 X-39.998 Y33.912
G01 F600 X-40.037 Y33.844
G01 F600 X-40.045 Y33.819
G01 F600 X-40.076 Y33.788
G01 F600 X-40.125 Y33.734
G01 F600 X-40.161 Y33.672
G01 F600 X-40.162 Y33.670
G01 F600 X-40.210 Y33.681
G01 F600 X-40.260 Y33.691
G01 F600 X-40.318 Y33.717
G01 F600 X-40.394 Y33.733
G01 F600 X-40.577 Y33.733
G01 F600 X-40.597 Y33.742
G01 F600 X-40.672 Y33.758
G01 F600 X-40.900 Y33.769
G01 F600 X-40.953 Y33.793
G01 F600 X-41.029 Y33.809
G01 F600 X-41.361 Y33.809
G01 F600 X-41.439 Y33.793
G01 F600 X-41.507 Y33.758
G01 F600 X-41.996 Y33.758
G01 F600 X-42.068 Y33.743
G01 F600 X-42.101 Y33.733
G01 F600 X-42.326 Y33.733
G01 F600 X-42.404 Y33.716
G01 F600 X-42.472 Y33.682
G01 F600 X-42.529 Y33.682
G01 F600 X-42.606 Y33.666
G01 F600 X-42.626 Y33.657
G01 F600 X-42.707 Y33.657
G01 F600 X-42.785 Y33.640
G01 F600 X-42.864 Y33.600
G01 F600 X-42.910 Y33.590
G01 F600 X-42.978 Y33.559
G01 F600 X-43.018 Y33.537
G01 F600 X-43.047 Y33.528
G01 F600 X-43.114 Y33.513
G01 F600 X-43.176 Y33.486
G01 F600 X-43.201 Y33.477
G01 F600 X-43.266 Y33.463
G01 F600 X-43.306 Y33.445
G01 F600 X-43.342 Y33.437
G01 F600 X-43.413 Y33.406
G01 F600 X-43.469 Y33.365
G01 F600 X-43.501 Y33.345
G01 F600 X-43.546 Y33.336
G01 F600 X-43.585 Y33.318
G01 F600 X-43.622 Y33.310
G01 F600 X-43.690 Y33.280
G01 F600 X-43.733 Y33.255
G01 F600 X-43.795 Y33.227
G01 F600 X-43.845 Y33.190
G01 F600 X-43.876 Y33.183
G01 F600 X-43.947 Y33.151
G01 F600 X-44.016 Y33.101
G01 F600 X-44.074 Y33.075
G01 F600 X-44.127 Y33.037
G01 F600 X-44.152 Y33.023
G01 F600 X-44.219 Y32.974
G01 F600 X-44.277 Y32.948
G01 F600 X-44.346 Y32.898
G01 F600 X-44.404 Y32.872
G01 F600 X-44.467 Y32.826
G01 F600 X-44.520 Y32.767
G01 F600 X-44.548 Y32.715
G01 F600 X-44.569 Y32.699
G01 F600 X-44.589 Y32.677
G01 F600 X-44.604 Y32.670
G01 F600 X-44.648 Y32.645
G01 F600 X-44.709 Y32.618
G01 F600 X-44.772 Y32.572
G01 F600 X-44.824 Y32.515
G01 F600 X-44.841 Y32.486
G01 F600 X-44.887 Y32.466
G01 F600 X-44.948 Y32.421
G01 F600 X-45.005 Y32.365
G01 F600 X-45.048 Y32.314
G01 F600 X-45.077 Y32.292
G01 F600 X-45.125 Y32.237
G01 F600 X-45.151 Y32.218
G01 F600 X-45.207 Y32.162
G01 F600 X-45.256 Y32.108
G01 F600 X-45.292 Y32.046
G01 F600 X-45.315 Y32.004
G01 F600 X-45.360 Y31.958
G01 F600 X-45.404 Y31.907
G01 F600 X-45.432 Y31.887
G01 F600 X-45.484 Y31.829
G01 F600 X-45.516 Y31.773
G01 F600 X-45.532 Y31.756
G01 F600 X-45.561 Y31.719
G01 F600 X-45.610 Y31.683
G01 F600 X-45.662 Y31.626
G01 F600 X-45.701 Y31.558
G01 F600 X-45.710 Y31.530
G01 F600 X-45.738 Y31.498
G01 F600 X-45.777 Y31.431
G01 F600 X-45.787 Y31.402
G01 F600 X-45.815 Y31.372
G01 F600 X-45.846 Y31.316
G01 F600 X-45.866 Y31.294
G01 F600 X-45.906 Y31.218
G01 F600 X-45.923 Y31.189
G01 F600 X-45.942 Y31.168
G01 F600 X-45.981 Y31.100
G01 F600 X-46.000 Y31.036
G01 F600 X-46.018 Y31.016
G01 F600 X-46.050 Y30.961
G01 F600 X-46.069 Y30.940
G01 F600 X-46.108 Y30.872
G01 F600 X-46.131 Y30.799
G01 F600 X-46.135 Y30.773
G01 F600 X-46.145 Y30.762
G01 F600 X-46.184 Y30.695
G01 F600 X-46.212 Y30.610
G01 F600 X-46.231 Y30.541
G01 F600 X-46.253 Y30.503
G01 F600 X-46.272 Y30.483
G01 F600 X-46.311 Y30.415
G01 F600 X-46.335 Y30.341
G01 F600 X-46.342 Y30.269
G01 F600 X-46.358 Y30.211
G01 F600 X-46.387 Y30.161
G01 F600 X-46.411 Y30.087
G01 F600 X-46.419 Y30.013
G01 F600 X-46.419 Y29.987
G01 F600 X-46.434 Y29.931
G01 F600 X-46.463 Y29.882
G01 F600 X-46.487 Y29.808
G01 F600 X-46.495 Y29.733
G01 F600 X-46.494 Y29.662
G01 F600 X-46.514 Y29.628
G01 F600 X-46.538 Y29.553
G01 F600 X-46.546 Y29.480
G01 F600 X-46.546 Y29.447
G01 F600 X-46.542 Y29.411
G01 F600 X-46.545 Y29.382
G01 F600 X-46.563 Y29.325
G01 F600 X-46.571 Y29.251
G01 F600 X-46.571 Y29.152
G01 F600 X-46.590 Y29.120
G01 F600 X-46.614 Y29.046
G01 F600 X-46.622 Y28.972
G01 F600 X-46.622 Y28.584
G01 F600 X-46.614 Y28.510
G01 F600 X-46.596 Y28.452
G01 F600 X-46.596 Y28.442
G01 F600 X-46.614 Y28.385
G01 F600 X-46.622 Y28.311
G01 F600 X-46.622 Y28.253
G01 F600 X-46.614 Y28.179
G01 F600 X-46.595 Y28.119
G01 F600 X-46.848 Y28.119
G01 F600 X-46.924 Y28.103
G01 F600 X-46.995 Y28.072
G01 F600 X-47.058 Y28.026
G01 F600 X-47.110 Y27.968
G01 F600 X-47.149 Y27.900
G01 F600 X-47.173 Y27.826
G01 F600 X-47.181 Y27.752
G01 F600 X-47.181 Y27.644
G01 F600 X-47.173 Y27.570
G01 F600 X-47.149 Y27.496
G01 F600 X-47.110 Y27.428
G01 F600 X-47.058 Y27.370
G01 F600 X-46.995 Y27.325
G01 F600 X-46.924 Y27.293
G01 F600 X-46.848 Y27.277
G01 F600 X-46.617 Y27.277
G01 F600 X-46.545 Y27.292
G01 F600 X-46.483 Y27.311
G01 F600 X-46.442 Y27.293
G01 F600 X-46.436 Y27.239
G01 F600 X-46.419 Y27.185
G01 F600 X-46.419 Y27.161
G01 F600 X-46.411 Y27.087
G01 F600 X-46.408 Y27.078
G01 F600 X-48.321 Y27.078
G01 F600 X-48.398 Y27.062
G01 F600 X-48.474 Y27.025
G01 F600 X-48.474 Y27.025
G01 F600 X-48.519 Y27.005
G01 F600 X-48.582 Y26.959
G01 F600 X-48.634 Y26.901
G01 F600 X-48.673 Y26.834
G01 F600 X-48.697 Y26.760
G01 F600 X-48.705 Y26.686
G01 F600 X-48.705 Y26.628
G01 F600 X-48.697 Y26.554
G01 F600 X-48.673 Y26.480
G01 F600 X-48.634 Y26.412
G01 F600 X-48.582 Y26.354
G01 F600 X-48.519 Y26.309
G01 F600 X-48.448 Y26.277
G01 F600 X-48.372 Y26.261
G01 F600 X-48.243 Y26.261
G01 F600 X-48.165 Y26.277
G01 F600 X-48.097 Y26.311
G01 F600 X-46.163 Y26.300
G01 F600 X-46.111 Y26.277
G01 F600 X-46.074 Y26.269
G01 F600 X-46.070 Y26.261
G01 F600 X-46.024 Y26.205
G01 F600 X-46.002 Y26.140
G01 F600 X-46.002 Y26.140
G01 F600 X-45.981 Y26.073
G01 F600 X-45.942 Y26.006
G01 F600 X-45.924 Y25.986
G01 F600 X-45.902 Y25.942
G01 F600 X-45.865 Y25.879
G01 F600 X-45.846 Y25.858
G01 F600 X-45.815 Y25.803
G01 F600 X-45.787 Y25.771
G01 F600 X-45.777 Y25.743
G01 F600 X-45.738 Y25.675
G01 F600 X-45.692 Y25.625
G01 F600 X-45.662 Y25.574
G01 F600 X-45.610 Y25.516
G01 F600 X-45.585 Y25.498
G01 F600 X-45.574 Y25.464
G01 F600 X-45.535 Y25.396
G01 F600 X-45.485 Y25.340
G01 F600 X-45.450 Y25.311
G01 F600 X-45.395 Y25.255
G01 F600 X-45.362 Y25.219
G01 F600 X-45.331 Y25.166
G01 F600 X-45.268 Y25.102
G01 F600 X-45.231 Y25.061
G01 F600 X-45.197 Y25.032
G01 F600 X-45.155 Y24.985
G01 F600 X-45.131 Y24.964
G01 F600 X-45.098 Y24.931
G01 F600 X-45.076 Y24.906
G01 F600 X-45.019 Y24.867
G01 F600 X-45.002 Y24.837
G01 F600 X-44.949 Y24.779
G01 F600 X-44.892 Y24.740
G01 F600 X-44.874 Y24.709
G01 F600 X-44.809 Y24.644
G01 F600 X-44.768 Y24.600
G01 F600 X-44.747 Y24.576
G01 F600 X-44.685 Y24.532
G01 F600 X-44.659 Y24.518
G01 F600 X-44.620 Y24.475
G01 F600 X-44.556 Y24.429
G01 F600 X-44.498 Y24.403
G01 F600 X-44.485 Y24.393
G01 F600 X-44.467 Y24.373
G01 F600 X-44.404 Y24.327
G01 F600 X-44.333 Y24.296
G01 F600 X-44.306 Y24.290
G01 F600 X-44.291 Y24.274
G01 F600 X-44.258 Y24.245
G01 F600 X-44.213 Y24.195
G01 F600 X-44.150 Y24.149
G01 F600 X-44.084 Y24.120
G01 F600 X-44.040 Y24.102
G01 F600 X-44.010 Y24.068
G01 F600 X-43.947 Y24.023
G01 F600 X-43.878 Y23.992
G01 F600 X-43.842 Y23.981
G01 F600 X-43.794 Y23.946
G01 F600 X-43.723 Y23.914
G01 F600 X-43.662 Y23.903
G01 F600 X-43.617 Y23.870
G01 F600 X-43.550 Y23.840
G01 F600 X-43.507 Y23.825
G01 F600 X-43.464 Y23.794
G01 F600 X-43.397 Y23.764
G01 F600 X-43.329 Y23.739
G01 F600 X-43.266 Y23.711
G01 F600 X-43.190 Y23.695
G01 F600 X-43.134 Y23.695
G01 F600 X-43.118 Y23.688
G01 F600 X-43.050 Y23.663
G01 F600 X-42.991 Y23.637
G01 F600 X-42.922 Y23.612
G01 F600 X-42.860 Y23.584
G01 F600 X-42.784 Y23.568
G01 F600 X-42.753 Y23.568
G01 F600 X-42.737 Y23.561
G01 F600 X-42.668 Y23.536
G01 F600 X-42.606 Y23.508
G01 F600 X-42.529 Y23.492
G01 F600 X-42.423 Y23.492
G01 F600 X-42.403 Y23.483
G01 F600 X-42.330 Y23.467
G01 F600 X-42.229 Y23.456
G01 F600 X-42.174 Y23.432
G01 F600 X-42.098 Y23.416
G01 F600 X-42.045 Y23.416
G01 F600 X-41.976 Y23.406
G01 F600 X-41.920 Y23.381
G01 F600 X-41.844 Y23.365
G01 F600 X-40.877 Y23.365
G01 F600 X-40.799 Y23.381
G01 F600 X-40.729 Y23.416
G01 F600 X-40.623 Y23.416
G01 F600 X-40.547 Y23.432
G01 F600 X-40.485 Y23.460
G01 F600 X-40.465 Y23.467
G01 F600 X-40.343 Y23.467
G01 F600 X-40.267 Y23.483
G01 F600 X-40.246 Y23.492
G01 F600 X-40.226 Y23.492
G01 F600 X-40.177 Y23.490
G01 F600 X-40.151 Y23.461
G01 F600 X-40.117 Y23.432
G01 F600 X-40.076 Y23.386
G01 F600 X-40.029 Y23.341
G01 F600 X-39.998 Y23.288
G01 F600 X-39.979 Y23.267
G01 F600 X-39.947 Y23.211
G01 F600 X-39.901 Y23.162
G01 F600 X-39.871 Y23.110
G01 F600 X-39.821 Y23.054
G01 F600 X-39.787 Y23.026
G01 F600 X-39.743 Y22.976
G01 F600 X-39.681 Y22.931
G01 F600 X-39.660 Y22.921
G01 F600 X-39.644 Y22.902
G01 F600 X-39.622 Y22.883
G01 F600 X-39.592 Y22.831
G01 F600 X-39.542 Y22.776
G01 F600 X-39.495 Y22.731
G01 F600 X-39.464 Y22.677
G01 F600 X-39.400 Y22.613
G01 F600 X-39.362 Y22.570
G01 F600 X-39.299 Y22.524
G01 F600 X-39.267 Y22.510
G01 F600 X-39.261 Y22.501
G01 F600 X-39.209 Y22.443
G01 F600 X-39.147 Y22.398
G01 F600 X-39.102 Y22.375
G01 F600 X-39.095 Y22.361
G01 F600 X-39.058 Y22.297
G01 F600 X-39.008 Y22.242
G01 F600 X-38.975 Y22.213
G01 F600 X-38.930 Y22.163
G01 F600 X-38.867 Y22.117
G01 F600 X-38.848 Y22.109
G01 F600 X-38.828 Y22.087
G01 F600 X-38.767 Y22.043
G01 F600 X-38.745 Y22.031
G01 F600 X-38.721 Y22.010
G01 F600 X-38.676 Y21.960
G01 F600 X-38.613 Y21.914
G01 F600 X-38.581 Y21.900
G01 F600 X-38.576 Y21.891
G01 F600 X-38.523 Y21.833
G01 F600 X-38.460 Y21.787
G01 F600 X-38.389 Y21.755
G01 F600 X-38.330 Y21.744
G01 F600 X-38.313 Y21.729
G01 F600 X-38.257 Y21.673
G01 F600 X-38.219 Y21.630
G01 F600 X-38.156 Y21.584
G01 F600 X-38.088 Y21.554
G01 F600 X-38.050 Y21.542
G01 F600 X-38.013 Y21.503
G01 F600 X-37.990 Y21.478
G01 F600 X-37.929 Y21.433
G01 F600 X-37.904 Y21.420
G01 F600 X-37.852 Y21.382
G01 F600 X-37.777 Y21.343
G01 F600 X-37.726 Y21.306
G01 F600 X-37.702 Y21.293
G01 F600 X-37.649 Y21.255
G01 F600 X-37.573 Y21.216
G01 F600 X-37.521 Y21.178
G01 F600 X-37.450 Y21.146
G01 F600 X-37.413 Y21.138
G01 F600 X-37.373 Y21.121
G01 F600 X-37.346 Y21.115
G01 F600 X-37.330 Y21.097
G01 F600 X-37.267 Y21.051
G01 F600 X-37.196 Y21.019
G01 F600 X-37.119 Y21.003
G01 F600 X-37.102 Y21.003
G01 F600 X-37.063 Y20.975
G01 F600 X-36.995 Y20.944
G01 F600 X-36.959 Y20.932
G01 F600 X-36.923 Y20.893
G01 F600 X-36.860 Y20.848
G01 F600 X-36.789 Y20.816
G01 F600 X-36.713 Y20.800
G01 F600 X-36.696 Y20.800
G01 F600 X-36.657 Y20.771
G01 F600 X-36.586 Y20.740
G01 F600 X-36.510 Y20.723
G01 F600 X-36.480 Y20.723
G01 F600 X-36.459 Y20.714
G01 F600 X-36.394 Y20.700
G01 F600 X-36.371 Y20.692
G01 F600 X-36.355 Y20.683
G01 F600 X-36.301 Y20.644
G01 F600 X-36.229 Y20.612
G01 F600 X-36.150 Y20.599
G01 F600 X-36.128 Y20.590
G01 F600 X-36.098 Y20.568
G01 F600 X-36.027 Y20.536
G01 F600 X-35.951 Y20.520
G01 F600 X-35.921 Y20.520
G01 F600 X-35.900 Y20.511
G01 F600 X-35.827 Y20.495
G01 F600 X-35.703 Y20.485
G01 F600 X-35.695 Y20.480
G01 F600 X-35.641 Y20.441
G01 F600 X-35.570 Y20.409
G01 F600 X-35.494 Y20.393
G01 F600 X-35.387 Y20.393
G01 F600 X-35.371 Y20.386
G01 F600 X-35.302 Y20.361
G01 F600 X-35.240 Y20.333
G01 F600 X-35.163 Y20.317
G01 F600 X-35.011 Y20.317
G01 F600 X-34.941 Y20.329
G01 F600 X-34.924 Y20.326
G01 F600 X-34.888 Y20.310
G01 F600 X-34.820 Y20.285
G01 F600 X-34.757 Y20.257
G01 F600 X-34.681 Y20.241
G01 F600 X-34.600 Y20.241
G01 F600 X-34.327 Y20.230
G01 F600 X-34.275 Y20.206
G01 F600 X-34.198 Y20.190
G01 F600 X-33.990 Y20.190
G01 F600 X-33.970 Y20.181
G01 F600 X-33.894 Y20.165
G01 F600 X-33.258 Y20.165
G01 F600 X-33.188 Y20.177
G01 F600 X-33.132 Y20.165
G01 F600 X-32.927 Y20.165
G01 F600 X-32.850 Y20.181
G01 F600 X-32.820 Y20.194
G01 F600 X-32.801 Y20.190
G01 F600 X-32.698 Y20.190
G01 F600 X-32.648 Y20.201
G01 F600 X-32.598 Y20.190
G01 F600 X-32.444 Y20.190
G01 F600 X-32.366 Y20.207
G01 F600 X-32.298 Y20.241
G01 F600 X-32.190 Y20.241
G01 F600 X-32.112 Y20.257
G01 F600 X-32.044 Y20.292
G01 F600 X-31.911 Y20.292
G01 F600 X-31.834 Y20.308
G01 F600 X-31.814 Y20.317
G01 F600 X-31.758 Y20.317
G01 F600 X-31.680 Y20.334
G01 F600 X-31.602 Y20.374
G01 F600 X-31.561 Y20.383
G01 F600 X-31.516 Y20.393
G01 F600 X-31.377 Y20.393
G01 F600 X-31.301 Y20.409
G01 F600 X-31.239 Y20.437
G01 F600 X-31.214 Y20.446
G01 F600 X-31.147 Y20.461
G01 F600 X-31.068 Y20.501
G01 F600 X-31.022 Y20.511
G01 F600 X-31.001 Y20.520
G01 F600 X-30.945 Y20.520
G01 F600 X-30.867 Y20.537
G01 F600 X-30.789 Y20.577
G01 F600 X-30.742 Y20.587
G01 F600 X-30.671 Y20.619
G01 F600 X-30.632 Y20.647
G01 F600 X-30.615 Y20.647
G01 F600 X-30.537 Y20.664
G01 F600 X-30.459 Y20.704
G01 F600 X-30.412 Y20.714
G01 F600 X-30.372 Y20.732
G01 F600 X-30.336 Y20.740
G01 F600 X-30.265 Y20.771
G01 F600 X-30.226 Y20.800
G01 F600 X-30.158 Y20.800
G01 F600 X-30.082 Y20.816
G01 F600 X-30.011 Y20.848
G01 F600 X-29.957 Y20.886
G01 F600 X-29.933 Y20.899
G01 F600 X-29.878 Y20.938
G01 F600 X-29.853 Y20.943
G01 F600 X-29.785 Y20.973
G01 F600 X-29.742 Y20.998
G01 F600 X-29.712 Y21.011
G01 F600 X-29.675 Y21.019
G01 F600 X-29.604 Y21.051
G01 F600 X-29.551 Y21.089
G01 F600 X-29.527 Y21.103
G01 F600 X-29.471 Y21.141
G01 F600 X-29.447 Y21.146
G01 F600 X-29.379 Y21.176
G01 F600 X-29.335 Y21.201
G01 F600 X-29.274 Y21.229
G01 F600 X-29.205 Y21.279
G01 F600 X-29.147 Y21.305
G01 F600 X-29.094 Y21.343
G01 F600 X-29.069 Y21.357
G01 F600 X-29.002 Y21.406
G01 F600 X-28.944 Y21.432
G01 F600 X-28.882 Y21.476
G01 F600 X-28.860 Y21.498
G01 F600 X-28.843 Y21.508
G01 F600 X-28.802 Y21.532
G01 F600 X-28.741 Y21.559
G01 F600 X-28.679 Y21.603
G01 F600 X-28.657 Y21.626
G01 F600 X-28.637 Y21.636
G01 F600 X-28.576 Y21.681
G01 F600 X-28.535 Y21.727
G01 F600 X-28.521 Y21.735
G01 F600 X-28.461 Y21.762
G01 F600 X-28.392 Y21.812
G01 F600 X-28.334 Y21.838
G01 F600 X-28.273 Y21.883
G01 F600 X-28.242 Y21.913
G01 F600 X-28.204 Y21.955
G01 F600 X-28.191 Y21.964
G01 F600 X-28.131 Y21.991
G01 F600 X-28.067 Y22.037
G01 F600 X-28.020 Y22.092
G01 F600 X-27.991 Y22.113
G01 F600 X-27.952 Y22.157
G01 F600 X-27.928 Y22.168
G01 F600 X-27.866 Y22.213
G01 F600 X-27.836 Y22.243
G01 F600 X-27.790 Y22.294
G01 F600 X-27.762 Y22.330
G01 F600 X-27.712 Y22.367
G01 F600 X-27.665 Y22.422
G01 F600 X-27.638 Y22.442
G01 F600 X-27.582 Y22.497
G01 F600 X-27.536 Y22.548
G01 F600 X-27.508 Y22.584
G01 F600 X-27.460 Y22.619
G01 F600 X-27.378 Y22.701
G01 F600 X-27.334 Y22.752
G01 F600 X-27.307 Y22.772
G01 F600 X-27.251 Y22.828
G01 F600 X-27.207 Y22.879
G01 F600 X-27.178 Y22.900
G01 F600 X-27.131 Y22.955
G01 F600 X-27.104 Y22.975
G01 F600 X-27.023 Y23.056
G01 F600 X-26.974 Y23.110
G01 F600 X-26.936 Y23.178
G01 F600 X-26.927 Y23.203
G01 F600 X-26.896 Y23.234
G01 F600 X-26.847 Y23.288
G01 F600 X-26.814 Y23.346
G01 F600 X-26.801 Y23.361
G01 F600 X-26.773 Y23.383
G01 F600 X-26.719 Y23.442
G01 F600 X-26.679 Y23.521
G01 F600 X-26.664 Y23.547
G01 F600 X-26.647 Y23.559
G01 F600 X-26.617 Y23.590
G01 F600 X-26.568 Y23.644
G01 F600 X-26.536 Y23.699
G01 F600 X-26.518 Y23.719
G01 F600 X-26.484 Y23.773
G01 F600 X-26.442 Y23.821
G01 F600 X-26.408 Y23.875
G01 F600 X-26.365 Y23.923
G01 F600 X-26.327 Y23.988
G01 F600 X-26.308 Y24.035
G01 F600 X-26.276 Y24.090
G01 F600 X-26.257 Y24.137
G01 F600 X-26.224 Y24.194
G01 F600 X-26.215 Y24.223
G01 F600 X-26.191 Y24.251
G01 F600 X-26.163 Y24.271
G01 F600 X-26.111 Y24.329
G01 F600 X-26.073 Y24.395
G01 F600 X-26.054 Y24.442
G01 F600 X-26.021 Y24.498
G01 F600 X-25.998 Y24.567
G01 F600 X-25.984 Y24.583
G01 F600 X-25.945 Y24.651
G01 F600 X-25.936 Y24.679
G01 F600 X-25.908 Y24.710
G01 F600 X-25.876 Y24.766
G01 F600 X-25.857 Y24.787
G01 F600 X-25.818 Y24.854
G01 F600 X-25.794 Y24.928
G01 F600 X-25.789 Y24.981
G01 F600 X-25.781 Y24.990
G01 F600 X-25.742 Y25.057
G01 F600 X-25.715 Y25.138
G01 F600 X-25.699 Y25.178
G01 F600 X-25.673 Y25.223
G01 F600 X-25.654 Y25.244
G01 F600 X-25.615 Y25.311
G01 F600 X-25.591 Y25.386
G01 F600 X-25.585 Y25.438
G01 F600 X-25.577 Y25.447
G01 F600 X-25.538 Y25.514
G01 F600 X-25.514 Y25.588
G01 F600 X-25.507 Y25.663
G01 F600 X-25.507 Y25.669
G01 F600 X-25.501 Y25.675
G01 F600 X-25.462 Y25.743
G01 F600 X-25.438 Y25.817
G01 F600 X-25.433 Y25.870
G01 F600 X-25.425 Y25.879
G01 F600 X-25.386 Y25.946
G01 F600 X-25.362 Y26.021
G01 F600 X-25.356 Y26.088
G01 F600 X-25.335 Y26.124
G01 F600 X-25.311 Y26.198
G01 F600 X-25.303 Y26.273
G01 F600 X-25.304 Y26.297
G01 F600 X-25.288 Y26.354
G01 F600 X-25.259 Y26.403
G01 F600 X-25.235 Y26.478
G01 F600 X-25.227 Y26.552
G01 F600 X-25.228 Y26.623
G01 F600 X-25.208 Y26.657
G01 F600 X-25.184 Y26.730
G01 F600 X-25.179 Y26.772
G01 F600 X-25.159 Y26.833
G01 F600 X-25.151 Y26.907
G01 F600 X-25.151 Y27.031
G01 F600 X-25.132 Y27.064
G01 F600 X-25.108 Y27.138
G01 F600 X-25.100 Y27.212
G01 F600 X-25.100 Y27.287
G01 F600 X-25.083 Y27.341
G01 F600 X-25.075 Y27.415
G01 F600 X-25.075 Y27.437
G01 F600 X-25.056 Y27.470
G01 F600 X-25.032 Y27.544
G01 F600 X-25.024 Y27.618
G01 F600 X-25.024 Y27.651
G01 F600 X-25.026 Y27.673
G01 F600 X-25.024 Y27.694
G01 F600 X-25.024 Y27.778
G01 F600 X-25.026 Y27.800
G01 F600 X-25.024 Y27.821
G01 F600 X-25.024 Y27.854
G01 F600 X-25.032 Y27.928
G01 F600 X-25.041 Y27.955
G01 F600 X-25.034 Y27.979
G01 F600 X-25.005 Y28.029
G01 F600 X-24.981 Y28.103
G01 F600 X-24.973 Y28.177
G01 F600 X-24.973 Y28.311
G01 F600 X-24.976 Y28.333
G01 F600 X-24.973 Y28.355
G01 F600 X-24.973 Y28.591
G01 F600 X-24.976 Y28.612
G01 F600 X-24.973 Y28.634
G01 F600 X-24.973 Y28.667
G01 F600 X-24.976 Y28.689
G01 F600 X-24.973 Y28.710
G01 F600 X-24.973 Y28.845
G01 F600 X-24.980 Y28.905
G01 F600 X-24.973 Y28.965
G01 F600 X-24.973 Y29.048
G01 F600 X-24.981 Y29.122
G01 F600 X-25.005 Y29.196
G01 F600 X-25.028 Y29.235
G01 F600 X-25.024 Y29.269
G01 F600 X-25.024 Y29.454
G01 F600 X-25.032 Y29.528
G01 F600 X-25.056 Y29.602
G01 F600 X-25.078 Y29.643
G01 F600 X-25.075 Y29.676
G01 F600 X-25.075 Y29.784
G01 F600 X-25.083 Y29.858
G01 F600 X-25.100 Y29.913
G01 F600 X-25.100 Y29.937
G01 F600 X-25.103 Y29.959
G01 F600 X-25.100 Y29.980
G01 F600 X-25.100 Y30.064
G01 F600 X-25.108 Y30.138
G01 F600 X-25.132 Y30.212
G01 F600 X-25.151 Y30.245
G01 F600 X-25.151 Y30.267
G01 F600 X-25.159 Y30.341
G01 F600 X-25.182 Y30.413
G01 F600 X-25.211 Y30.470
G01 F600 X-25.227 Y30.499
G01 F600 X-25.227 Y30.521
G01 F600 X-25.235 Y30.595
G01 F600 X-25.259 Y30.669
G01 F600 X-25.278 Y30.702
G01 F600 X-25.278 Y30.724
G01 F600 X-25.286 Y30.798
G01 F600 X-25.303 Y30.852
G01 F600 X-25.303 Y30.927
G01 F600 X-25.311 Y31.001
G01 F600 X-25.335 Y31.076
G01 F600 X-25.373 Y31.137
G01 F600 X-25.381 Y31.166
G01 F600 X-25.387 Y31.230
G01 F600 X-25.411 Y31.304
G01 F600 X-25.451 Y31.372
G01 F600 X-25.487 Y31.411
G01 F600 X-25.489 Y31.433
G01 F600 X-25.517 Y31.517
G01 F600 X-25.517 Y31.517
G01 F600 X-25.539 Y31.584
G01 F600 X-25.577 Y31.646
G01 F600 X-25.583 Y31.665
G01 F600 X-25.583 Y31.689
G01 F600 X-25.591 Y31.763
G01 F600 X-25.615 Y31.837
G01 F600 X-25.654 Y31.905
G01 F600 X-25.673 Y31.926
G01 F600 X-25.704 Y31.981
G01 F600 X-25.715 Y31.993
G01 F600 X-25.718 Y32.017
G01 F600 X-25.742 Y32.091
G01 F600 X-25.778 Y32.155
G01 F600 X-25.799 Y32.186
G01 F600 X-25.818 Y32.244
G01 F600 X-25.857 Y32.311
G01 F600 X-25.876 Y32.332
G01 F600 X-25.906 Y32.385
G01 F600 X-25.915 Y32.397
G01 F600 X-25.921 Y32.449
G01 F600 X-25.945 Y32.523
G01 F600 X-25.984 Y32.591
G01 F600 X-26.003 Y32.612
G01 F600 X-26.035 Y32.667
G01 F600 X-26.063 Y32.698
G01 F600 X-26.072 Y32.726
G01 F600 X-26.112 Y32.795
G01 F600 X-26.170 Y32.854
G01 F600 X-26.180 Y32.870
G01 F600 X-26.199 Y32.930
G01 F600 X-26.238 Y32.998
G01 F600 X-26.285 Y33.049
G01 F600 X-26.313 Y33.094
G01 F600 X-26.325 Y33.131
G01 F600 X-26.354 Y33.188
G01 F600 X-26.390 Y33.251
G01 F600 X-26.409 Y33.272
G01 F600 X-26.441 Y33.327
G01 F600 X-26.491 Y33.383
G01 F600 X-26.525 Y33.412
G01 F600 X-26.545 Y33.435
G01 F600 X-26.554 Y33.463
G01 F600 X-26.593 Y33.531
G01 F600 X-26.643 Y33.586
G01 F600 X-26.665 Y33.605
G01 F600 X-26.695 Y33.657
G01 F600 X-26.723 Y33.689
G01 F600 X-26.732 Y33.717
G01 F600 X-26.772 Y33.785
G01 F600 X-26.829 Y33.845
G01 F600 X-26.864 Y33.878
G01 F600 X-26.912 Y33.926
G01 F600 X-26.964 Y33.978
G01 F600 X-26.988 Y34.003
G01 F600 X-27.002 Y34.017
G01 F600 X-27.012 Y34.047
G01 F600 X-27.051 Y34.115
G01 F600 X-27.101 Y34.171
G01 F600 X-27.134 Y34.199
G01 F600 X-27.176 Y34.245
G01 F600 X-27.223 Y34.290
G01 F600 X-27.254 Y34.343
G01 F600 X-27.307 Y34.402
G01 F600 X-27.360 Y34.438
G01 F600 X-27.370 Y34.458
G01 F600 X-27.406 Y34.521
G01 F600 X-27.458 Y34.579
G01 F600 X-27.520 Y34.624
G01 F600 X-27.575 Y34.651
G01 F600 X-27.592 Y34.661
G01 F600 X-27.618 Y34.683
G01 F600 X-27.674 Y34.739
G01 F600 X-27.710 Y34.780
G01 F600 X-27.744 Y34.809
G01 F600 X-27.789 Y34.858
G01 F600 X-27.851 Y34.904
G01 F600 X-27.897 Y34.926
G01 F600 X-27.901 Y34.936
G01 F600 X-27.940 Y35.004
G01 F600 X-27.992 Y35.062
G01 F600 X-28.055 Y35.107
G01 F600 X-28.126 Y35.139
G01 F600 X-28.134 Y35.141
G01 F600 X-28.143 Y35.156
G01 F600 X-28.195 Y35.214
G01 F600 X-28.256 Y35.258
G01 F600 X-28.281 Y35.272
G01 F600 X-28.333 Y35.310
G01 F600 X-28.354 Y35.320
G01 F600 X-28.373 Y35.341
G01 F600 X-28.436 Y35.387
G01 F600 X-28.455 Y35.395
G01 F600 X-28.474 Y35.417
G01 F600 X-28.536 Y35.462
G01 F600 X-28.562 Y35.475
G01 F600 X-28.601 Y35.519
G01 F600 X-28.663 Y35.564
G01 F600 X-28.719 Y35.592
G01 F600 X-28.790 Y35.628
G01 F600 X-28.840 Y35.665
G01 F600 X-28.865 Y35.678
G01 F600 X-28.916 Y35.715
G01 F600 X-28.941 Y35.729
G01 F600 X-28.993 Y35.767
G01 F600 X-29.048 Y35.794
G01 F600 X-29.068 Y35.805
G01 F600 X-29.122 Y35.844
G01 F600 X-29.187 Y35.873
G01 F600 X-29.231 Y35.891
G01 F600 X-29.262 Y35.925
G01 F600 X-29.324 Y35.970
G01 F600 X-29.379 Y35.998
G01 F600 X-29.398 Y36.008
G01 F600 X-29.452 Y36.047
G01 F600 X-29.520 Y36.078
G01 F600 X-29.556 Y36.088
G01 F600 X-29.604 Y36.123
G01 F600 X-29.671 Y36.153
G01 F600 X-29.740 Y36.178
G01 F600 X-29.802 Y36.206
G01 F600 X-29.879 Y36.222
G01 F600 X-29.895 Y36.222
G01 F600 X-29.933 Y36.250
G01 F600 X-29.988 Y36.277
G01 F600 X-30.008 Y36.288
G01 F600 X-30.059 Y36.325
G01 F600 X-30.084 Y36.339
G01 F600 X-30.138 Y36.377
G01 F600 X-30.209 Y36.409
G01 F600 X-30.285 Y36.425
G01 F600 X-30.302 Y36.425
G01 F600 X-30.341 Y36.453
G01 F600 X-30.412 Y36.485
G01 F600 X-30.488 Y36.501
G01 F600 X-30.518 Y36.501
G01 F600 X-30.535 Y36.509
G01 F600 X-30.603 Y36.534
G01 F600 X-30.666 Y36.561
G01 F600 X-30.742 Y36.578
G01 F600 X-30.759 Y36.578
G01 F600 X-30.798 Y36.606
G01 F600 X-30.869 Y36.638
G01 F600 X-30.934 Y36.651
G01 F600 X-30.960 Y36.661
G01 F600 X-31.022 Y36.688
G01 F600 X-31.098 Y36.705
G01 F600 X-31.191 Y36.705
G01 F600 X-31.230 Y36.733
G01 F600 X-31.301 Y36.765
G01 F600 X-31.377 Y36.781
G01 F600 X-31.572 Y36.781
G01 F600 X-31.611 Y36.809
G01 F600 X-31.682 Y36.841
G01 F600 X-31.747 Y36.855
G01 F600 X-31.772 Y36.864
G01 F600 X-31.834 Y36.892
G01 F600 X-31.911 Y36.908
G01 F600 X-32.063 Y36.908
G01 F600 X-32.121 Y36.898
G01 F600 X-32.165 Y36.917
G01 F600 X-32.238 Y36.933
G01 F600 X-32.364 Y36.944
G01 F600 X-32.419 Y36.968
G01 F600 X-32.495 Y36.984
G01 F600 X-32.649 Y36.984
G01 F600 X-32.686 Y36.976
G01 F600 X-32.722 Y36.984
G01 F600 X-32.975 Y36.995
G01 F600 X-33.028 Y37.019
G01 F600 X-33.104 Y37.035
G01 F600 X-33.259 Y37.035
G01 F600 X-33.283 Y37.030
G01 F600 X-33.308 Y37.035
G01 F600 X-33.411 Y37.035
G01 F600 X-33.489 Y37.018
G01 F600 X-33.511 Y37.007
G01 F600 X-33.536 Y37.019
G01 F600 X-33.612 Y37.035
G01 F600 X-33.817 Y37.035
G00 F3000 Z3.000
G00 F3000 X-33.423 Y35.997
G00 F1500 Z0
G01 F600 Z-0.200
G01 F600 X-33.386 Y35.989
G01 F600 X-33.178 Y35.989
G01 F600 X-33.157 Y35.980
G01 F600 X-33.081 Y35.964
G01 F600 X-32.600 Y35.952
G01 F600 X-32.547 Y35.929
G01 F600 X-32.471 Y35.913
G01 F600 X-32.339 Y35.913
G01 F600 X-32.319 Y35.903
G01 F600 X-32.247 Y35.888
G01 F600 X-32.172 Y35.878
G01 F600 X-32.116 Y35.853
G01 F600 X-32.042 Y35.837
G01 F600 X-31.916 Y35.826
G01 F600 X-31.862 Y35.802
G01 F600 X-31.785 Y35.786
G01 F600 X-31.692 Y35.786
G01 F600 X-31.653 Y35.757
G01 F600 X-31.582 Y35.726
G01 F600 X-31.506 Y35.709
G01 F600 X-31.399 Y35.709
G01 F600 X-31.383 Y35.702
G01 F600 X-31.315 Y35.677
G01 F600 X-31.252 Y35.649
G01 F600 X-31.187 Y35.636
G01 F600 X-31.163 Y35.627
G01 F600 X-31.115 Y35.603
G01 F600 X-31.053 Y35.575
G01 F600 X-30.984 Y35.550
G01 F600 X-30.922 Y35.522
G01 F600 X-30.846 Y35.506
G01 F600 X-30.813 Y35.506
G01 F600 X-30.793 Y35.499
G01 F600 X-30.764 Y35.478
G01 F600 X-30.697 Y35.448
G01 F600 X-30.629 Y35.423
G01 F600 X-30.566 Y35.395
G01 F600 X-30.504 Y35.383
G01 F600 X-30.459 Y35.351
G01 F600 X-30.391 Y35.320
G01 F600 X-30.355 Y35.310
G01 F600 X-30.309 Y35.276
G01 F600 X-30.284 Y35.263
G01 F600 X-30.231 Y35.224
G01 F600 X-30.160 Y35.192
G01 F600 X-30.084 Y35.176
G01 F600 X-30.057 Y35.176
G01 F600 X-30.030 Y35.161
G01 F600 X-29.979 Y35.124
G01 F600 X-29.954 Y35.110
G01 F600 X-29.903 Y35.073
G01 F600 X-29.878 Y35.059
G01 F600 X-29.826 Y35.022
G01 F600 X-29.770 Y34.994
G01 F600 X-29.751 Y34.983
G01 F600 X-29.697 Y34.945
G01 F600 X-29.629 Y34.914
G01 F600 X-29.593 Y34.902
G01 F600 X-29.557 Y34.863
G01 F600 X-29.494 Y34.818
G01 F600 X-29.423 Y34.786
G01 F600 X-29.381 Y34.777
G01 F600 X-29.346 Y34.763
G01 F600 X-29.319 Y34.743
G01 F600 X-29.294 Y34.729
G01 F600 X-29.241 Y34.691
G01 F600 X-29.228 Y34.685
G01 F600 X-29.203 Y34.642
G01 F600 X-29.151 Y34.584
G01 F600 X-29.090 Y34.540
G01 F600 X-29.065 Y34.526
G01 F600 X-29.013 Y34.488
G01 F600 X-28.956 Y34.460
G01 F600 X-28.929 Y34.448
G01 F600 X-28.924 Y34.439
G01 F600 X-28.872 Y34.381
G01 F600 X-28.808 Y34.334
G01 F600 X-28.746 Y34.309
G01 F600 X-28.734 Y34.298
G01 F600 X-28.714 Y34.279
G01 F600 X-28.671 Y34.231
G01 F600 X-28.611 Y34.176
G01 F600 X-28.562 Y34.124
G01 F600 X-28.529 Y34.094
G01 F600 X-28.491 Y34.050
G01 F600 X-28.428 Y34.005
G01 F600 X-28.395 Y33.990
G01 F600 X-28.390 Y33.981
G01 F600 X-28.340 Y33.925
G01 F600 X-28.307 Y33.897
G01 F600 X-28.261 Y33.846
G01 F600 X-28.204 Y33.808
G01 F600 X-28.187 Y33.778
G01 F600 X-28.137 Y33.722
G01 F600 X-28.103 Y33.694
G01 F600 X-28.059 Y33.644
G01 F600 X-27.997 Y33.599
G01 F600 X-27.971 Y33.586
G01 F600 X-27.957 Y33.572
G01 F600 X-27.947 Y33.541
G01 F600 X-27.907 Y33.472
G01 F600 X-27.843 Y33.408
G01 F600 X-27.804 Y33.364
G01 F600 X-27.747 Y33.325
G01 F600 X-27.729 Y33.295
G01 F600 X-27.703 Y33.266
G01 F600 X-27.693 Y33.236
G01 F600 X-27.653 Y33.168
G01 F600 X-27.607 Y33.118
G01 F600 X-27.577 Y33.067
G01 F600 X-27.531 Y33.017
G01 F600 X-27.501 Y32.965
G01 F600 X-27.452 Y32.911
G01 F600 X-27.405 Y32.866
G01 F600 X-27.373 Y32.812
G01 F600 X-27.310 Y32.747
G01 F600 X-27.276 Y32.711
G01 F600 X-27.248 Y32.665
G01 F600 X-27.232 Y32.617
G01 F600 X-27.232 Y32.617
G01 F600 X-27.210 Y32.550
G01 F600 X-27.171 Y32.483
G01 F600 X-27.125 Y32.431
G01 F600 X-27.101 Y32.402
G01 F600 X-27.083 Y32.347
G01 F600 X-27.043 Y32.278
G01 F600 X-27.017 Y32.252
G01 F600 X-27.007 Y32.220
G01 F600 X-26.968 Y32.153
G01 F600 X-26.922 Y32.102
G01 F600 X-26.898 Y32.072
G01 F600 X-26.880 Y32.017
G01 F600 X-26.842 Y31.952
G01 F600 X-26.833 Y31.940
G01 F600 X-26.828 Y31.888
G01 F600 X-26.804 Y31.814
G01 F600 X-26.765 Y31.746
G01 F600 X-26.745 Y31.725
G01 F600 X-26.716 Y31.674
G01 F600 X-26.696 Y31.643
G01 F600 X-26.677 Y31.585
G01 F600 X-26.639 Y31.520
G01 F600 X-26.630 Y31.508
G01 F600 X-26.624 Y31.456
G01 F600 X-26.600 Y31.381
G01 F600 X-26.562 Y31.319
G01 F600 X-26.549 Y31.279
G01 F600 X-26.511 Y31.218
G01 F600 X-26.499 Y31.179
G01 F600 X-26.461 Y31.114
G01 F600 X-26.452 Y31.102
G01 F600 X-26.447 Y31.051
G01 F600 X-26.428 Y30.986
G01 F600 X-26.421 Y30.923
G01 F600 X-26.397 Y30.848
G01 F600 X-26.358 Y30.781
G01 F600 X-26.339 Y30.760
G01 F600 X-26.309 Y30.707
G01 F600 X-26.300 Y30.695
G01 F600 X-26.294 Y30.643
G01 F600 X-26.270 Y30.569
G01 F600 X-26.251 Y30.536
G01 F600 X-26.251 Y30.514
G01 F600 X-26.249 Y30.492
G01 F600 X-26.251 Y30.470
G01 F600 X-26.251 Y30.412
G01 F600 X-26.243 Y30.338
G01 F600 X-26.222 Y30.274
G01 F600 X-26.218 Y30.237
G01 F600 X-26.195 Y30.166
G01 F600 X-26.173 Y30.118
G01 F600 X-26.167 Y30.059
G01 F600 X-26.143 Y29.985
G01 F600 X-26.124 Y29.952
G01 F600 X-26.124 Y29.854
G01 F600 X-26.117 Y29.780
G01 F600 X-26.099 Y29.720
G01 F600 X-26.099 Y29.650
G01 F600 X-26.097 Y29.628
G01 F600 X-26.099 Y29.607
G01 F600 X-26.099 Y29.574
G01 F600 X-26.091 Y29.500
G01 F600 X-26.067 Y29.425
G01 F600 X-26.047 Y29.393
G01 F600 X-26.047 Y29.383
G01 F600 X-26.042 Y29.336
G01 F600 X-26.048 Y29.276
G01 F600 X-26.048 Y28.964
G01 F600 X-26.040 Y28.890
G01 F600 X-26.019 Y28.828
G01 F600 X-26.023 Y28.794
G01 F600 X-26.023 Y28.710
G01 F600 X-26.019 Y28.676
G01 F600 X-26.023 Y28.641
G01 F600 X-26.023 Y28.507
G01 F600 X-26.015 Y28.433
G01 F600 X-25.991 Y28.359
G01 F600 X-25.983 Y28.346
G01 F600 X-25.991 Y28.332
G01 F600 X-26.015 Y28.258
G01 F600 X-26.022 Y28.188
G01 F600 X-26.040 Y28.131
G01 F600 X-26.048 Y28.057
G01 F600 X-26.048 Y27.974
G01 F600 X-26.040 Y27.900
G01 F600 X-26.028 Y27.863
G01 F600 X-26.040 Y27.826
G01 F600 X-26.048 Y27.752
G01 F600 X-26.048 Y27.628
G01 F600 X-26.067 Y27.596
G01 F600 X-26.091 Y27.521
G01 F600 X-26.098 Y27.452
G01 F600 X-26.116 Y27.395
G01 F600 X-26.124 Y27.321
G01 F600 X-26.124 Y27.273
G01 F600 X-26.143 Y27.240
G01 F600 X-26.167 Y27.166
G01 F600 X-26.175 Y27.092
G01 F600 X-26.175 Y27.070
G01 F600 X-26.194 Y27.037
G01 F600 X-26.218 Y26.963
G01 F600 X-26.226 Y26.889
G01 F600 X-26.226 Y26.831
G01 F600 X-26.222 Y26.796
G01 F600 X-26.223 Y26.783
G01 F600 X-26.231 Y26.774
G01 F600 X-26.270 Y26.707
G01 F600 X-26.294 Y26.633
G01 F600 X-26.302 Y26.559
G01 F600 X-26.302 Y26.501
G01 F600 X-26.307 Y26.495
G01 F600 X-26.346 Y26.427
G01 F600 X-26.370 Y26.353
G01 F600 X-26.378 Y26.279
G01 F600 X-26.378 Y26.247
G01 F600 X-26.384 Y26.241
G01 F600 X-26.416 Y26.185
G01 F600 X-26.434 Y26.165
G01 F600 X-26.473 Y26.097
G01 F600 X-26.497 Y26.023
G01 F600 X-26.505 Y25.949
G01 F600 X-26.505 Y25.926
G01 F600 X-26.523 Y25.877
G01 F600 X-26.561 Y25.834
G01 F600 X-26.600 Y25.767
G01 F600 X-26.625 Y25.692
G01 F600 X-26.630 Y25.640
G01 F600 X-26.638 Y25.631
G01 F600 X-26.677 Y25.564
G01 F600 X-26.701 Y25.489
G01 F600 X-26.703 Y25.467
G01 F600 X-26.712 Y25.460
G01 F600 X-26.765 Y25.402
G01 F600 X-26.804 Y25.335
G01 F600 X-26.827 Y25.262
G01 F600 X-26.833 Y25.223
G01 F600 X-26.847 Y25.187
G01 F600 X-26.881 Y25.122
G01 F600 X-26.898 Y25.093
G01 F600 X-26.917 Y25.072
G01 F600 X-26.956 Y25.004
G01 F600 X-26.976 Y24.939
G01 F600 X-26.992 Y24.927
G01 F600 X-27.044 Y24.869
G01 F600 X-27.084 Y24.800
G01 F600 X-27.101 Y24.736
G01 F600 X-27.119 Y24.724
G01 F600 X-27.171 Y24.666
G01 F600 X-27.210 Y24.598
G01 F600 X-27.219 Y24.570
G01 F600 X-27.247 Y24.539
G01 F600 X-27.279 Y24.484
G01 F600 X-27.298 Y24.463
G01 F600 X-27.337 Y24.395
G01 F600 X-27.346 Y24.367
G01 F600 X-27.374 Y24.336
G01 F600 X-27.413 Y24.268
G01 F600 X-27.421 Y24.243
G01 F600 X-27.453 Y24.211
G01 F600 X-27.497 Y24.160
G01 F600 X-27.525 Y24.140
G01 F600 X-27.577 Y24.082
G01 F600 X-27.616 Y24.014
G01 F600 X-27.640 Y23.944
G01 F600 X-27.650 Y23.931
G01 F600 X-27.676 Y23.912
G01 F600 X-27.733 Y23.856
G01 F600 X-27.776 Y23.805
G01 F600 X-27.805 Y23.783
G01 F600 X-27.853 Y23.728
G01 F600 X-27.881 Y23.708
G01 F600 X-27.933 Y23.650
G01 F600 X-27.972 Y23.582
G01 F600 X-27.978 Y23.563
G01 F600 X-28.001 Y23.546
G01 F600 X-28.059 Y23.505
G01 F600 X-28.110 Y23.447
G01 F600 X-28.143 Y23.395
G01 F600 X-28.215 Y23.323
G01 F600 X-28.263 Y23.269
G01 F600 X-28.272 Y23.254
G01 F600 X-28.280 Y23.252
G01 F600 X-28.351 Y23.220
G01 F600 X-28.413 Y23.175
G01 F600 X-28.494 Y23.094
G01 F600 X-28.543 Y23.040
G01 F600 X-28.579 Y22.977
G01 F600 X-28.588 Y22.960
G01 F600 X-28.631 Y22.941
G01 F600 X-28.684 Y22.902
G01 F600 X-28.709 Y22.888
G01 F600 X-28.765 Y22.848
G01 F600 X-28.814 Y22.810
G01 F600 X-28.872 Y22.768
G01 F600 X-28.908 Y22.725
G01 F600 X-28.941 Y22.718
G01 F600 X-29.012 Y22.687
G01 F600 X-29.075 Y22.640
G01 F600 X-29.123 Y22.585
G01 F600 X-29.141 Y22.572
G01 F600 X-29.166 Y22.558
G01 F600 X-29.227 Y22.514
G01 F600 X-29.279 Y22.456
G01 F600 X-29.285 Y22.446
G01 F600 X-29.322 Y22.427
G01 F600 X-29.367 Y22.407
G01 F600 X-29.421 Y22.369
G01 F600 X-29.446 Y22.355
G01 F600 X-29.513 Y22.306
G01 F600 X-29.569 Y22.281
G01 F600 X-29.620 Y22.248
G01 F600 X-29.677 Y22.236
G01 F600 X-29.748 Y22.204
G01 F600 X-29.812 Y22.158
G01 F600 X-29.849 Y22.116
G01 F600 X-29.880 Y22.109
G01 F600 X-29.951 Y22.077
G01 F600 X-30.015 Y22.031
G01 F600 X-30.034 Y22.009
G01 F600 X-30.050 Y22.002
G01 F600 X-30.093 Y21.977
G01 F600 X-30.151 Y21.952
G01 F600 X-30.191 Y21.929
G01 F600 X-30.220 Y21.920
G01 F600 X-30.287 Y21.906
G01 F600 X-30.358 Y21.874
G01 F600 X-30.397 Y21.846
G01 F600 X-30.414 Y21.846
G01 F600 X-30.490 Y21.829
G01 F600 X-30.561 Y21.798
G01 F600 X-30.621 Y21.754
G01 F600 X-30.658 Y21.721
G01 F600 X-30.713 Y21.696
G01 F600 X-30.752 Y21.668
G01 F600 X-30.820 Y21.668
G01 F600 X-30.892 Y21.652
G01 F600 X-30.931 Y21.640
G01 F600 X-30.998 Y21.626
G01 F600 X-31.066 Y21.596
G01 F600 X-31.109 Y21.571
G01 F600 X-31.167 Y21.545
G01 F600 X-31.211 Y21.520
G01 F600 X-31.222 Y21.515
G01 F600 X-31.303 Y21.515
G01 F600 X-31.379 Y21.499
G01 F600 X-31.441 Y21.472
G01 F600 X-31.466 Y21.462
G01 F600 X-31.531 Y21.448
G01 F600 X-31.552 Y21.439
G01 F600 X-31.633 Y21.439
G01 F600 X-31.709 Y21.423
G01 F600 X-31.771 Y21.396
G01 F600 X-31.796 Y21.386
G01 F600 X-31.862 Y21.372
G01 F600 X-31.933 Y21.341
G01 F600 X-31.972 Y21.312
G01 F600 X-31.989 Y21.312
G01 F600 X-32.013 Y21.307
G01 F600 X-32.038 Y21.312
G01 F600 X-32.242 Y21.312
G01 F600 X-32.320 Y21.296
G01 F600 X-32.388 Y21.261
G01 F600 X-32.522 Y21.261
G01 F600 X-32.598 Y21.245
G01 F600 X-32.619 Y21.236
G01 F600 X-32.928 Y21.236
G01 F600 X-33.006 Y21.220
G01 F600 X-33.074 Y21.185
G01 F600 X-33.589 Y21.185
G01 F600 X-33.651 Y21.172
G01 F600 X-33.672 Y21.172
G01 F600 X-33.727 Y21.192
G01 F600 X-33.790 Y21.220
G01 F600 X-33.866 Y21.236
G01 F600 X-34.071 Y21.236
G01 F600 X-34.108 Y21.228
G01 F600 X-34.146 Y21.236
G01 F600 X-34.303 Y21.236
G01 F600 X-34.324 Y21.245
G01 F600 X-34.397 Y21.261
G01 F600 X-34.523 Y21.272
G01 F600 X-34.578 Y21.296
G01 F600 X-34.654 Y21.312
G01 F600 X-34.785 Y21.312
G01 F600 X-34.806 Y21.321
G01 F600 X-34.878 Y21.337
G01 F600 X-34.953 Y21.347
G01 F600 X-35.005 Y21.370
G01 F600 X-35.074 Y21.395
G01 F600 X-35.136 Y21.423
G01 F600 X-35.212 Y21.439
G01 F600 X-35.319 Y21.439
G01 F600 X-35.335 Y21.447
G01 F600 X-35.404 Y21.471
G01 F600 X-35.467 Y21.499
G01 F600 X-35.543 Y21.515
G01 F600 X-35.636 Y21.515
G01 F600 X-35.675 Y21.544
G01 F600 X-35.742 Y21.574
G01 F600 X-35.810 Y21.598
G01 F600 X-35.873 Y21.626
G01 F600 X-35.949 Y21.642
G01 F600 X-35.984 Y21.642
G01 F600 X-36.001 Y21.649
G01 F600 X-36.030 Y21.671
G01 F600 X-36.103 Y21.703
G01 F600 X-36.177 Y21.716
G01 F600 X-36.204 Y21.728
G01 F600 X-36.260 Y21.739
G01 F600 X-36.272 Y21.752
G01 F600 X-36.335 Y21.798
G01 F600 X-36.408 Y21.830
G01 F600 X-36.487 Y21.844
G01 F600 X-36.509 Y21.852
G01 F600 X-36.538 Y21.874
G01 F600 X-36.610 Y21.906
G01 F600 X-36.671 Y21.919
G01 F600 X-36.704 Y21.955
G01 F600 X-36.767 Y22.001
G01 F600 X-36.838 Y22.033
G01 F600 X-36.877 Y22.041
G01 F600 X-36.916 Y22.056
G01 F600 X-36.945 Y22.077
G01 F600 X-37.010 Y22.106
G01 F600 X-37.054 Y22.124
G01 F600 X-37.085 Y22.158
G01 F600 X-37.146 Y22.203
G01 F600 X-37.222 Y22.242
G01 F600 X-37.275 Y22.280
G01 F600 X-37.341 Y22.310
G01 F600 X-37.385 Y22.328
G01 F600 X-37.415 Y22.361
G01 F600 X-37.478 Y22.407
G01 F600 X-37.497 Y22.416
G01 F600 X-37.517 Y22.438
G01 F600 X-37.580 Y22.483
G01 F600 X-37.640 Y22.510
G01 F600 X-37.653 Y22.519
G01 F600 X-37.695 Y22.565
G01 F600 X-37.756 Y22.609
G01 F600 X-37.832 Y22.650
G01 F600 X-37.847 Y22.666
G01 F600 X-37.906 Y22.710
G01 F600 X-37.940 Y22.730
G01 F600 X-37.974 Y22.768
G01 F600 X-38.031 Y22.810
G01 F600 X-38.084 Y22.848
G01 F600 X-38.126 Y22.895
G01 F600 X-38.188 Y22.940
G01 F600 X-38.216 Y22.954
G01 F600 X-38.263 Y23.002
G01 F600 X-38.304 Y23.047
G01 F600 X-38.365 Y23.092
G01 F600 X-38.388 Y23.104
G01 F600 X-38.412 Y23.125
G01 F600 X-38.455 Y23.172
G01 F600 X-38.488 Y23.201
G01 F600 X-38.534 Y23.251
G01 F600 X-38.590 Y23.290
G01 F600 X-38.608 Y23.320
G01 F600 X-38.658 Y23.376
G01 F600 X-38.692 Y23.405
G01 F600 X-38.748 Y23.461
G01 F600 X-38.785 Y23.503
G01 F600 X-38.818 Y23.531
G01 F600 X-38.839 Y23.554
G01 F600 X-38.848 Y23.582
G01 F600 X-38.887 Y23.650
G01 F600 X-38.939 Y23.708
G01 F600 X-39.001 Y23.753
G01 F600 X-39.028 Y23.767
G01 F600 X-39.076 Y23.815
G01 F600 X-39.115 Y23.858
G01 F600 X-39.148 Y23.887
G01 F600 X-39.160 Y23.899
G01 F600 X-39.192 Y23.955
G01 F600 X-39.238 Y24.005
G01 F600 X-39.268 Y24.056
G01 F600 X-39.287 Y24.077
G01 F600 X-39.319 Y24.133
G01 F600 X-39.373 Y24.190
G01 F600 X-39.381 Y24.217
G01 F600 X-39.421 Y24.286
G01 F600 X-39.485 Y24.350
G01 F600 X-39.499 Y24.367
G01 F600 X-39.508 Y24.395
G01 F600 X-39.547 Y24.463
G01 F600 X-39.593 Y24.514
G01 F600 X-39.617 Y24.543
G01 F600 X-39.635 Y24.598
G01 F600 X-39.675 Y24.666
G01 F600 X-39.722 Y24.717
G01 F600 X-39.750 Y24.763
G01 F600 X-39.763 Y24.802
G01 F600 X-39.802 Y24.870
G01 F600 X-39.848 Y24.920
G01 F600 X-39.878 Y24.972
G01 F600 X-39.888 Y24.982
G01 F600 X-39.891 Y25.007
G01 F600 X-39.915 Y25.081
G01 F600 X-39.951 Y25.144
G01 F600 X-39.972 Y25.175
G01 F600 X-39.991 Y25.233
G01 F600 X-40.029 Y25.299
G01 F600 X-40.075 Y25.356
G01 F600 X-40.093 Y25.411
G01 F600 X-40.132 Y25.479
G01 F600 X-40.159 Y25.508
G01 F600 X-40.173 Y25.548
G01 F600 X-40.173 Y25.548
G01 F600 X-40.193 Y25.612
G01 F600 X-40.225 Y25.678
G01 F600 X-40.245 Y25.742
G01 F600 X-40.282 Y25.803
G01 F600 X-40.290 Y25.832
G01 F600 X-40.297 Y25.896
G01 F600 X-40.321 Y25.970
G01 F600 X-40.359 Y26.035
G01 F600 X-40.368 Y26.047
G01 F600 X-40.373 Y26.099
G01 F600 X-40.397 Y26.170
G01 F600 X-40.428 Y26.237
G01 F600 X-40.448 Y26.300
G01 F600 X-40.486 Y26.365
G01 F600 X-40.493 Y26.374
G01 F600 X-40.493 Y26.431
G01 F600 X-40.500 Y26.506
G01 F600 X-40.523 Y26.576
G01 F600 X-40.545 Y26.624
G01 F600 X-40.551 Y26.683
G01 F600 X-40.575 Y26.757
G01 F600 X-40.614 Y26.825
G01 F600 X-40.620 Y26.831
G01 F600 X-40.620 Y26.889
G01 F600 X-40.627 Y26.963
G01 F600 X-40.651 Y27.037
G01 F600 X-40.670 Y27.070
G01 F600 X-40.670 Y27.092
G01 F600 X-40.678 Y27.166
G01 F600 X-40.696 Y27.220
G01 F600 X-40.696 Y27.371
G01 F600 X-40.704 Y27.445
G01 F600 X-40.727 Y27.516
G01 F600 X-40.747 Y27.560
G01 F600 X-40.747 Y27.575
G01 F600 X-40.754 Y27.649
G01 F600 X-40.772 Y27.703
G01 F600 X-40.772 Y27.752
G01 F600 X-40.776 Y27.787
G01 F600 X-40.772 Y27.822
G01 F600 X-40.772 Y28.235
G01 F600 X-40.780 Y28.309
G01 F600 X-40.804 Y28.383
G01 F600 X-40.823 Y28.416
G01 F600 X-40.823 Y28.733
G01 F600 X-40.804 Y28.766
G01 F600 X-40.780 Y28.840
G01 F600 X-40.772 Y28.914
G01 F600 X-40.772 Y28.972
G01 F600 X-40.779 Y29.036
G01 F600 X-40.779 Y29.053
G01 F600 X-40.772 Y29.117
G01 F600 X-40.772 Y29.276
G01 F600 X-40.780 Y29.350
G01 F600 X-40.784 Y29.362
G01 F600 X-40.780 Y29.373
G01 F600 X-40.772 Y29.447
G01 F600 X-40.772 Y29.471
G01 F600 X-40.754 Y29.526
G01 F600 X-40.748 Y29.594
G01 F600 X-40.728 Y29.629
G01 F600 X-40.704 Y29.703
G01 F600 X-40.696 Y29.777
G01 F600 X-40.696 Y29.810
G01 F600 X-40.704 Y29.884
G01 F600 X-40.707 Y29.895
G01 F600 X-40.700 Y29.915
G01 F600 X-40.678 Y29.983
G01 F600 X-40.674 Y30.022
G01 F600 X-40.651 Y30.061
G01 F600 X-40.627 Y30.136
G01 F600 X-40.621 Y30.203
G01 F600 X-40.601 Y30.239
G01 F600 X-40.577 Y30.313
G01 F600 X-40.569 Y30.387
G01 F600 X-40.569 Y30.410
G01 F600 X-40.551 Y30.466
G01 F600 X-40.545 Y30.533
G01 F600 X-40.524 Y30.569
G01 F600 X-40.500 Y30.643
G01 F600 X-40.493 Y30.717
G01 F600 X-40.493 Y30.747
G01 F600 X-40.493 Y30.774
G01 F600 X-40.487 Y30.781
G01 F600 X-40.448 Y30.850
G01 F600 X-40.426 Y30.925
G01 F600 X-40.398 Y30.975
G01 F600 X-40.370 Y31.059
G01 F600 X-40.350 Y31.129
G01 F600 X-40.321 Y31.179
G01 F600 X-40.297 Y31.252
G01 F600 X-40.292 Y31.294
G01 F600 X-40.274 Y31.357
G01 F600 X-40.252 Y31.395
G01 F600 X-40.233 Y31.416
G01 F600 X-40.194 Y31.483
G01 F600 X-40.171 Y31.556
G01 F600 X-40.167 Y31.583
G01 F600 X-40.157 Y31.594
G01 F600 X-40.118 Y31.661
G01 F600 X-40.093 Y31.738
G01 F600 X-40.072 Y31.776
G01 F600 X-40.030 Y31.822
G01 F600 X-39.991 Y31.890
G01 F600 X-39.967 Y31.964
G01 F600 X-39.960 Y32.034
G01 F600 X-39.956 Y32.045
G01 F600 X-39.928 Y32.076
G01 F600 X-39.897 Y32.132
G01 F600 X-39.878 Y32.153
G01 F600 X-39.839 Y32.220
G01 F600 X-39.829 Y32.248
G01 F600 X-39.801 Y32.280
G01 F600 X-39.762 Y32.348
G01 F600 X-39.743 Y32.413
G01 F600 X-39.727 Y32.425
G01 F600 X-39.674 Y32.483
G01 F600 X-39.635 Y32.552
G01 F600 X-39.614 Y32.627
G01 F600 X-39.588 Y32.672
G01 F600 X-39.565 Y32.714
G01 F600 X-39.469 Y32.810
G01 F600 X-39.421 Y32.863
G01 F600 X-39.388 Y32.917
G01 F600 X-39.344 Y32.965
G01 F600 X-39.305 Y33.033
G01 F600 X-39.294 Y33.067
G01 F600 X-39.269 Y33.085
G01 F600 X-39.217 Y33.144
G01 F600 X-39.179 Y33.211
G01 F600 X-39.142 Y33.238
G01 F600 X-39.095 Y33.293
G01 F600 X-39.066 Y33.314
G01 F600 X-39.013 Y33.373
G01 F600 X-38.972 Y33.452
G01 F600 X-38.954 Y33.488
G01 F600 X-38.915 Y33.516
G01 F600 X-38.859 Y33.572
G01 F600 X-38.815 Y33.623
G01 F600 X-38.787 Y33.644
G01 F600 X-38.738 Y33.699
G01 F600 X-38.709 Y33.735
G01 F600 X-38.659 Y33.772
G01 F600 X-38.613 Y33.826
G01 F600 X-38.583 Y33.848
G01 F600 X-38.536 Y33.903
G01 F600 X-38.509 Y33.922
G01 F600 X-38.452 Y33.979
G01 F600 X-38.409 Y34.030
G01 F600 X-38.382 Y34.049
G01 F600 X-38.249 Y34.182
G01 F600 X-38.206 Y34.233
G01 F600 X-38.186 Y34.247
G01 F600 X-38.157 Y34.265
G01 F600 X-38.113 Y34.284
G01 F600 X-38.048 Y34.331
G01 F600 X-37.999 Y34.394
G01 F600 X-37.961 Y34.411
G01 F600 X-37.892 Y34.462
G01 F600 X-37.834 Y34.487
G01 F600 X-37.772 Y34.532
G01 F600 X-37.716 Y34.588
G01 F600 X-37.700 Y34.606
G01 F600 X-37.681 Y34.614
G01 F600 X-37.621 Y34.658
G01 F600 X-37.558 Y34.717
G01 F600 X-37.504 Y34.741
G01 F600 X-37.450 Y34.780
G01 F600 X-37.425 Y34.794
G01 F600 X-37.363 Y34.839
G01 F600 X-37.316 Y34.897
G01 F600 X-37.312 Y34.898
G01 F600 X-37.245 Y34.913
G01 F600 X-37.173 Y34.945
G01 F600 X-37.120 Y34.983
G01 F600 X-37.095 Y34.997
G01 F600 X-37.028 Y35.046
G01 F600 X-36.970 Y35.072
G01 F600 X-36.920 Y35.109
G01 F600 X-36.889 Y35.116
G01 F600 X-36.818 Y35.148
G01 F600 X-36.755 Y35.194
G01 F600 X-36.725 Y35.227
G01 F600 X-36.686 Y35.227
G01 F600 X-36.610 Y35.243
G01 F600 X-36.542 Y35.273
G01 F600 X-36.499 Y35.298
G01 F600 X-36.468 Y35.311
G01 F600 X-36.432 Y35.319
G01 F600 X-36.361 Y35.351
G01 F600 X-36.304 Y35.390
G01 F600 X-36.279 Y35.395
G01 F600 X-36.207 Y35.428
G01 F600 X-36.146 Y35.475
G01 F600 X-36.123 Y35.487
G01 F600 X-36.076 Y35.497
G01 F600 X-36.037 Y35.515
G01 F600 X-35.998 Y35.523
G01 F600 X-35.920 Y35.563
G01 F600 X-35.873 Y35.573
G01 F600 X-35.852 Y35.582
G01 F600 X-35.771 Y35.582
G01 F600 X-35.695 Y35.599
G01 F600 X-35.624 Y35.630
G01 F600 X-35.569 Y35.670
G01 F600 X-35.547 Y35.684
G01 F600 X-35.492 Y35.684
G01 F600 X-35.416 Y35.700
G01 F600 X-35.395 Y35.709
G01 F600 X-35.365 Y35.709
G01 F600 X-35.289 Y35.726
G01 F600 X-35.227 Y35.753
G01 F600 X-35.201 Y35.763
G01 F600 X-35.136 Y35.776
G01 F600 X-35.116 Y35.786
G01 F600 X-35.060 Y35.786
G01 F600 X-34.982 Y35.802
G01 F600 X-34.914 Y35.836
G01 F600 X-34.857 Y35.836
G01 F600 X-34.781 Y35.853
G01 F600 X-34.710 Y35.884
G01 F600 X-34.671 Y35.913
G01 F600 X-34.349 Y35.913
G01 F600 X-34.273 Y35.929
G01 F600 X-34.211 Y35.956
G01 F600 X-34.185 Y35.966
G01 F600 X-34.172 Y35.969
G01 F600 X-34.148 Y35.963
G01 F600 X-33.790 Y35.963
G01 F600 X-33.720 Y35.978
G01 F600 X-33.675 Y35.989
G01 F600 X-33.460 Y35.989
G01 F600 X-33.423 Y35.997
G00 F3000 Z3.000
G00 F3000 X-51.395 Y34.062
G00 F1500 Z0
G01 F600 Z-0.200
G01 F600 X-51.920 Y33.950
G01 F600 X-52.410 Y33.732
G01 F600 X-52.845 Y33.416
G01 F600 X-53.204 Y33.017
G01 F600 X-53.472 Y32.553
G01 F600 X-53.638 Y32.042
G01 F600 X-53.694 Y31.508
G01 F600 X-53.638 Y30.974
G01 F600 X-53.472 Y30.463
G01 F600 X-53.204 Y29.999
G01 F600 X-52.845 Y29.600
G01 F600 X-52.410 Y29.284
G01 F600 X-51.920 Y29.066
G01 F600 X-51.395 Y28.954
G01 F600 X-50.858 Y28.954
G01 F600 X-50.333 Y29.066
G01 F600 X-49.843 Y29.284
G01 F600 X-49.408 Y29.600
G01 F600 X-49.049 Y29.999
G01 F600 X-48.781 Y30.463
G01 F600 X-48.615 Y30.974
G01 F600 X-48.559 Y31.508
G01 F600 X-48.615 Y32.042
G01 F600 X-48.781 Y32.553
G01 F600 X-49.049 Y33.017
G01 F600 X-49.408 Y33.416
G01 F600 X-49.843 Y33.732
G01 F600 X-50.333 Y33.950
G01 F600 X-50.858 Y34.062
G01 F600 X-51.395 Y34.062
G00 F3000 Z3.000
G00 F3000 X50.205 Y34.062
G00 F1500 Z0
G01 F600 Z-0.200
G01 F600 X49.680 Y33.950
G01 F600 X49.190 Y33.732
G01 F600 X48.755 Y33.416
G01 F600 X48.396 Y33.017
G01 F600 X48.128 Y32.553
G01 F600 X47.962 Y32.042
G01 F600 X47.906 Y31.508
G01 F600 X47.962 Y30.974
G01 F600 X48.128 Y30.463
G01 F600 X48.396 Y29.999
G01 F600 X48.755 Y29.600
G01 F600 X49.190 Y29.284
G01 F600 X49.680 Y29.066
G01 F600 X50.205 Y28.954
G01 F600 X50.742 Y28.954
G01 F600 X51.267 Y29.066
G01 F600 X51.757 Y29.284
G01 F600 X52.192 Y29.600
G01 F600 X52.551 Y29.999
G01 F600 X52.819 Y30.463
G01 F600 X52.985 Y30.974
G01 F600 X53.041 Y31.508
G01 F600 X52.985 Y32.042
G01 F600 X52.819 Y32.553
G01 F600 X52.551 Y33.017
G01 F600 X52.192 Y33.416
G01 F600 X51.757 Y33.732
G01 F600 X51.267 Y33.950
G01 F600 X50.742 Y34.062
G01 F600 X50.205 Y34.062
G00 F3000 Z3.000
G00 F3000 X-33.046 Y33.671
G00 F1500 Z0
G01 F600 Z-0.200
G01 F600 X-33.046 Y31.707
G01 F600 X-32.327 Y31.707
G01 F600 X-32.327 Y31.733
G01 F600 X-32.301 Y31.733
G01 F600 X-32.301 Y31.758
G01 F600 X-32.276 Y31.758
G01 F600 X-32.276 Y31.783
G01 F600 X-32.250 Y31.783
G01 F600 X-32.250 Y31.809
G01 F600 X-32.225 Y31.809
G01 F600 X-32.225 Y32.096
G01 F600 X-32.250 Y32.096
G01 F600 X-32.250 Y32.147
G01 F600 X-32.276 Y32.147
G01 F600 X-32.276 Y32.172
G01 F600 X-32.327 Y32.172
G01 F600 X-32.327 Y32.198
G01 F600 X-32.530 Y32.198
G01 F600 X-32.530 Y32.418
G01 F600 X-30.218 Y32.418
G01 F600 X-30.218 Y32.444
G01 F600 X-30.142 Y32.444
G01 F600 X-30.142 Y32.469
G01 F600 X-30.091 Y32.469
G01 F600 X-30.091 Y32.520
G01 F600 X-30.066 Y32.520
G01 F600 X-30.066 Y32.571
G01 F600 X-30.041 Y32.571
G01 F600 X-30.041 Y32.807
G01 F600 X-30.066 Y32.807
G01 F600 X-30.066 Y32.858
G01 F600 X-30.091 Y32.858
G01 F600 X-30.091 Y32.884
G01 F600 X-30.117 Y32.884
G01 F600 X-30.117 Y32.909
G01 F600 X-30.168 Y32.909
G01 F600 X-30.168 Y32.934
G01 F600 X-32.530 Y32.934
G01 F600 X-32.530 Y33.155
G01 F600 X-32.352 Y33.155
G01 F600 X-32.352 Y33.180
G01 F600 X-32.301 Y33.180
G01 F600 X-32.301 Y33.206
G01 F600 X-32.276 Y33.206
G01 F600 X-32.276 Y33.231
G01 F600 X-32.250 Y33.231
G01 F600 X-32.250 Y33.282
G01 F600 X-32.225 Y33.282
G01 F600 X-32.225 Y33.544
G01 F600 X-32.250 Y33.544
G01 F600 X-32.250 Y33.595
G01 F600 X-32.276 Y33.595
G01 F600 X-32.276 Y33.620
G01 F600 X-32.301 Y33.620
G01 F600 X-32.301 Y33.646
G01 F600 X-32.352 Y33.646
G01 F600 X-32.352 Y33.671
G01 F600 X-33.046 Y33.671
G00 F3000 Z3.000
G00 F3000 X-35.611 Y33.366
G00 F1500 Z0
G01 F600 Z-0.200
G01 F600 X-35.611 Y33.341
G01 F600 X-35.637 Y33.341
G01 F600 X-35.637 Y33.315
G01 F600 X-35.662 Y33.315
G01 F600 X-35.662 Y33.290
G01 F600 X-35.687 Y33.290
G01 F600 X-35.687 Y33.239
G01 F600 X-35.713 Y33.239
G01 F600 X-35.713 Y31.555
G01 F600 X-35.687 Y31.555
G01 F600 X-35.687 Y31.504
G01 F600 X-35.662 Y31.504
G01 F600 X-35.662 Y31.453
G01 F600 X-35.611 Y31.453
G01 F600 X-35.611 Y31.428
G01 F600 X-35.560 Y31.428
G01 F600 X-35.560 Y31.402
G01 F600 X-35.197 Y31.402
G01 F600 X-35.197 Y31.428
G01 F600 X-35.120 Y31.428
G01 F600 X-35.120 Y31.453
G01 F600 X-35.095 Y31.453
G01 F600 X-35.095 Y31.479
G01 F600 X-35.070 Y31.479
G01 F600 X-35.070 Y31.529
G01 F600 X-35.044 Y31.529
G01 F600 X-35.044 Y33.265
G01 F600 X-35.070 Y33.265
G01 F600 X-35.070 Y33.290
G01 F600 X-35.095 Y33.290
G01 F600 X-35.095 Y33.315
G01 F600 X-35.120 Y33.315
G01 F600 X-35.120 Y33.341
G01 F600 X-35.146 Y33.341
G01 F600 X-35.146 Y33.366
G01 F600 X-35.611 Y33.366
G00 F3000 Z3.000
G00 F3000 X-41.240 Y32.800
G00 F1500 Z0
G01 F600 Z-0.200
G01 F600 X-41.194 Y32.791
G01 F600 X-41.169 Y32.781
G01 F600 X-41.107 Y32.754
G01 F600 X-41.031 Y32.738
G01 F600 X-40.798 Y32.738
G01 F600 X-40.777 Y32.728
G01 F600 X-40.773 Y32.728
G01 F600 X-40.774 Y32.726
G01 F600 X-40.783 Y32.698
G01 F600 X-40.811 Y32.667
G01 F600 X-40.850 Y32.600
G01 F600 X-40.873 Y32.530
G01 F600 X-40.887 Y32.514
G01 F600 X-40.927 Y32.446
G01 F600 X-40.945 Y32.382
G01 F600 X-40.963 Y32.362
G01 F600 X-41.001 Y32.297
G01 F600 X-41.020 Y32.250
G01 F600 X-41.053 Y32.193
G01 F600 X-41.077 Y32.120
G01 F600 X-41.082 Y32.080
G01 F600 X-41.102 Y32.024
G01 F600 X-41.141 Y31.981
G01 F600 X-41.180 Y31.914
G01 F600 X-41.203 Y31.845
G01 F600 X-41.217 Y31.829
G01 F600 X-41.256 Y31.761
G01 F600 X-41.280 Y31.687
G01 F600 X-41.288 Y31.613
G01 F600 X-41.288 Y31.581
G01 F600 X-41.293 Y31.575
G01 F600 X-41.332 Y31.507
G01 F600 X-41.356 Y31.433
G01 F600 X-41.361 Y31.394
G01 F600 X-41.383 Y31.355
G01 F600 X-41.407 Y31.280
G01 F600 X-41.413 Y31.228
G01 F600 X-41.420 Y31.219
G01 F600 X-41.459 Y31.152
G01 F600 X-41.483 Y31.078
G01 F600 X-41.491 Y31.004
G01 F600 X-41.491 Y30.954
G01 F600 X-41.509 Y30.900
G01 F600 X-41.513 Y30.861
G01 F600 X-41.535 Y30.821
G01 F600 X-41.560 Y30.747
G01 F600 X-41.564 Y30.708
G01 F600 X-41.584 Y30.672
G01 F600 X-41.595 Y30.704
G01 F600 X-41.595 Y30.704
G01 F600 X-41.617 Y30.771
G01 F600 X-41.655 Y30.835
G01 F600 X-41.667 Y30.872
G01 F600 X-41.706 Y30.940
G01 F600 X-41.725 Y30.961
G01 F600 X-41.758 Y31.017
G01 F600 X-41.813 Y31.075
G01 F600 X-41.836 Y31.100
G01 F600 X-41.892 Y31.138
G01 F600 X-41.910 Y31.168
G01 F600 X-41.927 Y31.188
G01 F600 X-41.949 Y31.232
G01 F600 X-41.986 Y31.295
G01 F600 X-42.039 Y31.354
G01 F600 X-42.095 Y31.392
G01 F600 X-42.113 Y31.422
G01 F600 X-42.165 Y31.480
G01 F600 X-42.226 Y31.525
G01 F600 X-42.302 Y31.564
G01 F600 X-42.353 Y31.601
G01 F600 X-42.378 Y31.614
G01 F600 X-42.431 Y31.653
G01 F600 X-42.502 Y31.685
G01 F600 X-42.577 Y31.700
G01 F600 X-42.643 Y31.704
G01 F600 X-42.648 Y31.709
G01 F600 X-42.711 Y31.755
G01 F600 X-42.782 Y31.786
G01 F600 X-42.855 Y31.802
G01 F600 X-42.981 Y31.813
G01 F600 X-43.036 Y31.837
G01 F600 X-43.112 Y31.853
G01 F600 X-43.342 Y31.853
G01 F600 X-43.420 Y31.837
G01 F600 X-43.488 Y31.802
G01 F600 X-43.749 Y31.802
G01 F600 X-43.825 Y31.786
G01 F600 X-43.846 Y31.777
G01 F600 X-43.876 Y31.777
G01 F600 X-43.952 Y31.761
G01 F600 X-44.023 Y31.729
G01 F600 X-44.078 Y31.689
G01 F600 X-44.115 Y31.667
G01 F600 X-44.159 Y31.644
G01 F600 X-44.206 Y31.634
G01 F600 X-44.243 Y31.617
G01 F600 X-44.193 Y31.667
G01 F600 X-44.157 Y31.708
G01 F600 X-44.133 Y31.719
G01 F600 X-44.070 Y31.765
G01 F600 X-44.018 Y31.822
G01 F600 X-44.013 Y31.831
G01 F600 X-43.980 Y31.846
G01 F600 X-43.919 Y31.890
G01 F600 X-43.863 Y31.946
G01 F600 X-43.815 Y32.000
G01 F600 X-43.790 Y32.043
G01 F600 X-43.777 Y32.049
G01 F600 X-43.726 Y32.087
G01 F600 X-43.694 Y32.094
G01 F600 X-43.616 Y32.134
G01 F600 X-43.569 Y32.144
G01 F600 X-43.498 Y32.176
G01 F600 X-43.429 Y32.226
G01 F600 X-43.371 Y32.252
G01 F600 X-43.318 Y32.291
G01 F600 X-43.294 Y32.303
G01 F600 X-43.245 Y32.335
G01 F600 X-43.188 Y32.347
G01 F600 X-43.117 Y32.379
G01 F600 X-43.064 Y32.418
G01 F600 X-43.039 Y32.431
G01 F600 X-43.002 Y32.458
G01 F600 X-42.985 Y32.458
G01 F600 X-42.907 Y32.475
G01 F600 X-42.828 Y32.515
G01 F600 X-42.782 Y32.525
G01 F600 X-42.742 Y32.543
G01 F600 X-42.704 Y32.551
G01 F600 X-42.625 Y32.591
G01 F600 X-42.579 Y32.601
G01 F600 X-42.558 Y32.611
G01 F600 X-42.452 Y32.611
G01 F600 X-42.375 Y32.627
G01 F600 X-42.313 Y32.654
G01 F600 X-42.288 Y32.664
G01 F600 X-42.221 Y32.678
G01 F600 X-42.153 Y32.712
G01 F600 X-42.096 Y32.712
G01 F600 X-42.021 Y32.728
G01 F600 X-41.989 Y32.741
G01 F600 X-41.971 Y32.738
G01 F600 X-41.715 Y32.738
G01 F600 X-41.637 Y32.754
G01 F600 X-41.569 Y32.788
G01 F600 X-41.310 Y32.788
G01 F600 X-41.240 Y32.800
G00 F3000 Z3.000
G00 F3000 X-13.130 Y32.497
G00 F1500 Z0
G01 F600 Z-0.200
G01 F600 X-13.334 Y32.453
G01 F600 X-13.524 Y32.369
G01 F600 X-13.692 Y32.247
G01 F600 X-13.831 Y32.092
G01 F600 X-13.934 Y31.912
G01 F600 X-13.999 Y31.715
G01 F600 X-14.020 Y31.508
G01 F600 X-13.999 Y31.301
G01 F600 X-13.934 Y31.104
G01 F600 X-13.831 Y30.924
G01 F600 X-13.692 Y30.769
G01 F600 X-13.524 Y30.647
G01 F600 X-13.399 Y30.592
G01 F600 X-13.399 Y29.913
G01 F600 X-13.537 Y29.852
G01 F600 X-13.709 Y29.726
G01 F600 X-13.852 Y29.568
G01 F600 X-13.959 Y29.383
G01 F600 X-14.025 Y29.180
G01 F600 X-14.047 Y28.968
G01 F600 X-14.025 Y28.756
G01 F600 X-13.959 Y28.553
G01 F600 X-13.852 Y28.368
G01 F600 X-13.709 Y28.210
G01 F600 X-13.537 Y28.084
G01 F600 X-13.342 Y27.998
G01 F600 X-13.133 Y27.953
G01 F600 X-12.920 Y27.953
G01 F600 X-12.711 Y27.998
G01 F600 X-12.516 Y28.084
G01 F600 X-12.344 Y28.210
G01 F600 X-12.201 Y28.368
G01 F600 X-12.094 Y28.553
G01 F600 X-12.028 Y28.756
G01 F600 X-12.006 Y28.968
G01 F600 X-12.028 Y29.180
G01 F600 X-12.094 Y29.383
G01 F600 X-12.201 Y29.568
G01 F600 X-12.344 Y29.726
G01 F600 X-12.516 Y29.852
G01 F600 X-12.654 Y29.913
G01 F600 X-12.654 Y30.592
G01 F600 X-12.530 Y30.647
G01 F600 X-12.361 Y30.769
G01 F600 X-12.222 Y30.924
G01 F600 X-12.119 Y31.104
G01 F600 X-12.054 Y31.301
G01 F600 X-12.033 Y31.508
G01 F600 X-12.054 Y31.715
G01 F600 X-12.119 Y31.912
G01 F600 X-12.222 Y32.092
G01 F600 X-12.361 Y32.247
G01 F600 X-12.530 Y32.369
G01 F600 X-12.719 Y32.453
G01 F600 X-12.923 Y32.497
G01 F600 X-13.130 Y32.497
G00 F3000 Z3.000
G00 F3000 X-18.210 Y32.497
G00 F1500 Z0
G01 F600 Z-0.200
G01 F600 X-18.414 Y32.453
G01 F600 X-18.604 Y32.369
G01 F600 X-18.772 Y32.247
G01 F600 X-18.911 Y32.092
G01 F600 X-19.015 Y31.912
G01 F600 X-19.079 Y31.715
G01 F600 X-19.100 Y31.508
G01 F600 X-19.079 Y31.301
G01 F600 X-19.015 Y31.104
G01 F600 X-18.911 Y30.924
G01 F600 X-18.772 Y30.769
G01 F600 X-18.604 Y30.647
G01 F600 X-18.481 Y30.593
G01 F600 X-18.504 Y28.965
G01 F600 X-18.496 Y28.891
G01 F600 X-18.472 Y28.816
G01 F600 X-18.433 Y28.749
G01 F600 X-18.381 Y28.691
G01 F600 X-18.318 Y28.645
G01 F600 X-18.252 Y28.616
G01 F600 X-17.703 Y28.396
G01 F600 X-17.704 Y28.384
G01 F600 X-17.682 Y28.172
G01 F600 X-17.616 Y27.969
G01 F600 X-17.510 Y27.784
G01 F600 X-17.367 Y27.626
G01 F600 X-17.194 Y27.500
G01 F600 X-16.999 Y27.413
G01 F600 X-16.791 Y27.369
G01 F600 X-16.577 Y27.369
G01 F600 X-16.369 Y27.413
G01 F600 X-16.174 Y27.500
G01 F600 X-16.001 Y27.626
G01 F600 X-15.859 Y27.784
G01 F600 X-15.752 Y27.969
G01 F600 X-15.686 Y28.172
G01 F600 X-15.664 Y28.384
G01 F600 X-15.686 Y28.596
G01 F600 X-15.752 Y28.799
G01 F600 X-15.859 Y28.984
G01 F600 X-16.001 Y29.142
G01 F600 X-16.174 Y29.268
G01 F600 X-16.369 Y29.354
G01 F600 X-16.577 Y29.399
G01 F600 X-16.791 Y29.399
G01 F600 X-16.999 Y29.354
G01 F600 X-17.194 Y29.268
G01 F600 X-17.367 Y29.142
G01 F600 X-17.420 Y29.083
G01 F600 X-17.756 Y29.218
G01 F600 X-17.736 Y30.591
G01 F600 X-17.610 Y30.647
G01 F600 X-17.441 Y30.769
G01 F600 X-17.302 Y30.924
G01 F600 X-17.198 Y31.104
G01 F600 X-17.134 Y31.301
G01 F600 X-17.113 Y31.508
G01 F600 X-17.134 Y31.715
G01 F600 X-17.198 Y31.912
G01 F600 X-17.302 Y32.092
G01 F600 X-17.441 Y32.247
G01 F600 X-17.610 Y32.369
G01 F600 X-17.799 Y32.453
G01 F600 X-18.003 Y32.497
G01 F600 X-18.210 Y32.497
G00 F3000 Z3.000
G00 F3000 X-8.050 Y32.497
G00 F1500 Z0
G01 F600 Z-0.200
G01 F600 X-8.254 Y32.453
G01 F600 X-8.444 Y32.369
G01 F600 X-8.612 Y32.247
G01 F600 X-8.751 Y32.092
G01 F600 X-8.854 Y31.912
G01 F600 X-8.919 Y31.715
G01 F600 X-8.940 Y31.508
G01 F600 X-8.919 Y31.301
G01 F600 X-8.854 Y31.104
G01 F600 X-8.751 Y30.924
G01 F600 X-8.612 Y30.769
G01 F600 X-8.444 Y30.647
G01 F600 X-8.254 Y30.563
G01 F600 X-8.050 Y30.520
G01 F600 X-7.843 Y30.520
G01 F600 X-7.639 Y30.563
G01 F600 X-7.450 Y30.647
G01 F600 X-7.281 Y30.769
G01 F600 X-7.142 Y30.924
G01 F600 X-7.038 Y31.104
G01 F600 X-6.974 Y31.301
G01 F600 X-6.953 Y31.508
G01 F600 X-6.974 Y31.715
G01 F600 X-7.038 Y31.912
G01 F600 X-7.142 Y32.092
G01 F600 X-7.281 Y32.247
G01 F600 X-7.450 Y32.369
G01 F600 X-7.639 Y32.453
G01 F600 X-7.843 Y32.497
G01 F600 X-8.050 Y32.497
G00 F3000 Z3.000
G00 F3000 X-23.290 Y32.497
G00 F1500 Z0
G01 F600 Z-0.200
G01 F600 X-23.494 Y32.453
G01 F600 X-23.684 Y32.369
G01 F600 X-23.852 Y32.247
G01 F600 X-23.991 Y32.092
G01 F600 X-24.095 Y31.912
G01 F600 X-24.159 Y31.715
G01 F600 X-24.180 Y31.508
G01 F600 X-24.159 Y31.301
G01 F600 X-24.095 Y31.104
G01 F600 X-23.991 Y30.924
G01 F600 X-23.852 Y30.769
G01 F600 X-23.684 Y30.647
G01 F600 X-23.494 Y30.563
G01 F600 X-23.290 Y30.520
G01 F600 X-23.083 Y30.520
G01 F600 X-22.879 Y30.563
G01 F600 X-22.690 Y30.647
G01 F600 X-22.521 Y30.769
G01 F600 X-22.382 Y30.924
G01 F600 X-22.279 Y31.104
G01 F600 X-22.214 Y31.301
G01 F600 X-22.193 Y31.508
G01 F600 X-22.214 Y31.715
G01 F600 X-22.279 Y31.912
G01 F600 X-22.382 Y32.092
G01 F600 X-22.521 Y32.247
G01 F600 X-22.690 Y32.369
G01 F600 X-22.879 Y32.453
G01 F600 X-23.083 Y32.497
G01 F600 X-23.290 Y32.497
G00 F3000 Z3.000
G00 F3000 X22.430 Y32.497
G00 F1500 Z0
G01 F600 Z-0.200
G01 F600 X22.226 Y32.453
G01 F600 X22.037 Y32.369
G01 F600 X21.868 Y32.247
G01 F600 X21.729 Y32.092
G01 F600 X21.626 Y31.912
G01 F600 X21.561 Y31.715
G01 F600 X21.540 Y31.508
G01 F600 X21.561 Y31.301
G01 F600 X21.626 Y31.104
G01 F600 X21.729 Y30.924
G01 F600 X21.868 Y30.769
G01 F600 X22.037 Y30.647
G01 F600 X22.160 Y30.592
G01 F600 X22.138 Y26.819
G01 F600 X20.979 Y26.802
G01 F600 X20.960 Y26.859
G01 F600 X20.850 Y27.050
G01 F600 X20.702 Y27.215
G01 F600 X20.523 Y27.345
G01 F600 X20.321 Y27.435
G01 F600 X20.104 Y27.481
G01 F600 X19.883 Y27.481
G01 F600 X19.666 Y27.435
G01 F600 X19.464 Y27.345
G01 F600 X19.285 Y27.215
G01 F600 X19.137 Y27.050
G01 F600 X19.027 Y26.859
G01 F600 X18.958 Y26.648
G01 F600 X18.935 Y26.428
G01 F600 X18.958 Y26.208
G01 F600 X19.027 Y25.998
G01 F600 X19.137 Y25.806
G01 F600 X19.285 Y25.641
G01 F600 X19.464 Y25.511
G01 F600 X19.666 Y25.421
G01 F600 X19.883 Y25.375
G01 F600 X20.104 Y25.375
G01 F600 X20.321 Y25.421
G01 F600 X20.523 Y25.511
G01 F600 X20.702 Y25.641
G01 F600 X20.850 Y25.806
G01 F600 X20.960 Y25.998
G01 F600 X20.981 Y26.060
G01 F600 X22.547 Y26.083
G01 F600 X22.623 Y26.099
G01 F600 X22.694 Y26.131
G01 F600 X22.758 Y26.177
G01 F600 X22.810 Y26.234
G01 F600 X22.849 Y26.302
G01 F600 X22.873 Y26.376
G01 F600 X22.880 Y26.450
G01 F600 X22.905 Y30.591
G01 F600 X23.030 Y30.647
G01 F600 X23.199 Y30.769
G01 F600 X23.338 Y30.924
G01 F600 X23.442 Y31.104
G01 F600 X23.506 Y31.301
G01 F600 X23.527 Y31.508
G01 F600 X23.506 Y31.715
G01 F600 X23.442 Y31.912
G01 F600 X23.338 Y32.092
G01 F600 X23.199 Y32.247
G01 F600 X23.030 Y32.369
G01 F600 X22.841 Y32.453
G01 F600 X22.637 Y32.497
G01 F600 X22.430 Y32.497
G00 F3000 Z3.000
G00 F3000 X35.130 Y32.497
G00 F1500 Z0
G01 F600 Z-0.200
G01 F600 X34.926 Y32.453
G01 F600 X34.736 Y32.369
G01 F600 X34.568 Y32.247
G01 F600 X34.429 Y32.092
G01 F600 X34.325 Y31.912
G01 F600 X34.261 Y31.715
G01 F600 X34.240 Y31.508
G01 F600 X34.261 Y31.301
G01 F600 X34.325 Y31.104
G01 F600 X34.429 Y30.924
G01 F600 X34.568 Y30.769
G01 F600 X34.736 Y30.647
G01 F600 X34.926 Y30.563
G01 F600 X35.130 Y30.520
G01 F600 X35.337 Y30.520
G01 F600 X35.541 Y30.563
G01 F600 X35.730 Y30.647
G01 F600 X35.899 Y30.769
G01 F600 X36.038 Y30.924
G01 F600 X36.142 Y31.104
G01 F600 X36.206 Y31.301
G01 F600 X36.227 Y31.508
G01 F600 X36.206 Y31.715
G01 F600 X36.142 Y31.912
G01 F600 X36.038 Y32.092
G01 F600 X35.899 Y32.247
G01 F600 X35.730 Y32.369
G01 F600 X35.541 Y32.453
G01 F600 X35.337 Y32.497
G01 F600 X35.130 Y32.497
G00 F3000 Z3.000
G00 F3000 X32.590 Y32.497
G00 F1500 Z0
G01 F600 Z-0.200
G01 F600 X32.386 Y32.453
G01 F600 X32.197 Y32.369
G01 F600 X32.028 Y32.247
G01 F600 X31.889 Y32.092
G01 F600 X31.786 Y31.912
G01 F600 X31.721 Y31.715
G01 F600 X31.700 Y31.508
G01 F600 X31.721 Y31.301
G01 F600 X31.786 Y31.104
G01 F600 X31.889 Y30.924
G01 F600 X32.028 Y30.769
G01 F600 X32.197 Y30.647
G01 F600 X32.321 Y30.592
G01 F600 X32.320 Y27.414
G01 F600 X32.164 Y27.345
G01 F600 X31.985 Y27.215
G01 F600 X31.837 Y27.050
G01 F600 X31.727 Y26.859
G01 F600 X31.658 Y26.648
G01 F600 X31.635 Y26.428
G01 F600 X31.658 Y26.208
G01 F600 X31.727 Y25.998
G01 F600 X31.837 Y25.806
G01 F600 X31.985 Y25.641
G01 F600 X32.164 Y25.511
G01 F600 X32.366 Y25.421
G01 F600 X32.583 Y25.375
G01 F600 X32.804 Y25.375
G01 F600 X33.021 Y25.421
G01 F600 X33.223 Y25.511
G01 F600 X33.402 Y25.641
G01 F600 X33.550 Y25.806
G01 F600 X33.660 Y25.998
G01 F600 X33.729 Y26.208
G01 F600 X33.752 Y26.428
G01 F600 X33.729 Y26.648
G01 F600 X33.660 Y26.859
G01 F600 X33.550 Y27.050
G01 F600 X33.402 Y27.215
G01 F600 X33.223 Y27.345
G01 F600 X33.066 Y27.414
G01 F600 X33.066 Y30.592
G01 F600 X33.191 Y30.647
G01 F600 X33.359 Y30.769
G01 F600 X33.498 Y30.924
G01 F600 X33.602 Y31.104
G01 F600 X33.666 Y31.301
G01 F600 X33.687 Y31.508
G01 F600 X33.666 Y31.715
G01 F600 X33.602 Y31.912
G01 F600 X33.498 Y32.092
G01 F600 X33.359 Y32.247
G01 F600 X33.191 Y32.369
G01 F600 X33.001 Y32.453
G01 F600 X32.797 Y32.497
G01 F600 X32.590 Y32.497
G00 F3000 Z3.000
G00 F3000 X37.670 Y32.497
G00 F1500 Z0
G01 F600 Z-0.200
G01 F600 X37.466 Y32.453
G01 F600 X37.276 Y32.369
G01 F600 X37.108 Y32.247
G01 F600 X36.969 Y32.092
G01 F600 X36.866 Y31.912
G01 F600 X36.801 Y31.715
G01 F600 X36.780 Y31.508
G01 F600 X36.801 Y31.301
G01 F600 X36.866 Y31.104
G01 F600 X36.969 Y30.924
G01 F600 X37.108 Y30.769
G01 F600 X37.276 Y30.647
G01 F600 X37.466 Y30.563
G01 F600 X37.670 Y30.520
G01 F600 X37.877 Y30.520
G01 F600 X38.081 Y30.563
G01 F600 X38.270 Y30.647
G01 F600 X38.439 Y30.769
G01 F600 X38.578 Y30.924
G01 F600 X38.681 Y31.104
G01 F600 X38.746 Y31.301
G01 F600 X38.767 Y31.508
G01 F600 X38.746 Y31.715
G01 F600 X38.681 Y31.912
G01 F600 X38.578 Y32.092
G01 F600 X38.439 Y32.247
G01 F600 X38.270 Y32.369
G01 F600 X38.081 Y32.453
G01 F600 X37.877 Y32.497
G01 F600 X37.670 Y32.497
G00 F3000 Z3.000
G00 F3000 X-15.670 Y32.497
G00 F1500 Z0
G01 F600 Z-0.200
G01 F600 X-15.874 Y32.453
G01 F600 X-16.064 Y32.369
G01 F600 X-16.232 Y32.247
G01 F600 X-16.371 Y32.092
G01 F600 X-16.474 Y31.912
G01 F600 X-16.539 Y31.715
G01 F600 X-16.560 Y31.508
G01 F600 X-16.539 Y31.301
G01 F600 X-16.474 Y31.104
G01 F600 X-16.371 Y30.924
G01 F600 X-16.232 Y30.769
G01 F600 X-16.064 Y30.647
G01 F600 X-15.874 Y30.563
G01 F600 X-15.670 Y30.520
G01 F600 X-15.463 Y30.520
G01 F600 X-15.259 Y30.563
G01 F600 X-15.070 Y30.647
G01 F600 X-14.901 Y30.769
G01 F600 X-14.762 Y30.924
G01 F600 X-14.659 Y31.104
G01 F600 X-14.594 Y31.301
G01 F600 X-14.573 Y31.508
G01 F600 X-14.594 Y31.715
G01 F600 X-14.659 Y31.912
G01 F600 X-14.762 Y32.092
G01 F600 X-14.901 Y32.247
G01 F600 X-15.070 Y32.369
G01 F600 X-15.259 Y32.453
G01 F600 X-15.463 Y32.497
G01 F600 X-15.670 Y32.497
G00 F3000 Z3.000
G00 F3000 X24.970 Y32.497
G00 F1500 Z0
G01 F600 Z-0.200
G01 F600 X24.766 Y32.453
G01 F600 X24.577 Y32.369
G01 F600 X24.408 Y32.247
G01 F600 X24.269 Y32.092
G01 F600 X24.166 Y31.912
G01 F600 X24.101 Y31.715
G01 F600 X24.080 Y31.508
G01 F600 X24.101 Y31.301
G01 F600 X24.166 Y31.104
G01 F600 X24.269 Y30.924
G01 F600 X24.408 Y30.769
G01 F600 X24.577 Y30.647
G01 F600 X24.701 Y30.592
G01 F600 X24.700 Y27.414
G01 F600 X24.544 Y27.345
G01 F600 X24.365 Y27.215
G01 F600 X24.217 Y27.050
G01 F600 X24.107 Y26.859
G01 F600 X24.038 Y26.648
G01 F600 X24.015 Y26.428
G01 F600 X24.038 Y26.208
G01 F600 X24.107 Y25.998
G01 F600 X24.217 Y25.806
G01 F600 X24.365 Y25.641
G01 F600 X24.544 Y25.511
G01 F600 X24.746 Y25.421
G01 F600 X24.963 Y25.375
G01 F600 X25.184 Y25.375
G01 F600 X25.401 Y25.421
G01 F600 X25.603 Y25.511
G01 F600 X25.782 Y25.641
G01 F600 X25.930 Y25.806
G01 F600 X26.041 Y25.998
G01 F600 X26.109 Y26.208
G01 F600 X26.132 Y26.428
G01 F600 X26.109 Y26.648
G01 F600 X26.041 Y26.859
G01 F600 X25.930 Y27.050
G01 F600 X25.782 Y27.215
G01 F600 X25.603 Y27.345
G01 F600 X25.446 Y27.414
G01 F600 X25.446 Y30.592
G01 F600 X25.571 Y30.647
G01 F600 X25.739 Y30.769
G01 F600 X25.878 Y30.924
G01 F600 X25.982 Y31.104
G01 F600 X26.046 Y31.301
G01 F600 X26.067 Y31.508
G01 F600 X26.046 Y31.715
G01 F600 X25.982 Y31.912
G01 F600 X25.878 Y32.092
G01 F600 X25.739 Y32.247
G01 F600 X25.571 Y32.369
G01 F600 X25.381 Y32.453
G01 F600 X25.177 Y32.497
G01 F600 X24.970 Y32.497
G00 F3000 Z3.000
G00 F3000 X30.050 Y32.497
G00 F1500 Z0
G01 F600 Z-0.200
G01 F600 X29.846 Y32.453
G01 F600 X29.657 Y32.369
G01 F600 X29.488 Y32.247
G01 F600 X29.349 Y32.092
G01 F600 X29.245 Y31.912
G01 F600 X29.181 Y31.715
G01 F600 X29.160 Y31.508
G01 F600 X29.181 Y31.301
G01 F600 X29.245 Y31.104
G01 F600 X29.349 Y30.924
G01 F600 X29.488 Y30.769
G01 F600 X29.657 Y30.647
G01 F600 X29.781 Y30.592
G01 F600 X29.780 Y27.414
G01 F600 X29.624 Y27.345
G01 F600 X29.445 Y27.215
G01 F600 X29.297 Y27.050
G01 F600 X29.187 Y26.859
G01 F600 X29.118 Y26.648
G01 F600 X29.095 Y26.428
G01 F600 X29.118 Y26.208
G01 F600 X29.187 Y25.998
G01 F600 X29.297 Y25.806
G01 F600 X29.445 Y25.641
G01 F600 X29.624 Y25.511
G01 F600 X29.826 Y25.421
G01 F600 X30.043 Y25.375
G01 F600 X30.264 Y25.375
G01 F600 X30.481 Y25.421
G01 F600 X30.683 Y25.511
G01 F600 X30.862 Y25.641
G01 F600 X31.010 Y25.806
G01 F600 X31.120 Y25.998
G01 F600 X31.189 Y26.208
G01 F600 X31.212 Y26.428
G01 F600 X31.189 Y26.648
G01 F600 X31.120 Y26.859
G01 F600 X31.010 Y27.050
G01 F600 X30.862 Y27.215
G01 F600 X30.683 Y27.345
G01 F600 X30.526 Y27.414
G01 F600 X30.526 Y30.592
G01 F600 X30.651 Y30.647
G01 F600 X30.819 Y30.769
G01 F600 X30.958 Y30.924
G01 F600 X31.062 Y31.104
G01 F600 X31.126 Y31.301
G01 F600 X31.147 Y31.508
G01 F600 X31.126 Y31.715
G01 F600 X31.062 Y31.912
G01 F600 X30.958 Y32.092
G01 F600 X30.819 Y32.247
G01 F600 X30.651 Y32.369
G01 F600 X30.461 Y32.453
G01 F600 X30.257 Y32.497
G01 F600 X30.050 Y32.497
G00 F3000 Z3.000
G00 F3000 X27.510 Y32.497
G00 F1500 Z0
G01 F600 Z-0.200
G01 F600 X27.306 Y32.453
G01 F600 X27.117 Y32.369
G01 F600 X26.948 Y32.247
G01 F600 X26.809 Y32.092
G01 F600 X26.706 Y31.912
G01 F600 X26.641 Y31.715
G01 F600 X26.620 Y31.508
G01 F600 X26.641 Y31.301
G01 F600 X26.706 Y31.104
G01 F600 X26.809 Y30.924
G01 F600 X26.948 Y30.769
G01 F600 X27.117 Y30.647
G01 F600 X27.241 Y30.592
G01 F600 X27.240 Y27.414
G01 F600 X27.084 Y27.345
G01 F600 X26.905 Y27.215
G01 F600 X26.757 Y27.050
G01 F600 X26.646 Y26.859
G01 F600 X26.578 Y26.648
G01 F600 X26.555 Y26.428
G01 F600 X26.578 Y26.208
G01 F600 X26.646 Y25.998
G01 F600 X26.757 Y25.806
G01 F600 X26.905 Y25.641
G01 F600 X27.084 Y25.511
G01 F600 X27.286 Y25.421
G01 F600 X27.503 Y25.375
G01 F600 X27.724 Y25.375
G01 F600 X27.941 Y25.421
G01 F600 X28.143 Y25.511
G01 F600 X28.322 Y25.641
G01 F600 X28.470 Y25.806
G01 F600 X28.581 Y25.998
G01 F600 X28.649 Y26.208
G01 F600 X28.672 Y26.428
G01 F600 X28.649 Y26.648
G01 F600 X28.581 Y26.859
G01 F600 X28.470 Y27.050
G01 F600 X28.322 Y27.215
G01 F600 X28.143 Y27.345
G01 F600 X27.986 Y27.414
G01 F600 X27.986 Y30.592
G01 F600 X28.111 Y30.647
G01 F600 X28.279 Y30.769
G01 F600 X28.418 Y30.924
G01 F600 X28.521 Y31.104
G01 F600 X28.586 Y31.301
G01 F600 X28.607 Y31.508
G01 F600 X28.586 Y31.715
G01 F600 X28.521 Y31.912
G01 F600 X28.418 Y32.092
G01 F600 X28.279 Y32.247
G01 F600 X28.111 Y32.369
G01 F600 X27.921 Y32.453
G01 F600 X27.717 Y32.497
G01 F600 X27.510 Y32.497
G00 F3000 Z3.000
G00 F3000 X7.190 Y32.497
G00 F1500 Z0
G01 F600 Z-0.200
G01 F600 X6.986 Y32.453
G01 F600 X6.796 Y32.369
G01 F600 X6.628 Y32.247
G01 F600 X6.489 Y32.092
G01 F600 X6.386 Y31.912
G01 F600 X6.321 Y31.715
G01 F600 X6.300 Y31.508
G01 F600 X6.321 Y31.301
G01 F600 X6.386 Y31.104
G01 F600 X6.489 Y30.924
G01 F600 X6.628 Y30.769
G01 F600 X6.796 Y30.647
G01 F600 X6.921 Y30.592
G01 F600 X6.920 Y27.414
G01 F600 X6.764 Y27.345
G01 F600 X6.585 Y27.215
G01 F600 X6.437 Y27.050
G01 F600 X6.327 Y26.859
G01 F600 X6.258 Y26.648
G01 F600 X6.235 Y26.428
G01 F600 X6.258 Y26.208
G01 F600 X6.327 Y25.998
G01 F600 X6.437 Y25.806
G01 F600 X6.585 Y25.641
G01 F600 X6.764 Y25.511
G01 F600 X6.966 Y25.421
G01 F600 X7.183 Y25.375
G01 F600 X7.404 Y25.375
G01 F600 X7.621 Y25.421
G01 F600 X7.823 Y25.511
G01 F600 X8.002 Y25.641
G01 F600 X8.150 Y25.806
G01 F600 X8.261 Y25.998
G01 F600 X8.329 Y26.208
G01 F600 X8.352 Y26.428
G01 F600 X8.329 Y26.648
G01 F600 X8.261 Y26.859
G01 F600 X8.150 Y27.050
G01 F600 X8.002 Y27.215
G01 F600 X7.823 Y27.345
G01 F600 X7.666 Y27.414
G01 F600 X7.666 Y30.592
G01 F600 X7.791 Y30.647
G01 F600 X7.959 Y30.769
G01 F600 X8.098 Y30.924
G01 F600 X8.202 Y31.104
G01 F600 X8.266 Y31.301
G01 F600 X8.287 Y31.508
G01 F600 X8.266 Y31.715
G01 F600 X8.202 Y31.912
G01 F600 X8.098 Y32.092
G01 F600 X7.959 Y32.247
G01 F600 X7.791 Y32.369
G01 F600 X7.601 Y32.453
G01 F600 X7.397 Y32.497
G01 F600 X7.190 Y32.497
G00 F3000 Z3.000
G00 F3000 X4.650 Y32.497
G00 F1500 Z0
G01 F600 Z-0.200
G01 F600 X4.446 Y32.453
G01 F600 X4.256 Y32.369
G01 F600 X4.088 Y32.247
G01 F600 X3.949 Y32.092
G01 F600 X3.846 Y31.912
G01 F600 X3.781 Y31.715
G01 F600 X3.760 Y31.508
G01 F600 X3.781 Y31.301
G01 F600 X3.846 Y31.104
G01 F600 X3.949 Y30.924
G01 F600 X4.088 Y30.769
G01 F600 X4.256 Y30.647
G01 F600 X4.381 Y30.592
G01 F600 X4.380 Y27.414
G01 F600 X4.224 Y27.345
G01 F600 X4.045 Y27.215
G01 F600 X3.897 Y27.050
G01 F600 X3.787 Y26.859
G01 F600 X3.718 Y26.648
G01 F600 X3.695 Y26.428
G01 F600 X3.718 Y26.208
G01 F600 X3.787 Y25.998
G01 F600 X3.897 Y25.806
G01 F600 X4.045 Y25.641
G01 F600 X4.224 Y25.511
G01 F600 X4.426 Y25.421
G01 F600 X4.643 Y25.375
G01 F600 X4.864 Y25.375
G01 F600 X5.081 Y25.421
G01 F600 X5.283 Y25.511
G01 F600 X5.462 Y25.641
G01 F600 X5.610 Y25.806
G01 F600 X5.721 Y25.998
G01 F600 X5.789 Y26.208
G01 F600 X5.812 Y26.428
G01 F600 X5.789 Y26.648
G01 F600 X5.721 Y26.859
G01 F600 X5.610 Y27.050
G01 F600 X5.462 Y27.215
G01 F600 X5.283 Y27.345
G01 F600 X5.126 Y27.414
G01 F600 X5.126 Y30.592
G01 F600 X5.251 Y30.647
G01 F600 X5.419 Y30.769
G01 F600 X5.558 Y30.924
G01 F600 X5.662 Y31.104
G01 F600 X5.726 Y31.301
G01 F600 X5.747 Y31.508
G01 F600 X5.726 Y31.715
G01 F600 X5.662 Y31.912
G01 F600 X5.558 Y32.092
G01 F600 X5.419 Y32.247
G01 F600 X5.251 Y32.369
G01 F600 X5.061 Y32.453
G01 F600 X4.857 Y32.497
G01 F600 X4.650 Y32.497
G00 F3000 Z3.000
G00 F3000 X9.730 Y32.497
G00 F1500 Z0
G01 F600 Z-0.200
G01 F600 X9.526 Y32.453
G01 F600 X9.337 Y32.369
G01 F600 X9.168 Y32.247
G01 F600 X9.029 Y32.092
G01 F600 X8.925 Y31.912
G01 F600 X8.861 Y31.715
G01 F600 X8.840 Y31.508
G01 F600 X8.861 Y31.301
G01 F600 X8.925 Y31.104
G01 F600 X9.029 Y30.924
G01 F600 X9.168 Y30.769
G01 F600 X9.337 Y30.647
G01 F600 X9.461 Y30.592
G01 F600 X9.460 Y27.414
G01 F600 X9.304 Y27.345
G01 F600 X9.125 Y27.215
G01 F600 X8.977 Y27.050
G01 F600 X8.867 Y26.859
G01 F600 X8.798 Y26.648
G01 F600 X8.775 Y26.428
G01 F600 X8.798 Y26.208
G01 F600 X8.867 Y25.998
G01 F600 X8.977 Y25.806
G01 F600 X9.125 Y25.641
G01 F600 X9.304 Y25.511
G01 F600 X9.506 Y25.421
G01 F600 X9.723 Y25.375
G01 F600 X9.944 Y25.375
G01 F600 X10.161 Y25.421
G01 F600 X10.363 Y25.511
G01 F600 X10.542 Y25.641
G01 F600 X10.690 Y25.806
G01 F600 X10.801 Y25.998
G01 F600 X10.869 Y26.208
G01 F600 X10.892 Y26.428
G01 F600 X10.869 Y26.648
G01 F600 X10.801 Y26.859
G01 F600 X10.690 Y27.050
G01 F600 X10.542 Y27.215
G01 F600 X10.363 Y27.345
G01 F600 X10.206 Y27.414
G01 F600 X10.206 Y30.592
G01 F600 X10.331 Y30.647
G01 F600 X10.499 Y30.769
G01 F600 X10.638 Y30.924
G01 F600 X10.742 Y31.104
G01 F600 X10.806 Y31.301
G01 F600 X10.827 Y31.508
G01 F600 X10.806 Y31.715
G01 F600 X10.742 Y31.912
G01 F600 X10.638 Y32.092
G01 F600 X10.499 Y32.247
G01 F600 X10.331 Y32.369
G01 F600 X10.141 Y32.453
G01 F600 X9.937 Y32.497
G01 F600 X9.730 Y32.497
G00 F3000 Z3.000
G00 F3000 X40.210 Y32.497
G00 F1500 Z0
G01 F600 Z-0.200
G01 F600 X40.006 Y32.453
G01 F600 X39.817 Y32.369
G01 F600 X39.648 Y32.247
G01 F600 X39.509 Y32.092
G01 F600 X39.406 Y31.912
G01 F600 X39.341 Y31.715
G01 F600 X39.320 Y31.508
G01 F600 X39.341 Y31.301
G01 F600 X39.406 Y31.104
G01 F600 X39.509 Y30.924
G01 F600 X39.648 Y30.769
G01 F600 X39.817 Y30.647
G01 F600 X40.006 Y30.563
G01 F600 X40.210 Y30.520
G01 F600 X40.417 Y30.520
G01 F600 X40.621 Y30.563
G01 F600 X40.811 Y30.647
G01 F600 X40.979 Y30.769
G01 F600 X41.118 Y30.924
G01 F600 X41.221 Y31.104
G01 F600 X41.286 Y31.301
G01 F600 X41.307 Y31.508
G01 F600 X41.286 Y31.715
G01 F600 X41.221 Y31.912
G01 F600 X41.118 Y32.092
G01 F600 X40.979 Y32.247
G01 F600 X40.811 Y32.369
G01 F600 X40.621 Y32.453
G01 F600 X40.417 Y32.497
G01 F600 X40.210 Y32.497
G00 F3000 Z3.000
G00 F3000 X2.110 Y32.497
G00 F1500 Z0
G01 F600 Z-0.200
G01 F600 X1.906 Y32.453
G01 F600 X1.717 Y32.369
G01 F600 X1.548 Y32.247
G01 F600 X1.409 Y32.092
G01 F600 X1.306 Y31.912
G01 F600 X1.241 Y31.715
G01 F600 X1.220 Y31.508
G01 F600 X1.241 Y31.301
G01 F600 X1.306 Y31.104
G01 F600 X1.409 Y30.924
G01 F600 X1.548 Y30.769
G01 F600 X1.717 Y30.647
G01 F600 X1.841 Y30.592
G01 F600 X1.840 Y27.414
G01 F600 X1.684 Y27.345
G01 F600 X1.505 Y27.215
G01 F600 X1.357 Y27.050
G01 F600 X1.247 Y26.859
G01 F600 X1.178 Y26.648
G01 F600 X1.155 Y26.428
G01 F600 X1.178 Y26.208
G01 F600 X1.247 Y25.998
G01 F600 X1.357 Y25.806
G01 F600 X1.505 Y25.641
G01 F600 X1.684 Y25.511
G01 F600 X1.886 Y25.421
G01 F600 X2.103 Y25.375
G01 F600 X2.324 Y25.375
G01 F600 X2.541 Y25.421
G01 F600 X2.743 Y25.511
G01 F600 X2.922 Y25.641
G01 F600 X3.070 Y25.806
G01 F600 X3.181 Y25.998
G01 F600 X3.249 Y26.208
G01 F600 X3.272 Y26.428
G01 F600 X3.249 Y26.648
G01 F600 X3.181 Y26.859
G01 F600 X3.070 Y27.050
G01 F600 X2.922 Y27.215
G01 F600 X2.743 Y27.345
G01 F600 X2.586 Y27.414
G01 F600 X2.586 Y30.592
G01 F600 X2.711 Y30.647
G01 F600 X2.879 Y30.769
G01 F600 X3.018 Y30.924
G01 F600 X3.122 Y31.104
G01 F600 X3.186 Y31.301
G01 F600 X3.207 Y31.508
G01 F600 X3.186 Y31.715
G01 F600 X3.122 Y31.912
G01 F600 X3.018 Y32.092
G01 F600 X2.879 Y32.247
G01 F600 X2.711 Y32.369
G01 F600 X2.521 Y32.453
G01 F600 X2.317 Y32.497
G01 F600 X2.110 Y32.497
G00 F3000 Z3.000
G00 F3000 X-0.430 Y32.497
G00 F1500 Z0
G01 F600 Z-0.200
G01 F600 X-0.634 Y32.453
G01 F600 X-0.824 Y32.369
G01 F600 X-0.992 Y32.247
G01 F600 X-1.131 Y32.092
G01 F600 X-1.235 Y31.912
G01 F600 X-1.299 Y31.715
G01 F600 X-1.320 Y31.508
G01 F600 X-1.299 Y31.301
G01 F600 X-1.240 Y31.119
G01 F600 X-3.095 Y29.240
G01 F600 X-3.145 Y29.180
G01 F600 X-13.182 Y19.204
G01 F600 X-28.356 Y19.128
G01 F600 X-28.433 Y19.112
G01 F600 X-28.504 Y19.080
G01 F600 X-28.565 Y19.035
G01 F600 X-30.912 Y16.688
G01 F600 X-33.290 Y16.664
G01 F600 X-33.354 Y16.664
G01 F600 X-34.941 Y16.642
G01 F600 X-34.954 Y16.683
G01 F600 X-35.061 Y16.868
G01 F600 X-35.204 Y17.026
G01 F600 X-35.376 Y17.152
G01 F600 X-35.571 Y17.238
G01 F600 X-35.780 Y17.283
G01 F600 X-35.993 Y17.283
G01 F600 X-36.202 Y17.238
G01 F600 X-36.397 Y17.152
G01 F600 X-36.569 Y17.026
G01 F600 X-36.712 Y16.868
G01 F600 X-36.819 Y16.683
G01 F600 X-36.885 Y16.480
G01 F600 X-36.907 Y16.268
G01 F600 X-36.885 Y16.056
G01 F600 X-36.819 Y15.853
G01 F600 X-36.712 Y15.668
G01 F600 X-36.569 Y15.510
G01 F600 X-36.397 Y15.384
G01 F600 X-36.202 Y15.298
G01 F600 X-35.993 Y15.253
G01 F600 X-35.780 Y15.253
G01 F600 X-35.571 Y15.298
G01 F600 X-35.376 Y15.384
G01 F600 X-35.204 Y15.510
G01 F600 X-35.061 Y15.668
G01 F600 X-34.954 Y15.853
G01 F600 X-34.939 Y15.900
G01 F600 X-33.699 Y15.914
G01 F600 X-33.716 Y14.674
G01 F600 X-33.857 Y14.612
G01 F600 X-34.029 Y14.486
G01 F600 X-34.172 Y14.328
G01 F600 X-34.279 Y14.143
G01 F600 X-34.345 Y13.940
G01 F600 X-34.367 Y13.728
G01 F600 X-34.345 Y13.516
G01 F600 X-34.279 Y13.313
G01 F600 X-34.172 Y13.128
G01 F600 X-34.029 Y12.970
G01 F600 X-33.857 Y12.844
G01 F600 X-33.662 Y12.758
G01 F600 X-33.453 Y12.713
G01 F600 X-33.240 Y12.713
G01 F600 X-33.031 Y12.758
G01 F600 X-32.836 Y12.844
G01 F600 X-32.664 Y12.970
G01 F600 X-32.521 Y13.128
G01 F600 X-32.414 Y13.313
G01 F600 X-32.348 Y13.516
G01 F600 X-32.326 Y13.728
G01 F600 X-32.348 Y13.940
G01 F600 X-32.414 Y14.143
G01 F600 X-32.521 Y14.328
G01 F600 X-32.664 Y14.486
G01 F600 X-32.836 Y14.612
G01 F600 X-32.971 Y14.672
G01 F600 X-32.954 Y15.923
G01 F600 X-30.716 Y15.948
G01 F600 X-30.641 Y15.964
G01 F600 X-30.569 Y15.996
G01 F600 X-30.508 Y16.041
G01 F600 X-28.162 Y18.387
G01 F600 X-12.987 Y18.463
G01 F600 X-12.911 Y18.479
G01 F600 X-12.840 Y18.511
G01 F600 X-12.779 Y18.555
G01 F600 X-0.679 Y30.583
G01 F600 X-0.634 Y30.563
G01 F600 X-0.430 Y30.520
G01 F600 X-0.223 Y30.520
G01 F600 X-0.019 Y30.563
G01 F600 X0.171 Y30.647
G01 F600 X0.339 Y30.769
G01 F600 X0.478 Y30.924
G01 F600 X0.582 Y31.104
G01 F600 X0.646 Y31.301
G01 F600 X0.667 Y31.508
G01 F600 X0.646 Y31.715
G01 F600 X0.582 Y31.912
G01 F600 X0.478 Y32.092
G01 F600 X0.339 Y32.247
G01 F600 X0.171 Y32.369
G01 F600 X-0.019 Y32.453
G01 F600 X-0.223 Y32.497
G01 F600 X-0.430 Y32.497
G00 F3000 Z3.000
G00 F3000 X-20.750 Y32.497
G00 F1500 Z0
G01 F600 Z-0.200
G01 F600 X-20.954 Y32.453
G01 F600 X-21.143 Y32.369
G01 F600 X-21.312 Y32.247
G01 F600 X-21.451 Y32.092
G01 F600 X-21.555 Y31.912
G01 F600 X-21.619 Y31.715
G01 F600 X-21.640 Y31.508
G01 F600 X-21.619 Y31.301
G01 F600 X-21.555 Y31.104
G01 F600 X-21.451 Y30.924
G01 F600 X-21.312 Y30.769
G01 F600 X-21.143 Y30.647
G01 F600 X-20.954 Y30.563
G01 F600 X-20.750 Y30.520
G01 F600 X-20.543 Y30.520
G01 F600 X-20.339 Y30.563
G01 F600 X-20.149 Y30.647
G01 F600 X-19.981 Y30.769
G01 F600 X-19.842 Y30.924
G01 F600 X-19.739 Y31.104
G01 F600 X-19.674 Y31.301
G01 F600 X-19.653 Y31.508
G01 F600 X-19.674 Y31.715
G01 F600 X-19.739 Y31.912
G01 F600 X-19.842 Y32.092
G01 F600 X-19.981 Y32.247
G01 F600 X-20.149 Y32.369
G01 F600 X-20.339 Y32.453
G01 F600 X-20.543 Y32.497
G01 F600 X-20.750 Y32.497
G00 F3000 Z3.000
G00 F3000 X-10.590 Y32.497
G00 F1500 Z0
G01 F600 Z-0.200
G01 F600 X-10.794 Y32.453
G01 F600 X-10.984 Y32.369
G01 F600 X-11.152 Y32.247
G01 F600 X-11.291 Y32.092
G01 F600 X-11.395 Y31.912
G01 F600 X-11.459 Y31.715
G01 F600 X-11.480 Y31.508
G01 F600 X-11.459 Y31.301
G01 F600 X-11.395 Y31.104
G01 F600 X-11.291 Y30.924
G01 F600 X-11.152 Y30.769
G01 F600 X-10.984 Y30.647
G01 F600 X-10.859 Y30.592
G01 F600 X-10.859 Y26.824
G01 F600 X-20.686 Y26.824
G01 F600 X-20.762 Y26.808
G01 F600 X-20.833 Y26.776
G01 F600 X-20.895 Y26.731
G01 F600 X-22.783 Y24.819
G01 F600 X-22.871 Y24.858
G01 F600 X-23.080 Y24.903
G01 F600 X-23.293 Y24.903
G01 F600 X-23.502 Y24.858
G01 F600 X-23.697 Y24.772
G01 F600 X-23.869 Y24.646
G01 F600 X-24.012 Y24.488
G01 F600 X-24.119 Y24.303
G01 F600 X-24.185 Y24.100
G01 F600 X-24.207 Y23.888
G01 F600 X-24.185 Y23.676
G01 F600 X-24.119 Y23.473
G01 F600 X-24.012 Y23.288
G01 F600 X-23.869 Y23.130
G01 F600 X-23.697 Y23.004
G01 F600 X-23.502 Y22.918
G01 F600 X-23.293 Y22.873
G01 F600 X-23.080 Y22.873
G01 F600 X-22.871 Y22.918
G01 F600 X-22.676 Y23.004
G01 F600 X-22.504 Y23.130
G01 F600 X-22.361 Y23.288
G01 F600 X-22.254 Y23.473
G01 F600 X-22.188 Y23.676
G01 F600 X-22.166 Y23.888
G01 F600 X-22.188 Y24.100
G01 F600 X-22.253 Y24.298
G01 F600 X-20.490 Y26.083
G01 F600 X-10.447 Y26.083
G01 F600 X-10.371 Y26.099
G01 F600 X-10.300 Y26.131
G01 F600 X-10.237 Y26.177
G01 F600 X-10.185 Y26.234
G01 F600 X-10.146 Y26.302
G01 F600 X-10.122 Y26.376
G01 F600 X-10.114 Y26.450
G01 F600 X-10.114 Y30.592
G01 F600 X-9.989 Y30.647
G01 F600 X-9.821 Y30.769
G01 F600 X-9.682 Y30.924
G01 F600 X-9.579 Y31.104
G01 F600 X-9.514 Y31.301
G01 F600 X-9.493 Y31.508
G01 F600 X-9.514 Y31.715
G01 F600 X-9.579 Y31.912
G01 F600 X-9.682 Y32.092
G01 F600 X-9.821 Y32.247
G01 F600 X-9.989 Y32.369
G01 F600 X-10.179 Y32.453
G01 F600 X-10.383 Y32.497
G01 F600 X-10.590 Y32.497
G00 F3000 Z3.000
G00 F3000 X14.810 Y32.497
G00 F1500 Z0
G01 F600 Z-0.200
G01 F600 X14.606 Y32.453
G01 F600 X14.417 Y32.369
G01 F600 X14.248 Y32.247
G01 F600 X14.109 Y32.092
G01 F600 X14.006 Y31.912
G01 F600 X13.941 Y31.715
G01 F600 X13.920 Y31.508
G01 F600 X13.941 Y31.301
G01 F600 X14.006 Y31.104
G01 F600 X14.109 Y30.924
G01 F600 X14.248 Y30.769
G01 F600 X14.417 Y30.647
G01 F600 X14.541 Y30.592
G01 F600 X14.540 Y27.414
G01 F600 X14.384 Y27.345
G01 F600 X14.205 Y27.215
G01 F600 X14.057 Y27.050
G01 F600 X13.947 Y26.859
G01 F600 X13.878 Y26.648
G01 F600 X13.855 Y26.428
G01 F600 X13.878 Y26.208
G01 F600 X13.947 Y25.998
G01 F600 X14.057 Y25.806
G01 F600 X14.205 Y25.641
G01 F600 X14.384 Y25.511
G01 F600 X14.586 Y25.421
G01 F600 X14.803 Y25.375
G01 F600 X15.024 Y25.375
G01 F600 X15.241 Y25.421
G01 F600 X15.443 Y25.511
G01 F600 X15.622 Y25.641
G01 F600 X15.770 Y25.806
G01 F600 X15.881 Y25.998
G01 F600 X15.949 Y26.208
G01 F600 X15.972 Y26.428
G01 F600 X15.949 Y26.648
G01 F600 X15.881 Y26.859
G01 F600 X15.770 Y27.050
G01 F600 X15.622 Y27.215
G01 F600 X15.443 Y27.345
G01 F600 X15.286 Y27.414
G01 F600 X15.286 Y30.592
G01 F600 X15.411 Y30.647
G01 F600 X15.579 Y30.769
G01 F600 X15.718 Y30.924
G01 F600 X15.822 Y31.104
G01 F600 X15.886 Y31.301
G01 F600 X15.907 Y31.508
G01 F600 X15.886 Y31.715
G01 F600 X15.822 Y31.912
G01 F600 X15.718 Y32.092
G01 F600 X15.579 Y32.247
G01 F600 X15.411 Y32.369
G01 F600 X15.221 Y32.453
G01 F600 X15.017 Y32.497
G01 F600 X14.810 Y32.497
G00 F3000 Z3.000
G00 F3000 X12.270 Y32.497
G00 F1500 Z0
G01 F600 Z-0.200
G01 F600 X12.066 Y32.453
G01 F600 X11.877 Y32.369
G01 F600 X11.708 Y32.247
G01 F600 X11.569 Y32.092
G01 F600 X11.466 Y31.912
G01 F600 X11.401 Y31.715
G01 F600 X11.380 Y31.508
G01 F600 X11.401 Y31.301
G01 F600 X11.466 Y31.104
G01 F600 X11.569 Y30.924
G01 F600 X11.708 Y30.769
G01 F600 X11.877 Y30.647
G01 F600 X12.001 Y30.592
G01 F600 X12.000 Y27.414
G01 F600 X11.844 Y27.345
G01 F600 X11.665 Y27.215
G01 F600 X11.517 Y27.050
G01 F600 X11.407 Y26.859
G01 F600 X11.338 Y26.648
G01 F600 X11.315 Y26.428
G01 F600 X11.338 Y26.208
G01 F600 X11.407 Y25.998
G01 F600 X11.517 Y25.806
G01 F600 X11.665 Y25.641
G01 F600 X11.844 Y25.511
G01 F600 X12.046 Y25.421
G01 F600 X12.263 Y25.375
G01 F600 X12.484 Y25.375
G01 F600 X12.701 Y25.421
G01 F600 X12.903 Y25.511
G01 F600 X13.082 Y25.641
G01 F600 X13.230 Y25.806
G01 F600 X13.341 Y25.998
G01 F600 X13.409 Y26.208
G01 F600 X13.432 Y26.428
G01 F600 X13.409 Y26.648
G01 F600 X13.341 Y26.859
G01 F600 X13.230 Y27.050
G01 F600 X13.082 Y27.215
G01 F600 X12.903 Y27.345
G01 F600 X12.746 Y27.414
G01 F600 X12.746 Y30.592
G01 F600 X12.870 Y30.647
G01 F600 X13.039 Y30.769
G01 F600 X13.178 Y30.924
G01 F600 X13.282 Y31.104
G01 F600 X13.346 Y31.301
G01 F600 X13.367 Y31.508
G01 F600 X13.346 Y31.715
G01 F600 X13.282 Y31.912
G01 F600 X13.178 Y32.092
G01 F600 X13.039 Y32.247
G01 F600 X12.870 Y32.369
G01 F600 X12.681 Y32.453
G01 F600 X12.477 Y32.497
G01 F600 X12.270 Y32.497
G00 F3000 Z3.000
G00 F3000 X17.350 Y32.497
G00 F1500 Z0
G01 F600 Z-0.200
G01 F600 X17.146 Y32.453
G01 F600 X16.957 Y32.369
G01 F600 X16.788 Y32.247
G01 F600 X16.649 Y32.092
G01 F600 X16.546 Y31.912
G01 F600 X16.481 Y31.715
G01 F600 X16.460 Y31.508
G01 F600 X16.481 Y31.301
G01 F600 X16.546 Y31.104
G01 F600 X16.649 Y30.924
G01 F600 X16.788 Y30.769
G01 F600 X16.957 Y30.647
G01 F600 X17.081 Y30.592
G01 F600 X17.080 Y27.414
G01 F600 X16.924 Y27.345
G01 F600 X16.745 Y27.215
G01 F600 X16.597 Y27.050
G01 F600 X16.486 Y26.859
G01 F600 X16.418 Y26.648
G01 F600 X16.395 Y26.428
G01 F600 X16.418 Y26.208
G01 F600 X16.486 Y25.998
G01 F600 X16.597 Y25.806
G01 F600 X16.745 Y25.641
G01 F600 X16.924 Y25.511
G01 F600 X17.126 Y25.421
G01 F600 X17.343 Y25.375
G01 F600 X17.564 Y25.375
G01 F600 X17.781 Y25.421
G01 F600 X17.983 Y25.511
G01 F600 X18.162 Y25.641
G01 F600 X18.310 Y25.806
G01 F600 X18.421 Y25.998
G01 F600 X18.489 Y26.208
G01 F600 X18.512 Y26.428
G01 F600 X18.489 Y26.648
G01 F600 X18.421 Y26.859
G01 F600 X18.310 Y27.050
G01 F600 X18.162 Y27.215
G01 F600 X17.983 Y27.345
G01 F600 X17.826 Y27.414
G01 F600 X17.826 Y30.592
G01 F600 X17.951 Y30.647
G01 F600 X18.119 Y30.769
G01 F600 X18.258 Y30.924
G01 F600 X18.361 Y31.104
G01 F600 X18.426 Y31.301
G01 F600 X18.447 Y31.508
G01 F600 X18.426 Y31.715
G01 F600 X18.361 Y31.912
G01 F600 X18.258 Y32.092
G01 F600 X18.119 Y32.247
G01 F600 X17.951 Y32.369
G01 F600 X17.761 Y32.453
G01 F600 X17.557 Y32.497
G01 F600 X17.350 Y32.497
G00 F3000 Z3.000
G00 F3000 X-5.510 Y32.497
G00 F1500 Z0
G01 F600 Z-0.200
G01 F600 X-5.714 Y32.453
G01 F600 X-5.904 Y32.369
G01 F600 X-6.072 Y32.247
G01 F600 X-6.211 Y32.092
G01 F600 X-6.315 Y31.912
G01 F600 X-6.379 Y31.715
G01 F600 X-6.400 Y31.508
G01 F600 X-6.379 Y31.301
G01 F600 X-6.315 Y31.104
G01 F600 X-6.211 Y30.924
G01 F600 X-6.072 Y30.769
G01 F600 X-5.904 Y30.647
G01 F600 X-5.779 Y30.592
G01 F600 X-5.779 Y29.122
G01 F600 X-13.182 Y21.719
G01 F600 X-19.700 Y21.719
G01 F600 X-19.714 Y21.763
G01 F600 X-19.821 Y21.948
G01 F600 X-19.964 Y22.106
G01 F600 X-20.136 Y22.232
G01 F600 X-20.331 Y22.318
G01 F600 X-20.540 Y22.363
G01 F600 X-20.753 Y22.363
G01 F600 X-20.962 Y22.318
G01 F600 X-21.157 Y22.232
G01 F600 X-21.329 Y22.106
G01 F600 X-21.472 Y21.948
G01 F600 X-21.579 Y21.763
G01 F600 X-21.645 Y21.560
G01 F600 X-21.667 Y21.348
G01 F600 X-21.645 Y21.136
G01 F600 X-21.579 Y20.933
G01 F600 X-21.472 Y20.748
G01 F600 X-21.329 Y20.590
G01 F600 X-21.157 Y20.464
G01 F600 X-20.962 Y20.378
G01 F600 X-20.753 Y20.333
G01 F600 X-20.540 Y20.333
G01 F600 X-20.331 Y20.378
G01 F600 X-20.136 Y20.464
G01 F600 X-19.964 Y20.590
G01 F600 X-19.821 Y20.748
G01 F600 X-19.714 Y20.933
G01 F600 X-19.700 Y20.977
G01 F600 X-12.988 Y20.977
G01 F600 X-12.911 Y20.994
G01 F600 X-12.840 Y21.025
G01 F600 X-12.779 Y21.070
G01 F600 X-5.154 Y28.695
G01 F600 X-5.105 Y28.749
G01 F600 X-5.066 Y28.816
G01 F600 X-5.042 Y28.891
G01 F600 X-5.034 Y28.965
G01 F600 X-5.034 Y30.592
G01 F600 X-4.910 Y30.647
G01 F600 X-4.741 Y30.769
G01 F600 X-4.602 Y30.924
G01 F600 X-4.498 Y31.104
G01 F600 X-4.434 Y31.301
G01 F600 X-4.413 Y31.508
G01 F600 X-4.434 Y31.715
G01 F600 X-4.498 Y31.912
G01 F600 X-4.602 Y32.092
G01 F600 X-4.741 Y32.247
G01 F600 X-4.910 Y32.369
G01 F600 X-5.099 Y32.453
G01 F600 X-5.303 Y32.497
G01 F600 X-5.510 Y32.497
G00 F3000 Z3.000
G00 F3000 X-32.944 Y31.004
G00 F1500 Z0
G01 F600 Z-0.200
G01 F600 X-32.944 Y30.979
G01 F600 X-32.970 Y30.979
G01 F600 X-32.970 Y30.953
G01 F600 X-32.995 Y30.953
G01 F600 X-32.995 Y30.928
G01 F600 X-33.020 Y30.928
G01 F600 X-33.020 Y30.877
G01 F600 X-33.046 Y30.877
G01 F600 X-33.046 Y29.193
G01 F600 X-33.020 Y29.193
G01 F600 X-33.020 Y29.142
G01 F600 X-32.995 Y29.142
G01 F600 X-32.995 Y29.116
G01 F600 X-32.970 Y29.116
G01 F600 X-32.970 Y29.091
G01 F600 X-32.944 Y29.091
G01 F600 X-32.944 Y29.066
G01 F600 X-32.631 Y29.066
G01 F600 X-32.631 Y29.091
G01 F600 X-32.581 Y29.091
G01 F600 X-32.581 Y29.142
G01 F600 X-32.555 Y29.142
G01 F600 X-32.555 Y29.193
G01 F600 X-32.530 Y29.193
G01 F600 X-32.530 Y29.777
G01 F600 X-30.556 Y29.777
G01 F600 X-30.556 Y29.193
G01 F600 X-30.531 Y29.193
G01 F600 X-30.531 Y29.142
G01 F600 X-30.506 Y29.142
G01 F600 X-30.506 Y29.116
G01 F600 X-30.480 Y29.116
G01 F600 X-30.480 Y29.091
G01 F600 X-30.455 Y29.091
G01 F600 X-30.455 Y29.066
G01 F600 X-30.142 Y29.066
G01 F600 X-30.142 Y29.091
G01 F600 X-30.091 Y29.091
G01 F600 X-30.091 Y29.142
G01 F600 X-30.066 Y29.142
G01 F600 X-30.066 Y29.167
G01 F600 X-30.041 Y29.167
G01 F600 X-30.041 Y30.877
G01 F600 X-30.066 Y30.877
G01 F600 X-30.066 Y30.928
G01 F600 X-30.091 Y30.928
G01 F600 X-30.091 Y30.953
G01 F600 X-30.117 Y30.953
G01 F600 X-30.117 Y30.979
G01 F600 X-30.142 Y30.979
G01 F600 X-30.142 Y31.004
G01 F600 X-30.455 Y31.004
G01 F600 X-30.455 Y30.979
G01 F600 X-30.480 Y30.979
G01 F600 X-30.480 Y30.953
G01 F600 X-30.506 Y30.953
G01 F600 X-30.506 Y30.928
G01 F600 X-30.531 Y30.928
G01 F600 X-30.531 Y30.877
G01 F600 X-30.556 Y30.877
G01 F600 X-30.556 Y30.293
G01 F600 X-32.530 Y30.293
G01 F600 X-32.530 Y30.877
G01 F600 X-32.555 Y30.877
G01 F600 X-32.555 Y30.928
G01 F600 X-32.581 Y30.928
G01 F600 X-32.581 Y30.953
G01 F600 X-32.606 Y30.953
G01 F600 X-32.606 Y30.979
G01 F600 X-32.631 Y30.979
G01 F600 X-32.631 Y31.004
G01 F600 X-32.944 Y31.004
G00 F3000 Z3.000
G00 F3000 X-43.322 Y30.842
G00 F1500 Z0
G01 F600 Z-0.200
G01 F600 X-43.278 Y30.826
G01 F600 X-43.215 Y30.798
G01 F600 X-43.139 Y30.782
G01 F600 X-43.033 Y30.782
G01 F600 X-43.011 Y30.772
G01 F600 X-42.952 Y30.761
G01 F600 X-42.928 Y30.739
G01 F600 X-42.907 Y30.717
G01 F600 X-42.867 Y30.672
G01 F600 X-42.804 Y30.627
G01 F600 X-42.772 Y30.612
G01 F600 X-42.766 Y30.603
G01 F600 X-42.720 Y30.553
G01 F600 X-42.690 Y30.502
G01 F600 X-42.645 Y30.451
G01 F600 X-42.620 Y30.421
G01 F600 X-42.602 Y30.365
G01 F600 X-42.564 Y30.303
G01 F600 X-42.558 Y30.284
G01 F600 X-42.558 Y30.260
G01 F600 X-42.550 Y30.186
G01 F600 X-42.526 Y30.112
G01 F600 X-42.504 Y30.073
G01 F600 X-42.501 Y30.047
G01 F600 X-42.506 Y29.993
G01 F600 X-42.526 Y29.958
G01 F600 X-42.550 Y29.884
G01 F600 X-42.558 Y29.809
G01 F600 X-42.558 Y29.786
G01 F600 X-42.576 Y29.731
G01 F600 X-42.578 Y29.707
G01 F600 X-42.589 Y29.695
G01 F600 X-42.621 Y29.640
G01 F600 X-42.641 Y29.618
G01 F600 X-42.674 Y29.554
G01 F600 X-42.721 Y29.520
G01 F600 X-42.778 Y29.494
G01 F600 X-42.842 Y29.448
G01 F600 X-42.894 Y29.390
G01 F600 X-42.899 Y29.381
G01 F600 X-42.931 Y29.367
G01 F600 X-42.982 Y29.329
G01 F600 X-43.014 Y29.322
G01 F600 X-43.082 Y29.288
G01 F600 X-43.114 Y29.288
G01 F600 X-43.192 Y29.271
G01 F600 X-43.259 Y29.237
G01 F600 X-43.317 Y29.237
G01 F600 X-43.345 Y29.231
G01 F600 X-43.379 Y29.244
G01 F600 X-43.438 Y29.270
G01 F600 X-43.507 Y29.295
G01 F600 X-43.567 Y29.321
G01 F600 X-43.602 Y29.332
G01 F600 X-43.651 Y29.368
G01 F600 X-43.715 Y29.394
G01 F600 X-43.726 Y29.405
G01 F600 X-43.765 Y29.448
G01 F600 X-43.829 Y29.494
G01 F600 X-43.873 Y29.513
G01 F600 X-43.877 Y29.526
G01 F600 X-43.917 Y29.594
G01 F600 X-43.960 Y29.639
G01 F600 X-43.980 Y29.679
G01 F600 X-44.009 Y29.742
G01 F600 X-44.029 Y29.803
G01 F600 X-44.060 Y29.869
G01 F600 X-44.076 Y29.916
G01 F600 X-44.074 Y29.930
G01 F600 X-44.074 Y29.988
G01 F600 X-44.078 Y30.022
G01 F600 X-44.074 Y30.057
G01 F600 X-44.074 Y30.130
G01 F600 X-44.056 Y30.186
G01 F600 X-44.049 Y30.259
G01 F600 X-44.048 Y30.290
G01 F600 X-44.018 Y30.324
G01 F600 X-43.979 Y30.391
G01 F600 X-43.956 Y30.463
G01 F600 X-43.951 Y30.487
G01 F600 X-43.913 Y30.524
G01 F600 X-43.870 Y30.575
G01 F600 X-43.843 Y30.595
G01 F600 X-43.790 Y30.648
G01 F600 X-43.756 Y30.678
G01 F600 X-43.701 Y30.703
G01 F600 X-43.648 Y30.741
G01 F600 X-43.626 Y30.753
G01 F600 X-43.585 Y30.777
G01 F600 X-43.523 Y30.805
G01 F600 X-43.486 Y30.833
G01 F600 X-43.366 Y30.833
G01 F600 X-43.322 Y30.842
G00 F3000 Z3.000
G00 F3000 X-36.322 Y30.725
G00 F1500 Z0
G01 F600 Z-0.200
G01 F600 X-36.322 Y30.699
G01 F600 X-36.424 Y30.699
G01 F600 X-36.424 Y30.674
G01 F600 X-36.500 Y30.674
G01 F600 X-36.500 Y30.648
G01 F600 X-36.551 Y30.648
G01 F600 X-36.551 Y30.623
G01 F600 X-36.602 Y30.623
G01 F600 X-36.602 Y30.598
G01 F600 X-36.627 Y30.598
G01 F600 X-36.627 Y30.572
G01 F600 X-36.678 Y30.572
G01 F600 X-36.678 Y30.547
G01 F600 X-36.703 Y30.547
G01 F600 X-36.703 Y30.521
G01 F600 X-36.729 Y30.521
G01 F600 X-36.729 Y30.496
G01 F600 X-36.754 Y30.496
G01 F600 X-36.754 Y30.471
G01 F600 X-36.779 Y30.471
G01 F600 X-36.779 Y30.420
G01 F600 X-36.805 Y30.420
G01 F600 X-36.805 Y30.394
G01 F600 X-36.830 Y30.394
G01 F600 X-36.830 Y30.369
G01 F600 X-36.856 Y30.369
G01 F600 X-36.856 Y30.318
G01 F600 X-36.881 Y30.318
G01 F600 X-36.881 Y30.267
G01 F600 X-36.907 Y30.267
G01 F600 X-36.907 Y30.191
G01 F600 X-36.932 Y30.191
G01 F600 X-36.932 Y30.064
G01 F600 X-36.957 Y30.064
G01 F600 X-36.957 Y28.761
G01 F600 X-33.952 Y28.761
G01 F600 X-33.952 Y30.115
G01 F600 X-33.977 Y30.115
G01 F600 X-33.977 Y30.217
G01 F600 X-34.003 Y30.217
G01 F600 X-34.003 Y30.267
G01 F600 X-34.028 Y30.267
G01 F600 X-34.028 Y30.318
G01 F600 X-34.054 Y30.318
G01 F600 X-34.054 Y30.369
G01 F600 X-34.079 Y30.369
G01 F600 X-34.079 Y30.394
G01 F600 X-34.105 Y30.394
G01 F600 X-34.105 Y30.445
G01 F600 X-34.130 Y30.445
G01 F600 X-34.130 Y30.471
G01 F600 X-34.155 Y30.471
G01 F600 X-34.155 Y30.496
G01 F600 X-34.181 Y30.496
G01 F600 X-34.181 Y30.521
G01 F600 X-34.206 Y30.521
G01 F600 X-34.206 Y30.547
G01 F600 X-34.232 Y30.547
G01 F600 X-34.232 Y30.572
G01 F600 X-34.282 Y30.572
G01 F600 X-34.282 Y30.598
G01 F600 X-34.308 Y30.598
G01 F600 X-34.308 Y30.623
G01 F600 X-34.358 Y30.623
G01 F600 X-34.358 Y30.648
G01 F600 X-34.409 Y30.648
G01 F600 X-34.409 Y30.674
G01 F600 X-34.460 Y30.674
G01 F600 X-34.460 Y30.699
G01 F600 X-34.587 Y30.699
G01 F600 X-34.587 Y30.725
G01 F600 X-35.078 Y30.725
G01 F600 X-35.078 Y30.699
G01 F600 X-35.205 Y30.699
G01 F600 X-35.205 Y30.674
G01 F600 X-35.256 Y30.674
G01 F600 X-35.256 Y30.648
G01 F600 X-35.306 Y30.648
G01 F600 X-35.306 Y30.623
G01 F600 X-35.357 Y30.623
G01 F600 X-35.357 Y30.598
G01 F600 X-35.383 Y30.598
G01 F600 X-35.383 Y30.572
G01 F600 X-35.408 Y30.572
G01 F600 X-35.408 Y30.547
G01 F600 X-35.476 Y30.547
G01 F600 X-35.476 Y30.572
G01 F600 X-35.527 Y30.572
G01 F600 X-35.527 Y30.598
G01 F600 X-35.552 Y30.598
G01 F600 X-35.552 Y30.623
G01 F600 X-35.603 Y30.623
G01 F600 X-35.603 Y30.648
G01 F600 X-35.654 Y30.648
G01 F600 X-35.654 Y30.674
G01 F600 X-35.705 Y30.674
G01 F600 X-35.705 Y30.699
G01 F600 X-35.832 Y30.699
G01 F600 X-35.832 Y30.725
G01 F600 X-36.322 Y30.725
G00 F3000 Z3.000
G00 F3000 X-45.017 Y30.645
G00 F1500 Z0
G01 F600 Z-0.200
G01 F600 X-45.020 Y30.603
G01 F600 X-45.041 Y30.567
G01 F600 X-45.065 Y30.493
G01 F600 X-45.069 Y30.454
G01 F600 X-45.092 Y30.415
G01 F600 X-45.116 Y30.341
G01 F600 X-45.123 Y30.267
G01 F600 X-45.123 Y30.209
G01 F600 X-45.117 Y30.145
G01 F600 X-45.117 Y30.128
G01 F600 X-45.123 Y30.064
G01 F600 X-45.123 Y30.006
G01 F600 X-45.120 Y29.971
G01 F600 X-45.123 Y29.937
G01 F600 X-45.123 Y29.879
G01 F600 X-45.116 Y29.805
G01 F600 X-45.092 Y29.731
G01 F600 X-45.073 Y29.698
G01 F600 X-45.073 Y29.676
G01 F600 X-45.065 Y29.602
G01 F600 X-45.041 Y29.528
G01 F600 X-45.003 Y29.463
G01 F600 X-44.996 Y29.454
G01 F600 X-44.996 Y29.447
G01 F600 X-44.989 Y29.373
G01 F600 X-44.965 Y29.299
G01 F600 X-44.926 Y29.232
G01 F600 X-44.907 Y29.211
G01 F600 X-44.875 Y29.155
G01 F600 X-44.864 Y29.144
G01 F600 X-44.862 Y29.119
G01 F600 X-44.838 Y29.045
G01 F600 X-44.799 Y28.978
G01 F600 X-44.748 Y28.922
G01 F600 X-44.715 Y28.893
G01 F600 X-44.673 Y28.846
G01 F600 X-44.651 Y28.826
G01 F600 X-44.621 Y28.774
G01 F600 X-44.569 Y28.716
G01 F600 X-44.506 Y28.671
G01 F600 X-44.482 Y28.660
G01 F600 X-44.455 Y28.633
G01 F600 X-44.416 Y28.590
G01 F600 X-44.355 Y28.545
G01 F600 X-44.299 Y28.517
G01 F600 X-44.299 Y28.517
G01 F600 X-44.280 Y28.506
G01 F600 X-44.228 Y28.469
G01 F600 X-44.152 Y28.430
G01 F600 X-44.099 Y28.391
G01 F600 X-44.028 Y28.360
G01 F600 X-43.952 Y28.343
G01 F600 X-43.859 Y28.343
G01 F600 X-43.820 Y28.315
G01 F600 X-43.749 Y28.283
G01 F600 X-43.677 Y28.268
G01 F600 X-43.602 Y28.258
G01 F600 X-43.546 Y28.233
G01 F600 X-43.469 Y28.216
G01 F600 X-43.266 Y28.216
