( PCB Contour )
( Generated by Rapid-PCB.com )
( Material Size)
( X= 160.000, Y= 100.000, Z= 1.580)
()
G00
G17
G21
G40
G49
G54
G80
G90
G94
G00 F3000 Z3.000
M03 S9000
G00 F3000 X-31.076 Y33.925
G00 F1500 Z0
G01 F600 Z-0.200
G01 F600 X-31.179 Y33.904
G01 F600 X-31.235 Y33.875
G01 F600 X-31.610 Y33.875
G01 F600 X-31.708 Y33.854
G01 F600 X-31.718 Y33.849
G01 F600 X-31.940 Y33.849
G01 F600 X-32.042 Y33.827
G01 F600 X-32.099 Y33.798
G01 F600 X-32.219 Y33.798
G01 F600 X-32.317 Y33.778
G01 F600 X-32.386 Y33.747
G01 F600 X-32.402 Y33.741
G01 F600 X-32.470 Y33.727
G01 F600 X-32.480 Y33.722
G01 F600 X-32.549 Y33.722
G01 F600 X-32.647 Y33.701
G01 F600 X-32.717 Y33.670
G01 F600 X-32.732 Y33.665
G01 F600 X-32.800 Y33.651
G01 F600 X-32.810 Y33.646
G01 F600 X-32.880 Y33.646
G01 F600 X-32.977 Y33.625
G01 F600 X-33.047 Y33.594
G01 F600 X-33.062 Y33.589
G01 F600 X-33.130 Y33.574
G01 F600 X-33.220 Y33.534
G01 F600 X-33.242 Y33.519
G01 F600 X-33.286 Y33.519
G01 F600 X-33.384 Y33.498
G01 F600 X-33.475 Y33.457
G01 F600 X-33.498 Y33.441
G01 F600 X-33.592 Y33.421
G01 F600 X-33.670 Y33.381
G01 F600 X-33.714 Y33.371
G01 F600 X-33.797 Y33.334
G01 F600 X-33.843 Y33.308
G01 F600 X-33.909 Y33.276
G01 F600 X-33.951 Y33.253
G01 F600 X-33.994 Y33.244
G01 F600 X-34.004 Y33.239
G01 F600 X-34.023 Y33.239
G01 F600 X-34.120 Y33.219
G01 F600 X-34.212 Y33.178
G01 F600 X-34.269 Y33.136
G01 F600 X-34.292 Y33.124
G01 F600 X-34.334 Y33.095
G01 F600 X-34.349 Y33.092
G01 F600 X-34.436 Y33.053
G01 F600 X-34.478 Y33.026
G01 F600 X-34.527 Y33.016
G01 F600 X-34.618 Y32.975
G01 F600 X-34.692 Y32.921
G01 F600 X-34.721 Y32.895
G01 F600 X-34.771 Y32.873
G01 F600 X-34.840 Y32.823
G01 F600 X-34.899 Y32.796
G01 F600 X-34.940 Y32.766
G01 F600 X-34.959 Y32.761
G01 F600 X-35.050 Y32.721
G01 F600 X-35.119 Y32.671
G01 F600 X-35.177 Y32.645
G01 F600 X-35.235 Y32.603
G01 F600 X-35.259 Y32.590
G01 F600 X-35.334 Y32.535
G01 F600 X-35.374 Y32.491
G01 F600 X-35.416 Y32.482
G01 F600 X-35.507 Y32.441
G01 F600 X-35.593 Y32.379
G01 F600 X-35.635 Y32.325
G01 F600 X-35.660 Y32.314
G01 F600 X-35.737 Y32.258
G01 F600 X-35.798 Y32.198
G01 F600 X-35.830 Y32.166
G01 F600 X-35.875 Y32.109
G01 F600 X-35.907 Y32.086
G01 F600 X-35.910 Y32.084
G01 F600 X-35.949 Y32.076
G01 F600 X-36.041 Y32.035
G01 F600 X-36.122 Y31.976
G01 F600 X-36.187 Y31.904
G01 F600 X-36.218 Y31.853
G01 F600 X-36.232 Y31.839
G01 F600 X-36.236 Y31.836
G01 F600 X-36.244 Y31.832
G01 F600 X-36.326 Y31.772
G01 F600 X-36.358 Y31.736
G01 F600 X-36.371 Y31.730
G01 F600 X-36.454 Y31.670
G01 F600 X-36.501 Y31.615
G01 F600 X-36.525 Y31.598
G01 F600 X-36.666 Y31.457
G01 F600 X-36.704 Y31.412
G01 F600 X-36.728 Y31.395
G01 F600 X-36.763 Y31.360
G01 F600 X-36.818 Y31.304
G01 F600 X-36.856 Y31.260
G01 F600 X-36.880 Y31.242
G01 F600 X-36.941 Y31.182
G01 F600 X-36.969 Y31.153
G01 F600 X-37.028 Y31.088
G01 F600 X-37.053 Y31.043
G01 F600 X-37.062 Y31.036
G01 F600 X-37.129 Y30.962
G01 F600 X-37.164 Y30.901
G01 F600 X-37.184 Y30.892
G01 F600 X-37.265 Y30.833
G01 F600 X-37.332 Y30.759
G01 F600 X-37.382 Y30.672
G01 F600 X-37.388 Y30.655
G01 F600 X-37.410 Y30.629
G01 F600 X-37.439 Y30.575
G01 F600 X-37.441 Y30.573
G01 F600 X-37.508 Y30.603
G01 F600 X-37.600 Y30.622
G01 F600 X-37.766 Y30.633
G01 F600 X-37.813 Y30.653
G01 F600 X-37.910 Y30.674
G01 F600 X-38.158 Y30.674
G01 F600 X-38.168 Y30.679
G01 F600 X-38.266 Y30.700
G01 F600 X-38.620 Y30.700
G01 F600 X-38.718 Y30.679
G01 F600 X-38.728 Y30.674
G01 F600 X-39.255 Y30.674
G01 F600 X-39.355 Y30.653
G01 F600 X-39.417 Y30.623
G01 F600 X-39.585 Y30.623
G01 F600 X-39.688 Y30.602
G01 F600 X-39.744 Y30.573
G01 F600 X-39.788 Y30.573
G01 F600 X-39.886 Y30.552
G01 F600 X-39.897 Y30.547
G01 F600 X-39.966 Y30.547
G01 F600 X-40.064 Y30.526
G01 F600 X-40.147 Y30.489
G01 F600 X-40.179 Y30.471
G01 F600 X-40.195 Y30.471
G01 F600 X-40.293 Y30.450
G01 F600 X-40.386 Y30.409
G01 F600 X-40.438 Y30.369
G01 F600 X-40.449 Y30.369
G01 F600 X-40.547 Y30.349
G01 F600 X-40.586 Y30.331
G01 F600 X-40.623 Y30.323
G01 F600 X-40.714 Y30.282
G01 F600 X-40.737 Y30.266
G01 F600 X-40.826 Y30.247
G01 F600 X-40.918 Y30.206
G01 F600 X-40.975 Y30.165
G01 F600 X-41.001 Y30.150
G01 F600 X-41.056 Y30.109
G01 F600 X-41.072 Y30.101
G01 F600 X-41.114 Y30.078
G01 F600 X-41.156 Y30.069
G01 F600 X-41.248 Y30.028
G01 F600 X-41.317 Y29.978
G01 F600 X-41.375 Y29.952
G01 F600 X-41.432 Y29.911
G01 F600 X-41.457 Y29.897
G01 F600 X-41.520 Y29.851
G01 F600 X-41.578 Y29.825
G01 F600 X-41.647 Y29.775
G01 F600 X-41.705 Y29.749
G01 F600 X-41.786 Y29.690
G01 F600 X-41.855 Y29.613
G01 F600 X-41.878 Y29.570
G01 F600 X-41.888 Y29.563
G01 F600 X-41.900 Y29.549
G01 F600 X-41.944 Y29.524
G01 F600 X-42.010 Y29.495
G01 F600 X-42.091 Y29.436
G01 F600 X-42.156 Y29.363
G01 F600 X-42.162 Y29.354
G01 F600 X-42.188 Y29.343
G01 F600 X-42.269 Y29.284
G01 F600 X-42.328 Y29.218
G01 F600 X-42.349 Y29.191
G01 F600 X-42.397 Y29.155
G01 F600 X-42.445 Y29.100
G01 F600 X-42.472 Y29.081
G01 F600 X-42.541 Y29.003
G01 F600 X-42.587 Y28.915
G01 F600 X-42.590 Y28.910
G01 F600 X-42.604 Y28.897
G01 F600 X-42.686 Y28.815
G01 F600 X-42.724 Y28.770
G01 F600 X-42.751 Y28.750
G01 F600 X-42.818 Y28.676
G01 F600 X-42.850 Y28.621
G01 F600 X-42.870 Y28.599
G01 F600 X-42.895 Y28.553
G01 F600 X-42.904 Y28.547
G01 F600 X-42.971 Y28.473
G01 F600 X-42.997 Y28.428
G01 F600 X-43.014 Y28.410
G01 F600 X-43.072 Y28.346
G01 F600 X-43.122 Y28.259
G01 F600 X-43.128 Y28.242
G01 F600 X-43.147 Y28.221
G01 F600 X-43.180 Y28.167
G01 F600 X-43.224 Y28.117
G01 F600 X-43.271 Y28.036
G01 F600 X-43.290 Y27.989
G01 F600 X-43.327 Y27.927
G01 F600 X-43.342 Y27.874
G01 F600 X-43.352 Y27.863
G01 F600 X-43.401 Y27.777
G01 F600 X-43.421 Y27.719
G01 F600 X-43.428 Y27.711
G01 F600 X-43.475 Y27.630
G01 F600 X-43.494 Y27.583
G01 F600 X-43.528 Y27.523
G01 F600 X-43.561 Y27.426
G01 F600 X-43.577 Y27.367
G01 F600 X-43.604 Y27.320
G01 F600 X-43.637 Y27.223
G01 F600 X-43.653 Y27.164
G01 F600 X-43.683 Y27.113
G01 F600 X-43.704 Y27.037
G01 F600 X-43.732 Y26.989
G01 F600 X-43.763 Y26.894
G01 F600 X-43.772 Y26.803
G01 F600 X-43.772 Y26.786
G01 F600 X-43.780 Y26.758
G01 F600 X-43.808 Y26.710
G01 F600 X-43.839 Y26.614
G01 F600 X-43.848 Y26.524
G01 F600 X-43.848 Y26.435
G01 F600 X-43.864 Y26.386
G01 F600 X-43.874 Y26.296
G01 F600 X-43.874 Y26.245
G01 F600 X-43.884 Y26.227
G01 F600 X-43.915 Y26.132
G01 F600 X-43.925 Y26.042
G01 F600 X-43.925 Y25.966
G01 F600 X-43.935 Y25.948
G01 F600 X-43.966 Y25.853
G01 F600 X-43.975 Y25.762
G01 F600 X-43.975 Y25.363
G01 F600 X-43.966 Y25.273
G01 F600 X-43.953 Y25.232
G01 F600 X-43.966 Y25.192
G01 F600 X-43.975 Y25.102
G01 F600 X-43.975 Y25.058
G01 F600 X-43.970 Y25.010
G01 F600 X-44.106 Y25.010
G01 F600 X-44.204 Y24.989
G01 F600 X-44.296 Y24.948
G01 F600 X-44.377 Y24.890
G01 F600 X-44.444 Y24.815
G01 F600 X-44.494 Y24.729
G01 F600 X-44.525 Y24.633
G01 F600 X-44.534 Y24.543
G01 F600 X-44.534 Y24.449
G01 F600 X-44.525 Y24.358
G01 F600 X-44.494 Y24.263
G01 F600 X-44.444 Y24.176
G01 F600 X-44.377 Y24.102
G01 F600 X-44.296 Y24.043
G01 F600 X-44.204 Y24.002
G01 F600 X-44.165 Y23.994
G01 F600 X-45.580 Y23.994
G01 F600 X-45.678 Y23.973
G01 F600 X-45.769 Y23.932
G01 F600 X-45.850 Y23.874
G01 F600 X-45.919 Y23.796
G01 F600 X-45.965 Y23.709
G01 F600 X-45.992 Y23.662
G01 F600 X-46.023 Y23.567
G01 F600 X-46.033 Y23.476
G01 F600 X-46.033 Y23.407
G01 F600 X-46.023 Y23.317
G01 F600 X-45.992 Y23.222
G01 F600 X-45.942 Y23.135
G01 F600 X-45.875 Y23.060
G01 F600 X-45.794 Y23.002
G01 F600 X-45.703 Y22.961
G01 F600 X-45.605 Y22.940
G01 F600 X-45.480 Y22.940
G01 F600 X-45.377 Y22.962
G01 F600 X-45.320 Y22.991
G01 F600 X-43.433 Y22.979
G01 F600 X-43.387 Y22.959
G01 F600 X-43.364 Y22.955
G01 F600 X-43.362 Y22.953
G01 F600 X-43.360 Y22.947
G01 F600 X-43.356 Y22.910
G01 F600 X-43.325 Y22.815
G01 F600 X-43.275 Y22.728
G01 F600 X-43.256 Y22.707
G01 F600 X-43.225 Y22.652
G01 F600 X-43.204 Y22.629
G01 F600 X-43.198 Y22.612
G01 F600 X-43.148 Y22.524
G01 F600 X-43.101 Y22.474
G01 F600 X-43.072 Y22.424
G01 F600 X-43.011 Y22.356
G01 F600 X-42.998 Y22.344
G01 F600 X-42.973 Y22.301
G01 F600 X-42.934 Y22.253
G01 F600 X-42.919 Y22.206
G01 F600 X-42.869 Y22.119
G01 F600 X-42.802 Y22.044
G01 F600 X-42.724 Y21.988
G01 F600 X-42.718 Y21.985
G01 F600 X-42.716 Y21.977
G01 F600 X-42.664 Y21.887
G01 F600 X-42.595 Y21.817
G01 F600 X-42.553 Y21.770
G01 F600 X-42.516 Y21.738
G01 F600 X-42.465 Y21.688
G01 F600 X-42.425 Y21.645
G01 F600 X-42.393 Y21.610
G01 F600 X-42.346 Y21.579
G01 F600 X-42.336 Y21.560
G01 F600 X-42.267 Y21.483
G01 F600 X-42.219 Y21.451
G01 F600 X-42.206 Y21.429
G01 F600 X-42.132 Y21.355
G01 F600 X-42.095 Y21.315
G01 F600 X-42.066 Y21.283
G01 F600 X-41.988 Y21.226
G01 F600 X-41.913 Y21.188
G01 F600 X-41.866 Y21.154
G01 F600 X-41.841 Y21.138
G01 F600 X-41.816 Y21.113
G01 F600 X-41.786 Y21.079
G01 F600 X-41.705 Y21.020
G01 F600 X-41.614 Y20.980
G01 F600 X-41.599 Y20.977
G01 F600 X-41.599 Y20.976
G01 F600 X-41.532 Y20.901
G01 F600 X-41.451 Y20.843
G01 F600 X-41.362 Y20.803
G01 F600 X-41.319 Y20.793
G01 F600 X-41.253 Y20.745
G01 F600 X-41.229 Y20.732
G01 F600 X-41.169 Y20.688
G01 F600 X-41.098 Y20.660
G01 F600 X-41.070 Y20.639
G01 F600 X-40.985 Y20.602
G01 F600 X-40.960 Y20.594
G01 F600 X-40.918 Y20.563
G01 F600 X-40.833 Y20.525
G01 F600 X-40.808 Y20.518
G01 F600 X-40.765 Y20.487
G01 F600 X-40.685 Y20.451
G01 F600 X-40.617 Y20.427
G01 F600 X-40.547 Y20.396
G01 F600 X-40.449 Y20.375
G01 F600 X-40.379 Y20.375
G01 F600 X-40.359 Y20.360
G01 F600 X-40.267 Y20.319
G01 F600 X-40.169 Y20.299
G01 F600 X-40.151 Y20.299
G01 F600 X-40.083 Y20.274
G01 F600 X-40.024 Y20.248
G01 F600 X-39.956 Y20.223
G01 F600 X-39.886 Y20.192
G01 F600 X-39.788 Y20.172
G01 F600 X-39.694 Y20.172
G01 F600 X-39.683 Y20.167
G01 F600 X-39.594 Y20.148
G01 F600 X-39.504 Y20.138
G01 F600 X-39.455 Y20.116
G01 F600 X-39.357 Y20.095
G01 F600 X-39.211 Y20.095
G01 F600 X-39.201 Y20.091
G01 F600 X-39.103 Y20.070
G01 F600 X-38.114 Y20.070
G01 F600 X-38.013 Y20.091
G01 F600 X-38.005 Y20.095
G01 F600 X-37.860 Y20.095
G01 F600 X-37.762 Y20.116
G01 F600 X-37.694 Y20.146
G01 F600 X-37.580 Y20.146
G01 F600 X-37.482 Y20.167
G01 F600 X-37.472 Y20.172
G01 F600 X-37.448 Y20.172
G01 F600 X-37.445 Y20.172
G01 F600 X-37.409 Y20.136
G01 F600 X-37.387 Y20.115
G01 F600 X-37.382 Y20.097
G01 F600 X-37.332 Y20.011
G01 F600 X-37.313 Y19.989
G01 F600 X-37.281 Y19.934
G01 F600 X-37.219 Y19.865
G01 F600 X-37.183 Y19.835
G01 F600 X-37.159 Y19.810
G01 F600 X-37.129 Y19.757
G01 F600 X-37.062 Y19.682
G01 F600 X-36.984 Y19.626
G01 F600 X-36.973 Y19.620
G01 F600 X-36.966 Y19.613
G01 F600 X-36.953 Y19.601
G01 F600 X-36.925 Y19.553
G01 F600 X-36.866 Y19.488
G01 F600 X-36.827 Y19.450
G01 F600 X-36.796 Y19.398
G01 F600 X-36.727 Y19.328
G01 F600 X-36.681 Y19.276
G01 F600 X-36.600 Y19.217
G01 F600 X-36.542 Y19.191
G01 F600 X-36.540 Y19.190
G01 F600 X-36.521 Y19.172
G01 F600 X-36.476 Y19.122
G01 F600 X-36.434 Y19.093
G01 F600 X-36.392 Y19.020
G01 F600 X-36.325 Y18.946
G01 F600 X-36.244 Y18.887
G01 F600 X-36.236 Y18.883
G01 F600 X-36.228 Y18.875
G01 F600 X-36.194 Y18.846
G01 F600 X-36.147 Y18.793
G01 F600 X-36.072 Y18.738
G01 F600 X-36.053 Y18.729
G01 F600 X-36.042 Y18.719
G01 F600 X-35.995 Y18.666
G01 F600 X-35.920 Y18.612
G01 F600 X-35.846 Y18.571
G01 F600 X-35.817 Y18.539
G01 F600 X-35.736 Y18.480
G01 F600 X-35.651 Y18.443
G01 F600 X-35.633 Y18.437
G01 F600 X-35.632 Y18.436
G01 F600 X-35.583 Y18.387
G01 F600 X-35.538 Y18.336
G01 F600 X-35.457 Y18.277
G01 F600 X-35.365 Y18.236
G01 F600 X-35.355 Y18.234
G01 F600 X-35.309 Y18.184
G01 F600 X-35.225 Y18.123
G01 F600 X-35.154 Y18.094
G01 F600 X-35.126 Y18.074
G01 F600 X-35.118 Y18.070
G01 F600 X-35.106 Y18.057
G01 F600 X-35.025 Y17.998
G01 F600 X-34.941 Y17.961
G01 F600 X-34.926 Y17.956
G01 F600 X-34.903 Y17.930
G01 F600 X-34.822 Y17.871
G01 F600 X-34.727 Y17.829
G01 F600 X-34.653 Y17.816
G01 F600 X-34.635 Y17.808
G01 F600 X-34.610 Y17.800
G01 F600 X-34.568 Y17.769
G01 F600 X-34.474 Y17.728
G01 F600 X-34.438 Y17.721
G01 F600 X-34.364 Y17.668
G01 F600 X-34.273 Y17.627
G01 F600 X-34.245 Y17.621
G01 F600 X-34.217 Y17.606
G01 F600 X-34.161 Y17.566
G01 F600 X-34.068 Y17.524
G01 F600 X-34.031 Y17.518
G01 F600 X-33.958 Y17.464
G01 F600 X-33.867 Y17.424
G01 F600 X-33.769 Y17.403
G01 F600 X-33.750 Y17.403
G01 F600 X-33.739 Y17.398
G01 F600 X-33.672 Y17.384
G01 F600 X-33.657 Y17.378
G01 F600 X-33.586 Y17.347
G01 F600 X-33.535 Y17.337
G01 F600 X-33.501 Y17.312
G01 F600 X-33.420 Y17.276
G01 F600 X-33.352 Y17.252
G01 F600 X-33.280 Y17.219
G01 F600 X-33.205 Y17.206
G01 F600 X-33.181 Y17.195
G01 F600 X-33.090 Y17.176
G01 F600 X-32.975 Y17.166
G01 F600 X-32.927 Y17.144
G01 F600 X-32.890 Y17.137
G01 F600 X-32.851 Y17.119
G01 F600 X-32.764 Y17.101
G01 F600 X-32.700 Y17.091
G01 F600 X-32.658 Y17.073
G01 F600 X-32.590 Y17.048
G01 F600 X-32.520 Y17.017
G01 F600 X-32.422 Y16.997
G01 F600 X-32.250 Y16.997
G01 F600 X-32.196 Y17.006
G01 F600 X-32.176 Y16.997
G01 F600 X-32.108 Y16.972
G01 F600 X-32.038 Y16.941
G01 F600 X-31.940 Y16.920
G01 F600 X-31.566 Y16.920
G01 F600 X-31.555 Y16.916
G01 F600 X-31.463 Y16.896
G01 F600 X-31.297 Y16.886
G01 F600 X-31.250 Y16.865
G01 F600 X-31.152 Y16.844
G01 F600 X-30.497 Y16.844
G01 F600 X-30.438 Y16.854
G01 F600 X-30.390 Y16.844
G01 F600 X-30.163 Y16.844
G01 F600 X-30.063 Y16.866
G01 F600 X-30.002 Y16.895
G01 F600 X-29.909 Y16.895
G01 F600 X-29.883 Y16.900
G01 F600 X-29.857 Y16.895
G01 F600 X-29.681 Y16.895
G01 F600 X-29.599 Y16.912
G01 F600 X-29.565 Y16.920
G01 F600 X-29.427 Y16.920
G01 F600 X-29.325 Y16.942
G01 F600 X-29.267 Y16.971
G01 F600 X-29.147 Y16.971
G01 F600 X-29.047 Y16.992
G01 F600 X-29.038 Y16.997
G01 F600 X-28.995 Y16.997
G01 F600 X-28.892 Y17.018
G01 F600 X-28.814 Y17.059
G01 F600 X-28.766 Y17.069
G01 F600 X-28.708 Y17.098
G01 F600 X-28.614 Y17.098
G01 F600 X-28.516 Y17.119
G01 F600 X-28.506 Y17.123
G01 F600 X-28.462 Y17.123
G01 F600 X-28.364 Y17.144
G01 F600 X-28.283 Y17.180
G01 F600 X-28.267 Y17.189
G01 F600 X-28.237 Y17.195
G01 F600 X-28.226 Y17.200
G01 F600 X-28.157 Y17.200
G01 F600 X-28.059 Y17.221
G01 F600 X-27.976 Y17.257
G01 F600 X-27.932 Y17.283
G01 F600 X-27.866 Y17.312
G01 F600 X-27.843 Y17.329
G01 F600 X-27.749 Y17.349
G01 F600 X-27.671 Y17.389
G01 F600 X-27.627 Y17.398
G01 F600 X-27.588 Y17.416
G01 F600 X-27.551 Y17.424
G01 F600 X-27.468 Y17.461
G01 F600 X-27.424 Y17.486
G01 F600 X-27.380 Y17.505
G01 F600 X-27.365 Y17.511
G01 F600 X-27.297 Y17.525
G01 F600 X-27.257 Y17.543
G01 F600 X-27.221 Y17.551
G01 F600 X-27.134 Y17.590
G01 F600 X-27.092 Y17.617
G01 F600 X-27.043 Y17.627
G01 F600 X-26.951 Y17.668
G01 F600 X-26.894 Y17.709
G01 F600 X-26.869 Y17.723
G01 F600 X-26.832 Y17.750
G01 F600 X-26.814 Y17.754
G01 F600 X-26.727 Y17.793
G01 F600 X-26.685 Y17.820
G01 F600 X-26.637 Y17.830
G01 F600 X-26.545 Y17.871
G01 F600 X-26.488 Y17.912
G01 F600 X-26.463 Y17.926
G01 F600 X-26.400 Y17.972
G01 F600 X-26.342 Y17.998
G01 F600 X-26.285 Y18.039
G01 F600 X-26.260 Y18.053
G01 F600 X-26.197 Y18.099
G01 F600 X-26.139 Y18.125
G01 F600 X-26.058 Y18.184
G01 F600 X-26.045 Y18.197
G01 F600 X-26.002 Y18.222
G01 F600 X-25.935 Y18.252
G01 F600 X-25.858 Y18.308
G01 F600 X-25.841 Y18.325
G01 F600 X-25.828 Y18.332
G01 F600 X-25.753 Y18.387
G01 F600 X-25.715 Y18.429
G01 F600 X-25.656 Y18.455
G01 F600 X-25.587 Y18.505
G01 F600 X-25.529 Y18.531
G01 F600 X-25.448 Y18.590
G01 F600 X-25.402 Y18.641
G01 F600 X-25.379 Y18.660
G01 F600 X-25.326 Y18.684
G01 F600 X-25.245 Y18.742
G01 F600 X-25.186 Y18.808
G01 F600 X-25.164 Y18.836
G01 F600 X-25.142 Y18.852
G01 F600 X-25.117 Y18.865
G01 F600 X-25.045 Y18.918
G01 F600 X-25.007 Y18.956
G01 F600 X-24.957 Y19.011
G01 F600 X-24.936 Y19.039
G01 F600 X-24.889 Y19.073
G01 F600 X-24.830 Y19.138
G01 F600 X-24.809 Y19.166
G01 F600 X-24.762 Y19.200
G01 F600 X-24.703 Y19.265
G01 F600 X-24.682 Y19.293
G01 F600 X-24.633 Y19.328
G01 F600 X-24.586 Y19.383
G01 F600 X-24.557 Y19.404
G01 F600 X-24.510 Y19.459
G01 F600 X-24.486 Y19.476
G01 F600 X-24.421 Y19.541
G01 F600 X-24.383 Y19.586
G01 F600 X-24.360 Y19.603
G01 F600 X-24.299 Y19.664
G01 F600 X-24.220 Y19.743
G01 F600 X-24.159 Y19.810
G01 F600 X-24.131 Y19.864
G01 F600 X-24.102 Y19.885
G01 F600 X-24.032 Y19.963
G01 F600 X-23.987 Y20.049
G01 F600 X-23.975 Y20.070
G01 F600 X-23.953 Y20.086
G01 F600 X-23.890 Y20.150
G01 F600 X-23.832 Y20.214
G01 F600 X-23.790 Y20.287
G01 F600 X-23.771 Y20.320
G01 F600 X-23.730 Y20.366
G01 F600 X-23.684 Y20.446
G01 F600 X-23.676 Y20.466
G01 F600 X-23.670 Y20.470
G01 F600 X-23.603 Y20.544
G01 F600 X-23.553 Y20.631
G01 F600 X-23.547 Y20.648
G01 F600 X-23.527 Y20.671
G01 F600 X-23.495 Y20.726
G01 F600 X-23.476 Y20.747
G01 F600 X-23.424 Y20.837
G01 F600 X-23.404 Y20.910
G01 F600 X-23.394 Y20.926
G01 F600 X-23.351 Y20.974
G01 F600 X-23.317 Y21.028
G01 F600 X-23.273 Y21.077
G01 F600 X-23.241 Y21.133
G01 F600 X-23.222 Y21.154
G01 F600 X-23.172 Y21.240
G01 F600 X-23.153 Y21.298
G01 F600 X-23.146 Y21.306
G01 F600 X-23.096 Y21.393
G01 F600 X-23.090 Y21.410
G01 F600 X-23.070 Y21.433
G01 F600 X-23.038 Y21.488
G01 F600 X-23.019 Y21.509
G01 F600 X-22.969 Y21.596
G01 F600 X-22.938 Y21.692
G01 F600 X-22.934 Y21.727
G01 F600 X-22.896 Y21.794
G01 F600 X-22.877 Y21.840
G01 F600 X-22.842 Y21.900
G01 F600 X-22.823 Y21.959
G01 F600 X-22.816 Y21.966
G01 F600 X-22.766 Y22.053
G01 F600 X-22.735 Y22.149
G01 F600 X-22.731 Y22.184
G01 F600 X-22.689 Y22.256
G01 F600 X-22.659 Y22.352
G01 F600 X-22.656 Y22.379
G01 F600 X-22.639 Y22.409
G01 F600 X-22.609 Y22.501
G01 F600 X-22.603 Y22.542
G01 F600 X-22.582 Y22.606
G01 F600 X-22.579 Y22.639
G01 F600 X-22.565 Y22.665
G01 F600 X-22.537 Y22.713
G01 F600 X-22.506 Y22.809
G01 F600 X-22.503 Y22.837
G01 F600 X-22.486 Y22.866
G01 F600 X-22.455 Y22.961
G01 F600 X-22.452 Y22.989
G01 F600 X-22.435 Y23.018
G01 F600 X-22.404 Y23.114
G01 F600 X-22.398 Y23.184
G01 F600 X-22.379 Y23.240
G01 F600 X-22.370 Y23.332
G01 F600 X-22.370 Y23.381
G01 F600 X-22.359 Y23.399
G01 F600 X-22.328 Y23.495
G01 F600 X-22.321 Y23.565
G01 F600 X-22.303 Y23.621
G01 F600 X-22.293 Y23.712
G01 F600 X-22.293 Y23.788
G01 F600 X-22.283 Y23.806
G01 F600 X-22.252 Y23.901
G01 F600 X-22.243 Y23.991
G01 F600 X-22.232 Y24.009
G01 F600 X-22.201 Y24.104
G01 F600 X-22.192 Y24.195
G01 F600 X-22.192 Y24.258
G01 F600 X-22.176 Y24.307
G01 F600 X-22.166 Y24.398
G01 F600 X-22.166 Y24.568
G01 F600 X-22.168 Y24.585
G01 F600 X-22.166 Y24.601
G01 F600 X-22.166 Y24.670
G01 F600 X-22.174 Y24.740
G01 F600 X-22.156 Y24.771
G01 F600 X-22.125 Y24.866
G01 F600 X-22.116 Y24.957
G01 F600 X-22.116 Y25.026
G01 F600 X-22.117 Y25.042
G01 F600 X-22.116 Y25.058
G01 F600 X-22.116 Y25.102
G01 F600 X-22.117 Y25.118
G01 F600 X-22.116 Y25.134
G01 F600 X-22.116 Y25.381
G01 F600 X-22.117 Y25.397
G01 F600 X-22.116 Y25.414
G01 F600 X-22.116 Y25.635
G01 F600 X-22.121 Y25.690
G01 F600 X-22.116 Y25.744
G01 F600 X-22.116 Y25.838
G01 F600 X-22.125 Y25.929
G01 F600 X-22.154 Y26.017
G01 F600 X-22.169 Y26.050
G01 F600 X-22.166 Y26.074
G01 F600 X-22.166 Y26.245
G01 F600 X-22.176 Y26.333
G01 F600 X-22.194 Y26.396
G01 F600 X-22.198 Y26.426
G01 F600 X-22.192 Y26.481
G01 F600 X-22.192 Y26.575
G01 F600 X-22.201 Y26.665
G01 F600 X-22.231 Y26.756
G01 F600 X-22.243 Y26.779
G01 F600 X-22.243 Y26.854
G01 F600 X-22.252 Y26.945
G01 F600 X-22.283 Y27.040
G01 F600 X-22.293 Y27.058
G01 F600 X-22.303 Y27.148
G01 F600 X-22.332 Y27.238
G01 F600 X-22.366 Y27.305
G01 F600 X-22.370 Y27.312
G01 F600 X-22.379 Y27.402
G01 F600 X-22.395 Y27.451
G01 F600 X-22.395 Y27.515
G01 F600 X-22.405 Y27.605
G01 F600 X-22.435 Y27.700
G01 F600 X-22.446 Y27.718
G01 F600 X-22.455 Y27.808
G01 F600 X-22.484 Y27.896
G01 F600 X-22.515 Y27.964
G01 F600 X-22.528 Y28.000
G01 F600 X-22.532 Y28.037
G01 F600 X-22.562 Y28.132
G01 F600 X-22.604 Y28.204
G01 F600 X-22.608 Y28.240
G01 F600 X-22.639 Y28.337
G01 F600 X-22.677 Y28.399
G01 F600 X-22.690 Y28.437
G01 F600 X-22.728 Y28.503
G01 F600 X-22.735 Y28.570
G01 F600 X-22.766 Y28.666
G01 F600 X-22.816 Y28.752
G01 F600 X-22.835 Y28.773
G01 F600 X-22.861 Y28.819
G01 F600 X-22.862 Y28.824
G01 F600 X-22.893 Y28.920
G01 F600 X-22.937 Y28.996
G01 F600 X-22.951 Y29.017
G01 F600 X-22.969 Y29.072
G01 F600 X-23.019 Y29.159
G01 F600 X-23.038 Y29.180
G01 F600 X-23.061 Y29.220
G01 F600 X-23.065 Y29.256
G01 F600 X-23.097 Y29.353
G01 F600 X-23.134 Y29.415
G01 F600 X-23.147 Y29.453
G01 F600 X-23.197 Y29.541
G01 F600 X-23.244 Y29.591
G01 F600 X-23.274 Y29.644
G01 F600 X-23.320 Y29.691
G01 F600 X-23.350 Y29.783
G01 F600 X-23.400 Y29.870
G01 F600 X-23.461 Y29.938
G01 F600 X-23.477 Y29.986
G01 F600 X-23.528 Y30.075
G01 F600 X-23.573 Y30.122
G01 F600 X-23.604 Y30.176
G01 F600 X-23.650 Y30.226
G01 F600 X-23.680 Y30.277
G01 F600 X-23.727 Y30.328
G01 F600 X-23.756 Y30.378
G01 F600 X-23.776 Y30.401
G01 F600 X-23.782 Y30.418
G01 F600 X-23.832 Y30.505
G01 F600 X-23.893 Y30.572
G01 F600 X-23.902 Y30.581
G01 F600 X-23.915 Y30.607
G01 F600 X-23.959 Y30.683
G01 F600 X-24.021 Y30.752
G01 F600 X-24.055 Y30.781
G01 F600 X-24.104 Y30.835
G01 F600 X-24.151 Y30.867
G01 F600 X-24.162 Y30.886
G01 F600 X-24.181 Y30.907
G01 F600 X-24.214 Y30.964
G01 F600 X-24.286 Y31.041
G01 F600 X-24.319 Y31.070
G01 F600 X-24.363 Y31.114
G01 F600 X-24.387 Y31.141
G01 F600 X-24.416 Y31.191
G01 F600 X-24.485 Y31.267
G01 F600 X-24.526 Y31.295
G01 F600 X-24.568 Y31.368
G01 F600 X-24.635 Y31.443
G01 F600 X-24.713 Y31.499
G01 F600 X-24.774 Y31.530
G01 F600 X-24.780 Y31.533
G01 F600 X-24.795 Y31.546
G01 F600 X-24.845 Y31.596
G01 F600 X-24.892 Y31.645
G01 F600 X-24.927 Y31.678
G01 F600 X-24.970 Y31.722
G01 F600 X-25.016 Y31.773
G01 F600 X-25.086 Y31.824
G01 F600 X-25.102 Y31.851
G01 F600 X-25.169 Y31.925
G01 F600 X-25.244 Y31.980
G01 F600 X-25.268 Y31.993
G01 F600 X-25.322 Y32.032
G01 F600 X-25.338 Y32.041
G01 F600 X-25.372 Y32.078
G01 F600 X-25.444 Y32.130
G01 F600 X-25.470 Y32.146
G01 F600 X-25.494 Y32.171
G01 F600 X-25.524 Y32.205
G01 F600 X-25.601 Y32.261
G01 F600 X-25.677 Y32.300
G01 F600 X-25.728 Y32.337
G01 F600 X-25.745 Y32.345
G01 F600 X-25.778 Y32.383
G01 F600 X-25.856 Y32.439
G01 F600 X-25.920 Y32.471
G01 F600 X-25.923 Y32.473
G01 F600 X-25.956 Y32.510
G01 F600 X-26.037 Y32.568
G01 F600 X-26.122 Y32.606
G01 F600 X-26.147 Y32.614
G01 F600 X-26.186 Y32.642
G01 F600 X-26.247 Y32.673
G01 F600 X-26.259 Y32.679
G01 F600 X-26.316 Y32.721
G01 F600 X-26.394 Y32.755
G01 F600 X-26.419 Y32.766
G01 F600 X-26.434 Y32.781
G01 F600 X-26.464 Y32.814
G01 F600 X-26.548 Y32.875
G01 F600 X-26.619 Y32.904
G01 F600 X-26.641 Y32.920
G01 F600 X-26.666 Y32.933
G01 F600 X-26.723 Y32.975
G01 F600 X-26.814 Y33.016
G01 F600 X-26.851 Y33.023
G01 F600 X-26.880 Y33.036
G01 F600 X-26.948 Y33.061
G01 F600 X-27.017 Y33.092
G01 F600 X-27.056 Y33.100
G01 F600 X-27.074 Y33.119
G01 F600 X-27.155 Y33.178
G01 F600 X-27.248 Y33.220
G01 F600 X-27.298 Y33.229
G01 F600 X-27.332 Y33.254
G01 F600 X-27.424 Y33.295
G01 F600 X-27.513 Y33.314
G01 F600 X-27.536 Y33.330
G01 F600 X-27.616 Y33.366
G01 F600 X-27.684 Y33.391
G01 F600 X-27.757 Y33.423
G01 F600 X-27.831 Y33.436
G01 F600 X-27.856 Y33.447
G01 F600 X-27.945 Y33.466
G01 F600 X-27.967 Y33.483
G01 F600 X-28.059 Y33.523
G01 F600 X-28.140 Y33.541
G01 F600 X-28.179 Y33.549
G01 F600 X-28.237 Y33.574
G01 F600 X-28.335 Y33.595
G01 F600 X-28.404 Y33.595
G01 F600 X-28.425 Y33.610
G01 F600 X-28.516 Y33.651
G01 F600 X-28.614 Y33.671
G01 F600 X-28.708 Y33.671
G01 F600 X-28.786 Y33.671
G01 F600 X-28.806 Y33.686
G01 F600 X-28.897 Y33.727
G01 F600 X-28.965 Y33.741
G01 F600 X-28.980 Y33.747
G01 F600 X-29.050 Y33.778
G01 F600 X-29.147 Y33.798
G01 F600 X-29.312 Y33.798
G01 F600 X-29.380 Y33.828
G01 F600 X-29.478 Y33.849
G01 F600 X-29.598 Y33.849
G01 F600 X-29.608 Y33.854
G01 F600 X-29.706 Y33.875
G01 F600 X-29.908 Y33.875
G01 F600 X-29.934 Y33.869
G01 F600 X-29.956 Y33.874
G01 F600 X-30.173 Y33.884
G01 F600 X-30.218 Y33.904
G01 F600 X-30.316 Y33.925
G01 F600 X-30.670 Y33.925
G01 F600 X-30.760 Y33.906
G01 F600 X-30.849 Y33.925
G01 F600 X-31.076 Y33.925
G00 F3000 Z3.000
G00 F3000 X-46.444 Y33.518
G00 F1500 Z0
G01 F600 Z-0.200
G01 F600 X-46.991 Y33.401
G01 F600 X-47.502 Y33.174
G01 F600 X-47.954 Y32.846
G01 F600 X-48.328 Y32.430
G01 F600 X-48.607 Y31.946
G01 F600 X-48.780 Y31.414
G01 F600 X-48.839 Y30.858
G01 F600 X-48.780 Y30.303
G01 F600 X-48.607 Y29.771
G01 F600 X-48.328 Y29.287
G01 F600 X-47.954 Y28.871
G01 F600 X-47.502 Y28.543
G01 F600 X-46.991 Y28.315
G01 F600 X-46.444 Y28.199
G01 F600 X-45.885 Y28.199
G01 F600 X-45.338 Y28.315
G01 F600 X-44.828 Y28.543
G01 F600 X-44.375 Y28.871
G01 F600 X-44.001 Y29.287
G01 F600 X-43.722 Y29.771
G01 F600 X-43.549 Y30.303
G01 F600 X-43.491 Y30.858
G01 F600 X-43.549 Y31.414
G01 F600 X-43.722 Y31.946
G01 F600 X-44.001 Y32.430
G01 F600 X-44.375 Y32.846
G01 F600 X-44.828 Y33.174
G01 F600 X-45.338 Y33.401
G01 F600 X-45.885 Y33.518
G01 F600 X-46.444 Y33.518
G00 F3000 Z3.000
G00 F3000 X55.156 Y33.518
G00 F1500 Z0
G01 F600 Z-0.200
G01 F600 X54.609 Y33.401
G01 F600 X54.098 Y33.174
G01 F600 X53.646 Y32.846
G01 F600 X53.272 Y32.430
G01 F600 X52.993 Y31.946
G01 F600 X52.820 Y31.414
G01 F600 X52.761 Y30.858
G01 F600 X52.820 Y30.303
G01 F600 X52.993 Y29.771
G01 F600 X53.272 Y29.287
G01 F600 X53.646 Y28.871
G01 F600 X54.098 Y28.543
G01 F600 X54.609 Y28.315
G01 F600 X55.156 Y28.199
G01 F600 X55.715 Y28.199
G01 F600 X56.262 Y28.315
G01 F600 X56.772 Y28.543
G01 F600 X57.225 Y28.871
G01 F600 X57.599 Y29.287
G01 F600 X57.878 Y29.771
G01 F600 X58.051 Y30.303
G01 F600 X58.109 Y30.858
G01 F600 X58.051 Y31.414
G01 F600 X57.878 Y31.946
G01 F600 X57.599 Y32.430
G01 F600 X57.225 Y32.846
G01 F600 X56.772 Y33.174
G01 F600 X56.262 Y33.401
G01 F600 X55.715 Y33.518
G01 F600 X55.156 Y33.518
G00 F3000 Z3.000
G00 F3000 X-30.658 Y32.702
G00 F1500 Z0
G01 F600 Z-0.200
G01 F600 X-30.625 Y32.695
G01 F600 X-30.485 Y32.685
G01 F600 X-30.438 Y32.664
G01 F600 X-30.342 Y32.643
G01 F600 X-29.871 Y32.632
G01 F600 X-29.828 Y32.613
G01 F600 X-29.726 Y32.591
G01 F600 X-29.618 Y32.596
G01 F600 X-29.599 Y32.587
G01 F600 X-29.513 Y32.569
G01 F600 X-29.449 Y32.560
G01 F600 X-29.396 Y32.537
G01 F600 X-29.298 Y32.516
G01 F600 X-29.152 Y32.516
G01 F600 X-29.142 Y32.511
G01 F600 X-29.044 Y32.491
G01 F600 X-29.009 Y32.491
G01 F600 X-28.954 Y32.450
G01 F600 X-28.863 Y32.410
G01 F600 X-28.765 Y32.389
G01 F600 X-28.670 Y32.389
G01 F600 X-28.602 Y32.365
G01 F600 X-28.533 Y32.334
G01 F600 X-28.444 Y32.315
G01 F600 X-28.421 Y32.298
G01 F600 X-28.340 Y32.262
G01 F600 X-28.272 Y32.238
G01 F600 X-28.202 Y32.206
G01 F600 X-28.104 Y32.186
G01 F600 X-28.086 Y32.186
G01 F600 X-28.018 Y32.161
G01 F600 X-27.946 Y32.129
G01 F600 X-27.871 Y32.116
G01 F600 X-27.847 Y32.105
G01 F600 X-27.843 Y32.104
G01 F600 X-27.841 Y32.103
G01 F600 X-27.760 Y32.044
G01 F600 X-27.676 Y32.006
G01 F600 X-27.651 Y31.999
G01 F600 X-27.608 Y31.968
G01 F600 X-27.517 Y31.927
G01 F600 X-27.480 Y31.919
G01 F600 X-27.451 Y31.907
G01 F600 X-27.388 Y31.884
G01 F600 X-27.333 Y31.856
G01 F600 X-27.283 Y31.819
G01 F600 X-27.259 Y31.806
G01 F600 X-27.206 Y31.767
G01 F600 X-27.130 Y31.729
G01 F600 X-27.080 Y31.692
G01 F600 X-27.056 Y31.679
G01 F600 X-26.998 Y31.638
G01 F600 X-26.915 Y31.600
G01 F600 X-26.900 Y31.596
G01 F600 X-26.876 Y31.569
G01 F600 X-26.795 Y31.511
G01 F600 X-26.704 Y31.470
G01 F600 X-26.663 Y31.461
G01 F600 X-26.644 Y31.454
G01 F600 X-26.617 Y31.434
G01 F600 X-26.563 Y31.410
G01 F600 X-26.537 Y31.364
G01 F600 X-26.470 Y31.290
G01 F600 X-26.393 Y31.234
G01 F600 X-26.317 Y31.195
G01 F600 X-26.262 Y31.155
G01 F600 X-26.203 Y31.129
G01 F600 X-26.165 Y31.087
G01 F600 X-26.084 Y31.028
G01 F600 X-26.076 Y31.024
G01 F600 X-26.063 Y31.011
G01 F600 X-25.982 Y30.952
G01 F600 X-25.974 Y30.948
G01 F600 X-25.968 Y30.941
G01 F600 X-25.955 Y30.929
G01 F600 X-25.925 Y30.878
G01 F600 X-25.856 Y30.809
G01 F600 X-25.809 Y30.757
G01 F600 X-25.726 Y30.696
G01 F600 X-25.675 Y30.675
G01 F600 X-25.664 Y30.663
G01 F600 X-25.605 Y30.608
G01 F600 X-25.562 Y30.561
G01 F600 X-25.500 Y30.504
G01 F600 X-25.445 Y30.449
G01 F600 X-25.398 Y30.401
G01 F600 X-25.346 Y30.346
G01 F600 X-25.319 Y30.322
G01 F600 X-25.284 Y30.283
G01 F600 X-25.248 Y30.249
G01 F600 X-25.234 Y30.221
G01 F600 X-25.191 Y30.145
G01 F600 X-25.122 Y30.069
G01 F600 X-25.074 Y30.037
G01 F600 X-25.063 Y30.017
G01 F600 X-25.016 Y29.967
G01 F600 X-24.986 Y29.915
G01 F600 X-24.967 Y29.894
G01 F600 X-24.961 Y29.876
G01 F600 X-24.911 Y29.790
G01 F600 X-24.842 Y29.713
G01 F600 X-24.795 Y29.681
G01 F600 X-24.784 Y29.663
G01 F600 X-24.764 Y29.640
G01 F600 X-24.758 Y29.622
G01 F600 X-24.708 Y29.536
G01 F600 X-24.649 Y29.470
G01 F600 X-24.609 Y29.433
G01 F600 X-24.586 Y29.392
G01 F600 X-24.586 Y29.387
G01 F600 X-24.555 Y29.292
G01 F600 X-24.505 Y29.205
G01 F600 X-24.452 Y29.147
G01 F600 X-24.443 Y29.136
G01 F600 X-24.428 Y29.089
G01 F600 X-24.378 Y29.002
G01 F600 X-24.357 Y28.980
G01 F600 X-24.352 Y28.962
G01 F600 X-24.302 Y28.875
G01 F600 X-24.249 Y28.817
G01 F600 X-24.240 Y28.806
G01 F600 X-24.225 Y28.759
G01 F600 X-24.183 Y28.687
G01 F600 X-24.179 Y28.651
G01 F600 X-24.148 Y28.556
G01 F600 X-24.098 Y28.469
G01 F600 X-24.079 Y28.448
G01 F600 X-24.054 Y28.403
G01 F600 X-24.039 Y28.382
G01 F600 X-24.021 Y28.327
G01 F600 X-23.980 Y28.255
G01 F600 X-23.976 Y28.219
G01 F600 X-23.945 Y28.124
G01 F600 X-23.895 Y28.037
G01 F600 X-23.881 Y28.021
G01 F600 X-23.866 Y27.989
G01 F600 X-23.844 Y27.921
G01 F600 X-23.802 Y27.849
G01 F600 X-23.798 Y27.813
G01 F600 X-23.770 Y27.724
G01 F600 X-23.738 Y27.658
G01 F600 X-23.716 Y27.591
G01 F600 X-23.691 Y27.514
G01 F600 X-23.650 Y27.442
G01 F600 X-23.646 Y27.406
G01 F600 X-23.615 Y27.311
G01 F600 X-23.605 Y27.293
G01 F600 X-23.603 Y27.277
G01 F600 X-23.605 Y27.261
G01 F600 X-23.605 Y27.217
G01 F600 X-23.595 Y27.127
G01 F600 X-23.566 Y27.039
G01 F600 X-23.536 Y26.973
G01 F600 X-23.528 Y26.951
G01 F600 X-23.528 Y26.912
G01 F600 X-23.519 Y26.822
G01 F600 X-23.488 Y26.727
G01 F600 X-23.478 Y26.709
G01 F600 X-23.478 Y26.633
G01 F600 X-23.468 Y26.545
G01 F600 X-23.452 Y26.490
G01 F600 X-23.452 Y26.430
G01 F600 X-23.451 Y26.413
G01 F600 X-23.452 Y26.397
G01 F600 X-23.452 Y26.354
G01 F600 X-23.443 Y26.263
G01 F600 X-23.414 Y26.176
G01 F600 X-23.398 Y26.139
G01 F600 X-23.397 Y26.134
G01 F600 X-23.401 Y26.092
G01 F600 X-23.401 Y25.744
G01 F600 X-23.392 Y25.654
G01 F600 X-23.364 Y25.566
G01 F600 X-23.351 Y25.538
G01 F600 X-23.351 Y25.490
G01 F600 X-23.348 Y25.461
G01 F600 X-23.351 Y25.432
G01 F600 X-23.351 Y25.287
G01 F600 X-23.341 Y25.196
G01 F600 X-23.325 Y25.147
G01 F600 X-23.325 Y25.121
G01 F600 X-23.326 Y25.120
G01 F600 X-23.361 Y25.059
G01 F600 X-23.392 Y24.963
G01 F600 X-23.401 Y24.873
G01 F600 X-23.401 Y24.753
G01 F600 X-23.392 Y24.663
G01 F600 X-23.387 Y24.648
G01 F600 X-23.392 Y24.633
G01 F600 X-23.401 Y24.543
G01 F600 X-23.401 Y24.442
G01 F600 X-23.412 Y24.424
G01 F600 X-23.442 Y24.331
G01 F600 X-23.448 Y24.290
G01 F600 X-23.468 Y24.227
G01 F600 X-23.478 Y24.137
G01 F600 X-23.478 Y24.086
G01 F600 X-23.488 Y24.068
G01 F600 X-23.519 Y23.973
G01 F600 X-23.529 Y23.882
G01 F600 X-23.528 Y23.820
G01 F600 X-23.544 Y23.770
G01 F600 X-23.554 Y23.679
G01 F600 X-23.554 Y23.634
G01 F600 X-23.565 Y23.621
G01 F600 X-23.615 Y23.535
G01 F600 X-23.646 Y23.440
G01 F600 X-23.655 Y23.349
G01 F600 X-23.655 Y23.317
G01 F600 X-23.691 Y23.255
G01 F600 X-23.722 Y23.160
G01 F600 X-23.732 Y23.070
G01 F600 X-23.732 Y23.063
G01 F600 X-23.749 Y23.033
G01 F600 X-23.768 Y23.012
G01 F600 X-23.818 Y22.925
G01 F600 X-23.849 Y22.830
G01 F600 X-23.859 Y22.739
G01 F600 X-23.859 Y22.730
G01 F600 X-23.863 Y22.717
G01 F600 X-23.895 Y22.682
G01 F600 X-23.945 Y22.595
G01 F600 X-23.975 Y22.503
G01 F600 X-23.980 Y22.468
G01 F600 X-23.986 Y22.453
G01 F600 X-24.021 Y22.392
G01 F600 X-24.050 Y22.303
G01 F600 X-24.098 Y22.250
G01 F600 X-24.148 Y22.164
G01 F600 X-24.180 Y22.067
G01 F600 X-24.198 Y22.004
G01 F600 X-24.223 Y21.955
G01 F600 X-24.232 Y21.941
G01 F600 X-24.251 Y21.920
G01 F600 X-24.302 Y21.830
G01 F600 X-24.315 Y21.786
G01 F600 X-24.378 Y21.716
G01 F600 X-24.427 Y21.631
G01 F600 X-24.444 Y21.580
G01 F600 X-24.505 Y21.513
G01 F600 X-24.555 Y21.427
G01 F600 X-24.561 Y21.409
G01 F600 X-24.581 Y21.386
G01 F600 X-24.631 Y21.300
G01 F600 X-24.647 Y21.251
G01 F600 X-24.708 Y21.183
G01 F600 X-24.750 Y21.110
G01 F600 X-24.771 Y21.072
G01 F600 X-24.800 Y21.035
G01 F600 X-24.844 Y21.003
G01 F600 X-24.911 Y20.929
G01 F600 X-24.961 Y20.843
G01 F600 X-24.979 Y20.787
G01 F600 X-24.993 Y20.777
G01 F600 X-25.058 Y20.712
G01 F600 X-25.096 Y20.668
G01 F600 X-25.125 Y20.646
G01 F600 X-25.172 Y20.591
G01 F600 X-25.200 Y20.572
G01 F600 X-25.267 Y20.497
G01 F600 X-25.299 Y20.442
G01 F600 X-25.316 Y20.423
G01 F600 X-25.347 Y20.373
G01 F600 X-25.361 Y20.358
G01 F600 X-25.364 Y20.355
G01 F600 X-25.373 Y20.351
G01 F600 X-25.454 Y20.292
G01 F600 X-25.519 Y20.220
G01 F600 X-25.553 Y20.166
G01 F600 X-25.589 Y20.125
G01 F600 X-25.652 Y20.097
G01 F600 X-25.735 Y20.037
G01 F600 X-25.782 Y19.982
G01 F600 X-25.809 Y19.962
G01 F600 X-25.876 Y19.888
G01 F600 X-25.908 Y19.832
G01 F600 X-25.915 Y19.825
G01 F600 X-25.932 Y19.818
G01 F600 X-25.989 Y19.776
G01 F600 X-26.013 Y19.763
G01 F600 X-26.085 Y19.711
G01 F600 X-26.149 Y19.647
G01 F600 X-26.156 Y19.639
G01 F600 X-26.202 Y19.618
G01 F600 X-26.246 Y19.593
G01 F600 X-26.313 Y19.564
G01 F600 X-26.395 Y19.504
G01 F600 X-26.443 Y19.448
G01 F600 X-26.446 Y19.446
G01 F600 X-26.471 Y19.433
G01 F600 X-26.546 Y19.378
G01 F600 X-26.604 Y19.313
G01 F600 X-26.614 Y19.308
G01 F600 X-26.668 Y19.284
G01 F600 X-26.726 Y19.243
G01 F600 X-26.750 Y19.229
G01 F600 X-26.813 Y19.183
G01 F600 X-26.870 Y19.158
G01 F600 X-26.917 Y19.125
G01 F600 X-26.932 Y19.122
G01 F600 X-27.024 Y19.081
G01 F600 X-27.105 Y19.022
G01 F600 X-27.117 Y19.008
G01 F600 X-27.161 Y18.983
G01 F600 X-27.227 Y18.954
G01 F600 X-27.296 Y18.904
G01 F600 X-27.354 Y18.878
G01 F600 X-27.377 Y18.861
G01 F600 X-27.466 Y18.842
G01 F600 X-27.557 Y18.802
G01 F600 X-27.614 Y18.760
G01 F600 X-27.631 Y18.751
G01 F600 X-27.659 Y18.735
G01 F600 X-27.673 Y18.730
G01 F600 X-27.745 Y18.715
G01 F600 X-27.832 Y18.677
G01 F600 X-27.874 Y18.649
G01 F600 X-27.923 Y18.639
G01 F600 X-28.014 Y18.598
G01 F600 X-28.076 Y18.553
G01 F600 X-28.152 Y18.538
G01 F600 X-28.162 Y18.533
G01 F600 X-28.181 Y18.533
G01 F600 X-28.279 Y18.512
G01 F600 X-28.370 Y18.471
G01 F600 X-28.393 Y18.455
G01 F600 X-28.486 Y18.435
G01 F600 X-28.544 Y18.406
G01 F600 X-28.562 Y18.406
G01 F600 X-28.660 Y18.385
G01 F600 X-28.729 Y18.354
G01 F600 X-28.744 Y18.349
G01 F600 X-28.812 Y18.334
G01 F600 X-28.822 Y18.330
G01 F600 X-28.892 Y18.330
G01 F600 X-28.990 Y18.309
G01 F600 X-29.059 Y18.278
G01 F600 X-29.074 Y18.273
G01 F600 X-29.142 Y18.258
G01 F600 X-29.234 Y18.217
G01 F600 X-29.257 Y18.201
G01 F600 X-29.261 Y18.200
G01 F600 X-29.274 Y18.203
G01 F600 X-29.501 Y18.203
G01 F600 X-29.604 Y18.181
G01 F600 X-29.661 Y18.152
G01 F600 X-29.781 Y18.152
G01 F600 X-29.879 Y18.131
G01 F600 X-29.889 Y18.127
G01 F600 X-30.187 Y18.127
G01 F600 X-30.289 Y18.105
G01 F600 X-30.347 Y18.076
G01 F600 X-30.822 Y18.076
G01 F600 X-30.895 Y18.060
G01 F600 X-30.935 Y18.075
G01 F600 X-31.005 Y18.106
G01 F600 X-31.103 Y18.127
G01 F600 X-31.330 Y18.127
G01 F600 X-31.356 Y18.121
G01 F600 X-31.383 Y18.127
G01 F600 X-31.528 Y18.127
G01 F600 X-31.539 Y18.131
G01 F600 X-31.627 Y18.150
G01 F600 X-31.717 Y18.160
G01 F600 X-31.767 Y18.182
G01 F600 X-31.858 Y18.201
G01 F600 X-31.973 Y18.211
G01 F600 X-32.021 Y18.233
G01 F600 X-32.119 Y18.254
G01 F600 X-32.214 Y18.254
G01 F600 X-32.282 Y18.278
G01 F600 X-32.352 Y18.309
G01 F600 X-32.449 Y18.330
G01 F600 X-32.544 Y18.330
G01 F600 X-32.612 Y18.354
G01 F600 X-32.682 Y18.385
G01 F600 X-32.768 Y18.403
G01 F600 X-32.832 Y18.413
G01 F600 X-32.885 Y18.436
G01 F600 X-32.921 Y18.444
G01 F600 X-32.950 Y18.457
G01 F600 X-33.018 Y18.481
G01 F600 X-33.091 Y18.513
G01 F600 X-33.165 Y18.527
G01 F600 X-33.179 Y18.533
G01 F600 X-33.250 Y18.558
G01 F600 X-33.299 Y18.578
G01 F600 X-33.327 Y18.598
G01 F600 X-33.418 Y18.639
G01 F600 X-33.507 Y18.658
G01 F600 X-33.530 Y18.675
G01 F600 X-33.624 Y18.716
G01 F600 X-33.704 Y18.731
G01 F600 X-33.707 Y18.732
G01 F600 X-33.733 Y18.751
G01 F600 X-33.825 Y18.791
G01 F600 X-33.864 Y18.800
G01 F600 X-33.881 Y18.819
G01 F600 X-33.962 Y18.878
G01 F600 X-34.053 Y18.919
G01 F600 X-34.094 Y18.927
G01 F600 X-34.113 Y18.934
G01 F600 X-34.142 Y18.956
G01 F600 X-34.213 Y18.985
G01 F600 X-34.238 Y19.003
G01 F600 X-34.249 Y19.008
G01 F600 X-34.262 Y19.022
G01 F600 X-34.343 Y19.081
G01 F600 X-34.351 Y19.085
G01 F600 X-34.363 Y19.098
G01 F600 X-34.444 Y19.157
G01 F600 X-34.528 Y19.194
G01 F600 X-34.543 Y19.199
G01 F600 X-34.567 Y19.225
G01 F600 X-34.644 Y19.281
G01 F600 X-34.719 Y19.320
G01 F600 X-34.769 Y19.356
G01 F600 X-34.794 Y19.370
G01 F600 X-34.851 Y19.411
G01 F600 X-34.859 Y19.415
G01 F600 X-34.871 Y19.429
G01 F600 X-34.952 Y19.487
G01 F600 X-34.968 Y19.494
G01 F600 X-34.978 Y19.505
G01 F600 X-35.024 Y19.556
G01 F600 X-35.100 Y19.611
G01 F600 X-35.166 Y19.646
G01 F600 X-35.176 Y19.657
G01 F600 X-35.253 Y19.713
G01 F600 X-35.270 Y19.722
G01 F600 X-35.305 Y19.761
G01 F600 X-35.353 Y19.793
G01 F600 X-35.363 Y19.811
G01 F600 X-35.430 Y19.886
G01 F600 X-35.508 Y19.942
G01 F600 X-35.566 Y19.971
G01 F600 X-35.577 Y19.978
G01 F600 X-35.589 Y19.989
G01 F600 X-35.629 Y20.033
G01 F600 X-35.663 Y20.062
G01 F600 X-35.712 Y20.117
G01 F600 X-35.759 Y20.148
G01 F600 X-35.770 Y20.167
G01 F600 X-35.832 Y20.236
G01 F600 X-35.857 Y20.257
G01 F600 X-35.890 Y20.292
G01 F600 X-35.919 Y20.319
G01 F600 X-35.959 Y20.363
G01 F600 X-35.993 Y20.392
G01 F600 X-35.993 Y20.393
G01 F600 X-35.999 Y20.411
G01 F600 X-36.049 Y20.497
G01 F600 X-36.118 Y20.574
G01 F600 X-36.165 Y20.606
G01 F600 X-36.176 Y20.624
G01 F600 X-36.243 Y20.699
G01 F600 X-36.306 Y20.744
G01 F600 X-36.356 Y20.831
G01 F600 X-36.400 Y20.875
G01 F600 X-36.406 Y20.893
G01 F600 X-36.458 Y20.983
G01 F600 X-36.528 Y21.054
G01 F600 X-36.554 Y21.083
G01 F600 X-36.584 Y21.134
G01 F600 X-36.628 Y21.181
G01 F600 X-36.659 Y21.234
G01 F600 X-36.678 Y21.255
G01 F600 X-36.709 Y21.310
G01 F600 X-36.762 Y21.368
G01 F600 X-36.771 Y21.380
G01 F600 X-36.786 Y21.427
G01 F600 X-36.838 Y21.515
G01 F600 X-36.857 Y21.535
G01 F600 X-36.863 Y21.554
G01 F600 X-36.913 Y21.640
G01 F600 X-36.932 Y21.661
G01 F600 X-36.963 Y21.716
G01 F600 X-36.984 Y21.739
G01 F600 X-36.990 Y21.757
G01 F600 X-37.034 Y21.833
G01 F600 X-37.048 Y21.854
G01 F600 X-37.066 Y21.909
G01 F600 X-37.111 Y21.987
G01 F600 X-37.111 Y21.992
G01 F600 X-37.142 Y22.087
G01 F600 X-37.186 Y22.163
G01 F600 X-37.200 Y22.184
G01 F600 X-37.218 Y22.239
G01 F600 X-37.267 Y22.324
G01 F600 X-37.331 Y22.398
G01 F600 X-37.343 Y22.435
G01 F600 X-37.373 Y22.500
G01 F600 X-37.384 Y22.536
G01 F600 X-37.391 Y22.601
G01 F600 X-37.422 Y22.699
G01 F600 X-37.460 Y22.760
G01 F600 X-37.473 Y22.800
G01 F600 X-37.512 Y22.863
G01 F600 X-37.514 Y22.869
G01 F600 X-37.517 Y22.906
G01 F600 X-37.546 Y22.994
G01 F600 X-37.577 Y23.060
G01 F600 X-37.598 Y23.123
G01 F600 X-37.631 Y23.190
G01 F600 X-37.635 Y23.197
G01 F600 X-37.635 Y23.222
G01 F600 X-37.645 Y23.313
G01 F600 X-37.673 Y23.400
G01 F600 X-37.690 Y23.437
G01 F600 X-37.695 Y23.490
G01 F600 X-37.726 Y23.585
G01 F600 X-37.762 Y23.648
G01 F600 X-37.762 Y23.679
G01 F600 X-37.771 Y23.767
G01 F600 X-37.787 Y23.822
G01 F600 X-37.787 Y23.883
G01 F600 X-37.797 Y23.973
G01 F600 X-37.828 Y24.068
G01 F600 X-37.838 Y24.086
G01 F600 X-37.838 Y24.162
G01 F600 X-37.848 Y24.252
G01 F600 X-37.876 Y24.340
G01 F600 X-37.889 Y24.369
G01 F600 X-37.898 Y24.456
G01 F600 X-37.914 Y24.504
G01 F600 X-37.914 Y24.543
G01 F600 X-37.917 Y24.572
G01 F600 X-37.914 Y24.601
G01 F600 X-37.914 Y25.026
G01 F600 X-37.924 Y25.116
G01 F600 X-37.955 Y25.211
G01 F600 X-37.965 Y25.229
G01 F600 X-37.965 Y25.489
G01 F600 X-37.955 Y25.508
G01 F600 X-37.924 Y25.603
G01 F600 X-37.914 Y25.693
G01 F600 X-37.914 Y25.762
G01 F600 X-37.921 Y25.826
G01 F600 X-37.921 Y25.832
G01 F600 X-37.914 Y25.896
G01 F600 X-37.914 Y26.092
G01 F600 X-37.921 Y26.156
G01 F600 X-37.921 Y26.163
G01 F600 X-37.914 Y26.227
G01 F600 X-37.914 Y26.240
G01 F600 X-37.898 Y26.290
G01 F600 X-37.893 Y26.346
G01 F600 X-37.879 Y26.371
G01 F600 X-37.848 Y26.466
G01 F600 X-37.838 Y26.557
G01 F600 X-37.838 Y26.600
G01 F600 X-37.841 Y26.628
G01 F600 X-37.828 Y26.651
G01 F600 X-37.797 Y26.746
G01 F600 X-37.787 Y26.836
G01 F600 X-37.787 Y26.875
G01 F600 X-37.772 Y26.924
G01 F600 X-37.769 Y26.951
G01 F600 X-37.752 Y26.981
G01 F600 X-37.721 Y27.076
G01 F600 X-37.711 Y27.166
G01 F600 X-37.711 Y27.180
G01 F600 X-37.695 Y27.230
G01 F600 X-37.690 Y27.286
G01 F600 X-37.675 Y27.311
G01 F600 X-37.645 Y27.406
G01 F600 X-37.635 Y27.496
G01 F600 X-37.625 Y27.514
G01 F600 X-37.593 Y27.610
G01 F600 X-37.576 Y27.669
G01 F600 X-37.549 Y27.717
G01 F600 X-37.517 Y27.814
G01 F600 X-37.500 Y27.872
G01 F600 X-37.470 Y27.924
G01 F600 X-37.449 Y27.999
G01 F600 X-37.421 Y28.047
G01 F600 X-37.391 Y28.140
G01 F600 X-37.387 Y28.175
G01 F600 X-37.380 Y28.190
G01 F600 X-37.346 Y28.250
G01 F600 X-37.326 Y28.309
G01 F600 X-37.319 Y28.316
G01 F600 X-37.287 Y28.372
G01 F600 X-37.268 Y28.393
G01 F600 X-37.218 Y28.479
G01 F600 X-37.187 Y28.574
G01 F600 X-37.187 Y28.580
G01 F600 X-37.142 Y28.657
G01 F600 X-37.113 Y28.745
G01 F600 X-37.065 Y28.799
G01 F600 X-37.015 Y28.885
G01 F600 X-36.984 Y28.979
G01 F600 X-36.984 Y28.980
G01 F600 X-36.964 Y29.002
G01 F600 X-36.912 Y29.091
G01 F600 X-36.899 Y29.136
G01 F600 X-36.837 Y29.205
G01 F600 X-36.785 Y29.295
G01 F600 X-36.764 Y29.371
G01 F600 X-36.736 Y29.419
G01 F600 X-36.732 Y29.431
G01 F600 X-36.640 Y29.522
G01 F600 X-36.583 Y29.586
G01 F600 X-36.532 Y29.673
G01 F600 X-36.527 Y29.691
G01 F600 X-36.504 Y29.716
G01 F600 X-36.476 Y29.770
G01 F600 X-36.446 Y29.791
G01 F600 X-36.378 Y29.868
G01 F600 X-36.348 Y29.923
G01 F600 X-36.319 Y29.944
G01 F600 X-36.252 Y30.018
G01 F600 X-36.226 Y30.063
G01 F600 X-36.209 Y30.081
G01 F600 X-36.151 Y30.145
G01 F600 X-36.103 Y30.228
G01 F600 X-36.038 Y30.275
G01 F600 X-35.991 Y30.330
G01 F600 X-35.964 Y30.350
G01 F600 X-35.905 Y30.416
G01 F600 X-35.883 Y30.444
G01 F600 X-35.835 Y30.479
G01 F600 X-35.788 Y30.534
G01 F600 X-35.760 Y30.553
G01 F600 X-35.702 Y30.619
G01 F600 X-35.680 Y30.647
G01 F600 X-35.637 Y30.678
G01 F600 X-35.577 Y30.738
G01 F600 X-35.496 Y30.819
G01 F600 X-35.458 Y30.863
G01 F600 X-35.434 Y30.881
G01 F600 X-35.373 Y30.941
G01 F600 X-35.366 Y30.949
G01 F600 X-35.353 Y30.956
G01 F600 X-35.290 Y31.002
G01 F600 X-35.240 Y31.041
G01 F600 X-35.176 Y31.087
G01 F600 X-35.164 Y31.100
G01 F600 X-35.156 Y31.104
G01 F600 X-35.078 Y31.161
G01 F600 X-35.032 Y31.207
G01 F600 X-34.978 Y31.231
G01 F600 X-34.909 Y31.282
G01 F600 X-34.851 Y31.307
G01 F600 X-34.765 Y31.370
G01 F600 X-34.723 Y31.424
G01 F600 X-34.698 Y31.434
G01 F600 X-34.641 Y31.476
G01 F600 X-34.617 Y31.489
G01 F600 X-34.541 Y31.544
G01 F600 X-34.504 Y31.586
G01 F600 X-34.496 Y31.589
G01 F600 X-34.460 Y31.597
G01 F600 X-34.368 Y31.638
G01 F600 X-34.311 Y31.679
G01 F600 X-34.286 Y31.693
G01 F600 X-34.223 Y31.739
G01 F600 X-34.163 Y31.765
G01 F600 X-34.123 Y31.796
G01 F600 X-34.104 Y31.800
G01 F600 X-34.013 Y31.841
G01 F600 X-33.933 Y31.899
G01 F600 X-33.926 Y31.906
G01 F600 X-33.923 Y31.906
G01 F600 X-33.825 Y31.927
G01 F600 X-33.742 Y31.964
G01 F600 X-33.698 Y31.989
G01 F600 X-33.684 Y31.995
G01 F600 X-33.647 Y32.003
G01 F600 X-33.555 Y32.044
G01 F600 X-33.498 Y32.086
G01 F600 X-33.473 Y32.099
G01 F600 X-33.436 Y32.127
G01 F600 X-33.413 Y32.131
G01 F600 X-33.335 Y32.172
G01 F600 X-33.301 Y32.179
G01 F600 X-33.262 Y32.191
G01 F600 X-33.190 Y32.206
G01 F600 X-33.107 Y32.243
G01 F600 X-33.059 Y32.270
G01 F600 X-33.026 Y32.287
G01 F600 X-33.008 Y32.287
G01 F600 X-32.910 Y32.308
G01 F600 X-32.871 Y32.326
G01 F600 X-32.830 Y32.334
G01 F600 X-32.772 Y32.364
G01 F600 X-32.729 Y32.364
G01 F600 X-32.631 Y32.384
G01 F600 X-32.620 Y32.389
G01 F600 X-32.602 Y32.389
G01 F600 X-32.504 Y32.410
G01 F600 X-32.434 Y32.441
G01 F600 X-32.419 Y32.446
G01 F600 X-32.347 Y32.461
G01 F600 X-32.290 Y32.491
G01 F600 X-32.272 Y32.491
G01 F600 X-32.174 Y32.511
G01 F600 X-32.163 Y32.516
G01 F600 X-32.068 Y32.516
G01 F600 X-31.971 Y32.537
G01 F600 X-31.879 Y32.577
G01 F600 X-31.859 Y32.592
G01 F600 X-31.586 Y32.592
G01 F600 X-31.488 Y32.613
G01 F600 X-31.419 Y32.644
G01 F600 X-31.416 Y32.645
G01 F600 X-31.407 Y32.643
G01 F600 X-31.027 Y32.643
G01 F600 X-30.925 Y32.665
G01 F600 X-30.867 Y32.694
G01 F600 X-30.697 Y32.694
G01 F600 X-30.658 Y32.702
G00 F3000 Z3.000
G00 F3000 X27.380 Y31.952
G00 F1500 Z0
G01 F600 Z-0.200
G01 F600 X27.155 Y31.905
G01 F600 X26.945 Y31.811
G01 F600 X26.759 Y31.676
G01 F600 X26.606 Y31.505
G01 F600 X26.491 Y31.306
G01 F600 X26.419 Y31.087
G01 F600 X26.395 Y30.858
G01 F600 X26.419 Y30.630
G01 F600 X26.491 Y30.411
G01 F600 X26.606 Y30.212
G01 F600 X26.618 Y30.197
G01 F600 X24.988 Y26.937
G01 F600 X24.834 Y26.937
G01 F600 X24.596 Y26.886
G01 F600 X24.373 Y26.787
G01 F600 X24.176 Y26.644
G01 F600 X24.013 Y26.463
G01 F600 X23.892 Y26.252
G01 F600 X23.816 Y26.021
G01 F600 X23.791 Y25.778
G01 F600 X23.816 Y25.536
G01 F600 X23.892 Y25.305
G01 F600 X24.013 Y25.094
G01 F600 X24.176 Y24.913
G01 F600 X24.373 Y24.770
G01 F600 X24.596 Y24.671
G01 F600 X24.834 Y24.620
G01 F600 X25.077 Y24.620
G01 F600 X25.315 Y24.671
G01 F600 X25.538 Y24.770
G01 F600 X25.735 Y24.913
G01 F600 X25.898 Y25.094
G01 F600 X26.019 Y25.305
G01 F600 X26.095 Y25.536
G01 F600 X26.120 Y25.778
G01 F600 X26.095 Y26.021
G01 F600 X26.019 Y26.252
G01 F600 X25.898 Y26.463
G01 F600 X25.847 Y26.519
G01 F600 X27.470 Y29.764
G01 F600 X27.610 Y29.764
G01 F600 X27.835 Y29.812
G01 F600 X28.045 Y29.906
G01 F600 X28.231 Y30.041
G01 F600 X28.385 Y30.212
G01 F600 X28.500 Y30.411
G01 F600 X28.571 Y30.630
G01 F600 X28.595 Y30.858
G01 F600 X28.571 Y31.087
G01 F600 X28.500 Y31.306
G01 F600 X28.385 Y31.505
G01 F600 X28.231 Y31.676
G01 F600 X28.045 Y31.811
G01 F600 X27.835 Y31.905
G01 F600 X27.610 Y31.952
G01 F600 X27.380 Y31.952
G00 F3000 Z3.000
G00 F3000 X19.760 Y31.952
G00 F1500 Z0
G01 F600 Z-0.200
G01 F600 X19.536 Y31.905
G01 F600 X19.325 Y31.811
G01 F600 X19.139 Y31.676
G01 F600 X18.986 Y31.505
G01 F600 X18.870 Y31.306
G01 F600 X18.799 Y31.087
G01 F600 X18.775 Y30.858
G01 F600 X18.799 Y30.630
G01 F600 X18.870 Y30.411
G01 F600 X18.986 Y30.212
G01 F600 X19.139 Y30.041
G01 F600 X19.325 Y29.906
G01 F600 X19.398 Y29.874
G01 F600 X19.396 Y26.833
G01 F600 X19.293 Y26.787
G01 F600 X19.096 Y26.644
G01 F600 X18.933 Y26.463
G01 F600 X18.812 Y26.252
G01 F600 X18.736 Y26.021
G01 F600 X18.711 Y25.778
G01 F600 X18.736 Y25.536
G01 F600 X18.812 Y25.305
G01 F600 X18.933 Y25.094
G01 F600 X19.096 Y24.913
G01 F600 X19.293 Y24.770
G01 F600 X19.515 Y24.671
G01 F600 X19.754 Y24.620
G01 F600 X19.997 Y24.620
G01 F600 X20.235 Y24.671
G01 F600 X20.458 Y24.770
G01 F600 X20.655 Y24.913
G01 F600 X20.818 Y25.094
G01 F600 X20.939 Y25.305
G01 F600 X21.015 Y25.536
G01 F600 X21.040 Y25.778
G01 F600 X21.015 Y26.021
G01 F600 X20.939 Y26.252
G01 F600 X20.818 Y26.463
G01 F600 X20.655 Y26.644
G01 F600 X20.458 Y26.787
G01 F600 X20.353 Y26.833
G01 F600 X20.353 Y29.874
G01 F600 X20.425 Y29.906
G01 F600 X20.611 Y30.041
G01 F600 X20.765 Y30.212
G01 F600 X20.880 Y30.411
G01 F600 X20.951 Y30.630
G01 F600 X20.975 Y30.858
G01 F600 X20.951 Y31.087
G01 F600 X20.880 Y31.306
G01 F600 X20.765 Y31.505
G01 F600 X20.611 Y31.676
G01 F600 X20.425 Y31.811
G01 F600 X20.215 Y31.905
G01 F600 X19.990 Y31.952
G01 F600 X19.760 Y31.952
G00 F3000 Z3.000
G00 F3000 X17.220 Y31.952
G00 F1500 Z0
G01 F600 Z-0.200
G01 F600 X16.995 Y31.905
G01 F600 X16.785 Y31.811
G01 F600 X16.599 Y31.676
G01 F600 X16.445 Y31.505
G01 F600 X16.331 Y31.306
G01 F600 X16.259 Y31.087
G01 F600 X16.235 Y30.858
G01 F600 X16.259 Y30.630
G01 F600 X16.331 Y30.411
G01 F600 X16.445 Y30.212
G01 F600 X16.599 Y30.041
G01 F600 X16.785 Y29.906
G01 F600 X16.858 Y29.874
G01 F600 X16.856 Y26.833
G01 F600 X16.753 Y26.787
G01 F600 X16.556 Y26.644
G01 F600 X16.393 Y26.463
G01 F600 X16.271 Y26.252
G01 F600 X16.196 Y26.021
G01 F600 X16.171 Y25.778
G01 F600 X16.196 Y25.536
G01 F600 X16.271 Y25.305
G01 F600 X16.393 Y25.094
G01 F600 X16.556 Y24.913
G01 F600 X16.753 Y24.770
G01 F600 X16.976 Y24.671
G01 F600 X17.214 Y24.620
G01 F600 X17.457 Y24.620
G01 F600 X17.695 Y24.671
G01 F600 X17.918 Y24.770
G01 F600 X18.115 Y24.913
G01 F600 X18.277 Y25.094
G01 F600 X18.399 Y25.305
G01 F600 X18.475 Y25.536
G01 F600 X18.500 Y25.778
G01 F600 X18.475 Y26.021
G01 F600 X18.399 Y26.252
G01 F600 X18.277 Y26.463
G01 F600 X18.115 Y26.644
G01 F600 X17.918 Y26.787
G01 F600 X17.813 Y26.833
G01 F600 X17.813 Y29.874
G01 F600 X17.885 Y29.906
G01 F600 X18.071 Y30.041
G01 F600 X18.225 Y30.212
G01 F600 X18.340 Y30.411
G01 F600 X18.411 Y30.630
G01 F600 X18.435 Y30.858
G01 F600 X18.411 Y31.087
G01 F600 X18.340 Y31.306
G01 F600 X18.225 Y31.505
G01 F600 X18.071 Y31.676
G01 F600 X17.885 Y31.811
G01 F600 X17.675 Y31.905
G01 F600 X17.450 Y31.952
G01 F600 X17.220 Y31.952
G00 F3000 Z3.000
G00 F3000 X22.300 Y31.952
G00 F1500 Z0
G01 F600 Z-0.200
G01 F600 X22.076 Y31.905
G01 F600 X21.865 Y31.811
G01 F600 X21.679 Y31.676
G01 F600 X21.526 Y31.505
G01 F600 X21.411 Y31.306
G01 F600 X21.339 Y31.087
G01 F600 X21.315 Y30.858
G01 F600 X21.339 Y30.630
G01 F600 X21.411 Y30.411
G01 F600 X21.526 Y30.212
G01 F600 X21.679 Y30.041
G01 F600 X21.865 Y29.906
G01 F600 X21.938 Y29.874
G01 F600 X21.936 Y26.833
G01 F600 X21.833 Y26.787
G01 F600 X21.636 Y26.644
G01 F600 X21.473 Y26.463
G01 F600 X21.352 Y26.252
G01 F600 X21.276 Y26.021
G01 F600 X21.251 Y25.778
G01 F600 X21.276 Y25.536
G01 F600 X21.352 Y25.305
G01 F600 X21.473 Y25.094
G01 F600 X21.636 Y24.913
G01 F600 X21.833 Y24.770
G01 F600 X22.056 Y24.671
G01 F600 X22.294 Y24.620
G01 F600 X22.537 Y24.620
G01 F600 X22.775 Y24.671
G01 F600 X22.998 Y24.770
G01 F600 X23.195 Y24.913
G01 F600 X23.358 Y25.094
G01 F600 X23.479 Y25.305
G01 F600 X23.555 Y25.536
G01 F600 X23.580 Y25.778
G01 F600 X23.555 Y26.021
G01 F600 X23.479 Y26.252
G01 F600 X23.358 Y26.463
G01 F600 X23.195 Y26.644
G01 F600 X22.998 Y26.787
G01 F600 X22.893 Y26.833
G01 F600 X22.893 Y29.874
G01 F600 X22.965 Y29.906
G01 F600 X23.151 Y30.041
G01 F600 X23.305 Y30.212
G01 F600 X23.420 Y30.411
G01 F600 X23.491 Y30.630
G01 F600 X23.515 Y30.858
G01 F600 X23.491 Y31.087
G01 F600 X23.420 Y31.306
G01 F600 X23.305 Y31.505
G01 F600 X23.151 Y31.676
G01 F600 X22.965 Y31.811
G01 F600 X22.755 Y31.905
G01 F600 X22.530 Y31.952
G01 F600 X22.300 Y31.952
G00 F3000 Z3.000
G00 F3000 X-0.560 Y31.952
G00 F1500 Z0
G01 F600 Z-0.200
G01 F600 X-0.785 Y31.905
G01 F600 X-0.995 Y31.811
G01 F600 X-1.181 Y31.676
G01 F600 X-1.335 Y31.505
G01 F600 X-1.450 Y31.306
G01 F600 X-1.521 Y31.087
G01 F600 X-1.545 Y30.858
G01 F600 X-1.521 Y30.630
G01 F600 X-1.450 Y30.411
G01 F600 X-1.335 Y30.212
G01 F600 X-1.181 Y30.041
G01 F600 X-0.995 Y29.906
G01 F600 X-0.924 Y29.874
G01 F600 X-0.972 Y23.386
G01 F600 X-3.208 Y21.150
G01 F600 X-14.666 Y21.174
G01 F600 X-14.773 Y21.361
G01 F600 X-14.931 Y21.536
G01 F600 X-15.121 Y21.674
G01 F600 X-15.337 Y21.770
G01 F600 X-15.567 Y21.819
G01 F600 X-15.802 Y21.819
G01 F600 X-16.033 Y21.770
G01 F600 X-16.248 Y21.674
G01 F600 X-16.438 Y21.536
G01 F600 X-16.596 Y21.361
G01 F600 X-16.714 Y21.157
G01 F600 X-16.786 Y20.933
G01 F600 X-16.811 Y20.698
G01 F600 X-16.786 Y20.464
G01 F600 X-16.714 Y20.240
G01 F600 X-16.596 Y20.036
G01 F600 X-16.438 Y19.861
G01 F600 X-16.248 Y19.723
G01 F600 X-16.033 Y19.627
G01 F600 X-15.802 Y19.578
G01 F600 X-15.567 Y19.578
G01 F600 X-15.337 Y19.627
G01 F600 X-15.121 Y19.723
G01 F600 X-14.931 Y19.861
G01 F600 X-14.773 Y20.036
G01 F600 X-14.666 Y20.222
G01 F600 X-3.042 Y20.197
G01 F600 X-2.960 Y20.197
G01 F600 X-2.862 Y20.218
G01 F600 X-2.771 Y20.258
G01 F600 X-2.693 Y20.315
G01 F600 X-0.166 Y22.842
G01 F600 X-0.108 Y22.906
G01 F600 X-0.058 Y22.993
G01 F600 X-0.027 Y23.088
G01 F600 X-0.018 Y23.178
G01 F600 X0.032 Y29.873
G01 F600 X0.105 Y29.906
G01 F600 X0.291 Y30.041
G01 F600 X0.445 Y30.212
G01 F600 X0.560 Y30.411
G01 F600 X0.631 Y30.630
G01 F600 X0.655 Y30.858
G01 F600 X0.631 Y31.087
G01 F600 X0.560 Y31.306
G01 F600 X0.445 Y31.505
G01 F600 X0.291 Y31.676
G01 F600 X0.105 Y31.811
G01 F600 X-0.105 Y31.905
G01 F600 X-0.330 Y31.952
G01 F600 X-0.560 Y31.952
G00 F3000 Z3.000
G00 F3000 X40.080 Y31.952
G00 F1500 Z0
G01 F600 Z-0.200
G01 F600 X39.855 Y31.905
G01 F600 X39.645 Y31.811
G01 F600 X39.459 Y31.676
G01 F600 X39.306 Y31.505
G01 F600 X39.191 Y31.306
G01 F600 X39.119 Y31.087
G01 F600 X39.095 Y30.858
G01 F600 X39.119 Y30.630
G01 F600 X39.191 Y30.411
G01 F600 X39.306 Y30.212
G01 F600 X39.459 Y30.041
G01 F600 X39.645 Y29.906
G01 F600 X39.855 Y29.812
G01 F600 X40.080 Y29.764
G01 F600 X40.310 Y29.764
G01 F600 X40.535 Y29.812
G01 F600 X40.745 Y29.906
G01 F600 X40.931 Y30.041
G01 F600 X41.085 Y30.212
G01 F600 X41.200 Y30.411
G01 F600 X41.271 Y30.630
G01 F600 X41.295 Y30.858
G01 F600 X41.271 Y31.087
G01 F600 X41.200 Y31.306
G01 F600 X41.085 Y31.505
G01 F600 X40.931 Y31.676
G01 F600 X40.745 Y31.811
G01 F600 X40.535 Y31.905
G01 F600 X40.310 Y31.952
G01 F600 X40.080 Y31.952
G00 F3000 Z3.000
G00 F3000 X37.540 Y31.952
G00 F1500 Z0
G01 F600 Z-0.200
G01 F600 X37.316 Y31.905
G01 F600 X37.105 Y31.811
G01 F600 X36.919 Y31.676
G01 F600 X36.766 Y31.505
G01 F600 X36.651 Y31.306
G01 F600 X36.579 Y31.087
G01 F600 X36.555 Y30.858
G01 F600 X36.579 Y30.630
G01 F600 X36.651 Y30.411
G01 F600 X36.766 Y30.212
G01 F600 X36.919 Y30.041
G01 F600 X37.105 Y29.906
G01 F600 X37.178 Y29.874
G01 F600 X37.176 Y26.833
G01 F600 X37.073 Y26.787
G01 F600 X36.876 Y26.644
G01 F600 X36.713 Y26.463
G01 F600 X36.592 Y26.252
G01 F600 X36.516 Y26.021
G01 F600 X36.491 Y25.778
G01 F600 X36.516 Y25.536
G01 F600 X36.592 Y25.305
G01 F600 X36.713 Y25.094
G01 F600 X36.876 Y24.913
G01 F600 X37.073 Y24.770
G01 F600 X37.296 Y24.671
G01 F600 X37.534 Y24.620
G01 F600 X37.777 Y24.620
G01 F600 X38.015 Y24.671
G01 F600 X38.238 Y24.770
G01 F600 X38.435 Y24.913
G01 F600 X38.598 Y25.094
G01 F600 X38.719 Y25.305
G01 F600 X38.794 Y25.536
G01 F600 X38.820 Y25.778
G01 F600 X38.794 Y26.021
G01 F600 X38.719 Y26.252
G01 F600 X38.598 Y26.463
G01 F600 X38.435 Y26.644
G01 F600 X38.238 Y26.787
G01 F600 X38.133 Y26.833
G01 F600 X38.133 Y29.874
G01 F600 X38.205 Y29.906
G01 F600 X38.391 Y30.041
G01 F600 X38.545 Y30.212
G01 F600 X38.660 Y30.411
G01 F600 X38.731 Y30.630
G01 F600 X38.755 Y30.858
G01 F600 X38.731 Y31.087
G01 F600 X38.660 Y31.306
G01 F600 X38.545 Y31.505
G01 F600 X38.391 Y31.676
G01 F600 X38.205 Y31.811
G01 F600 X37.995 Y31.905
G01 F600 X37.770 Y31.952
G01 F600 X37.540 Y31.952
G00 F3000 Z3.000
G00 F3000 X42.620 Y31.952
G00 F1500 Z0
G01 F600 Z-0.200
G01 F600 X42.396 Y31.905
G01 F600 X42.185 Y31.811
G01 F600 X41.999 Y31.676
G01 F600 X41.846 Y31.505
G01 F600 X41.730 Y31.306
G01 F600 X41.659 Y31.087
G01 F600 X41.635 Y30.858
G01 F600 X41.659 Y30.630
G01 F600 X41.730 Y30.411
G01 F600 X41.846 Y30.212
G01 F600 X41.999 Y30.041
G01 F600 X42.185 Y29.906
G01 F600 X42.396 Y29.812
G01 F600 X42.620 Y29.764
G01 F600 X42.850 Y29.764
G01 F600 X43.075 Y29.812
G01 F600 X43.285 Y29.906
G01 F600 X43.471 Y30.041
G01 F600 X43.625 Y30.212
G01 F600 X43.740 Y30.411
G01 F600 X43.811 Y30.630
G01 F600 X43.835 Y30.858
G01 F600 X43.811 Y31.087
G01 F600 X43.740 Y31.306
G01 F600 X43.625 Y31.505
G01 F600 X43.471 Y31.676
G01 F600 X43.285 Y31.811
G01 F600 X43.075 Y31.905
G01 F600 X42.850 Y31.952
G01 F600 X42.620 Y31.952
G00 F3000 Z3.000
G00 F3000 X-10.720 Y31.952
G00 F1500 Z0
G01 F600 Z-0.200
G01 F600 X-10.944 Y31.905
G01 F600 X-11.155 Y31.811
G01 F600 X-11.341 Y31.676
G01 F600 X-11.495 Y31.505
G01 F600 X-11.610 Y31.306
G01 F600 X-11.681 Y31.087
G01 F600 X-11.705 Y30.858
G01 F600 X-11.681 Y30.630
G01 F600 X-11.610 Y30.411
G01 F600 X-11.495 Y30.212
G01 F600 X-11.341 Y30.041
G01 F600 X-11.155 Y29.906
G01 F600 X-10.944 Y29.812
G01 F600 X-10.720 Y29.764
G01 F600 X-10.490 Y29.764
G01 F600 X-10.265 Y29.812
G01 F600 X-10.055 Y29.906
G01 F600 X-9.869 Y30.041
G01 F600 X-9.715 Y30.212
G01 F600 X-9.600 Y30.411
G01 F600 X-9.529 Y30.630
G01 F600 X-9.505 Y30.858
G01 F600 X-9.529 Y31.087
G01 F600 X-9.600 Y31.306
G01 F600 X-9.715 Y31.505
G01 F600 X-9.869 Y31.676
G01 F600 X-10.055 Y31.811
G01 F600 X-10.265 Y31.905
G01 F600 X-10.490 Y31.952
G01 F600 X-10.720 Y31.952
G00 F3000 Z3.000
G00 F3000 X29.920 Y31.952
G00 F1500 Z0
G01 F600 Z-0.200
G01 F600 X29.696 Y31.905
G01 F600 X29.485 Y31.811
G01 F600 X29.299 Y31.676
G01 F600 X29.146 Y31.505
G01 F600 X29.030 Y31.306
G01 F600 X28.959 Y31.087
G01 F600 X28.935 Y30.858
G01 F600 X28.959 Y30.630
G01 F600 X29.030 Y30.411
G01 F600 X29.146 Y30.212
G01 F600 X29.299 Y30.041
G01 F600 X29.485 Y29.906
G01 F600 X29.558 Y29.874
G01 F600 X29.556 Y26.833
G01 F600 X29.453 Y26.787
G01 F600 X29.256 Y26.644
G01 F600 X29.093 Y26.463
G01 F600 X28.972 Y26.252
G01 F600 X28.896 Y26.021
G01 F600 X28.871 Y25.778
G01 F600 X28.896 Y25.536
G01 F600 X28.972 Y25.305
G01 F600 X29.093 Y25.094
G01 F600 X29.256 Y24.913
G01 F600 X29.453 Y24.770
G01 F600 X29.676 Y24.671
G01 F600 X29.914 Y24.620
G01 F600 X30.157 Y24.620
G01 F600 X30.395 Y24.671
G01 F600 X30.618 Y24.770
G01 F600 X30.815 Y24.913
G01 F600 X30.978 Y25.094
G01 F600 X31.099 Y25.305
G01 F600 X31.175 Y25.536
G01 F600 X31.200 Y25.778
G01 F600 X31.175 Y26.021
G01 F600 X31.099 Y26.252
G01 F600 X30.978 Y26.463
G01 F600 X30.815 Y26.644
G01 F600 X30.618 Y26.787
G01 F600 X30.513 Y26.833
G01 F600 X30.513 Y29.874
G01 F600 X30.585 Y29.906
G01 F600 X30.771 Y30.041
G01 F600 X30.925 Y30.212
G01 F600 X31.040 Y30.411
G01 F600 X31.111 Y30.630
G01 F600 X31.135 Y30.858
G01 F600 X31.111 Y31.087
G01 F600 X31.040 Y31.306
G01 F600 X30.925 Y31.505
G01 F600 X30.771 Y31.676
G01 F600 X30.585 Y31.811
G01 F600 X30.375 Y31.905
G01 F600 X30.150 Y31.952
G01 F600 X29.920 Y31.952
G00 F3000 Z3.000
G00 F3000 X35.000 Y31.952
G00 F1500 Z0
G01 F600 Z-0.200
G01 F600 X34.776 Y31.905
G01 F600 X34.565 Y31.811
G01 F600 X34.379 Y31.676
G01 F600 X34.226 Y31.505
G01 F600 X34.111 Y31.306
G01 F600 X34.039 Y31.087
G01 F600 X34.015 Y30.858
G01 F600 X34.039 Y30.630
G01 F600 X34.111 Y30.411
G01 F600 X34.226 Y30.212
G01 F600 X34.379 Y30.041
G01 F600 X34.565 Y29.906
G01 F600 X34.638 Y29.874
G01 F600 X34.636 Y26.833
G01 F600 X34.533 Y26.787
G01 F600 X34.336 Y26.644
G01 F600 X34.173 Y26.463
G01 F600 X34.052 Y26.252
G01 F600 X33.976 Y26.021
G01 F600 X33.951 Y25.778
G01 F600 X33.976 Y25.536
G01 F600 X34.052 Y25.305
G01 F600 X34.173 Y25.094
G01 F600 X34.336 Y24.913
G01 F600 X34.533 Y24.770
G01 F600 X34.756 Y24.671
G01 F600 X34.994 Y24.620
G01 F600 X35.237 Y24.620
G01 F600 X35.475 Y24.671
G01 F600 X35.698 Y24.770
G01 F600 X35.895 Y24.913
G01 F600 X36.058 Y25.094
G01 F600 X36.179 Y25.305
G01 F600 X36.255 Y25.536
G01 F600 X36.280 Y25.778
G01 F600 X36.255 Y26.021
G01 F600 X36.179 Y26.252
G01 F600 X36.058 Y26.463
G01 F600 X35.895 Y26.644
G01 F600 X35.698 Y26.787
G01 F600 X35.593 Y26.833
G01 F600 X35.593 Y29.874
G01 F600 X35.665 Y29.906
G01 F600 X35.851 Y30.041
G01 F600 X36.005 Y30.212
G01 F600 X36.120 Y30.411
G01 F600 X36.191 Y30.630
G01 F600 X36.215 Y30.858
G01 F600 X36.191 Y31.087
G01 F600 X36.120 Y31.306
G01 F600 X36.005 Y31.505
G01 F600 X35.851 Y31.676
G01 F600 X35.665 Y31.811
G01 F600 X35.455 Y31.905
G01 F600 X35.230 Y31.952
G01 F600 X35.000 Y31.952
G00 F3000 Z3.000
G00 F3000 X32.460 Y31.952
G00 F1500 Z0
G01 F600 Z-0.200
G01 F600 X32.236 Y31.905
G01 F600 X32.025 Y31.811
G01 F600 X31.839 Y31.676
G01 F600 X31.686 Y31.505
G01 F600 X31.571 Y31.306
G01 F600 X31.499 Y31.087
G01 F600 X31.475 Y30.858
G01 F600 X31.499 Y30.630
G01 F600 X31.571 Y30.411
G01 F600 X31.686 Y30.212
G01 F600 X31.839 Y30.041
G01 F600 X32.025 Y29.906
G01 F600 X32.098 Y29.874
G01 F600 X32.096 Y26.833
G01 F600 X31.993 Y26.787
G01 F600 X31.796 Y26.644
G01 F600 X31.633 Y26.463
G01 F600 X31.512 Y26.252
G01 F600 X31.436 Y26.021
G01 F600 X31.411 Y25.778
G01 F600 X31.436 Y25.536
G01 F600 X31.512 Y25.305
G01 F600 X31.633 Y25.094
G01 F600 X31.796 Y24.913
G01 F600 X31.993 Y24.770
G01 F600 X32.215 Y24.671
G01 F600 X32.454 Y24.620
G01 F600 X32.697 Y24.620
G01 F600 X32.935 Y24.671
G01 F600 X33.158 Y24.770
G01 F600 X33.355 Y24.913
G01 F600 X33.517 Y25.094
G01 F600 X33.639 Y25.305
G01 F600 X33.715 Y25.536
G01 F600 X33.740 Y25.778
G01 F600 X33.715 Y26.021
G01 F600 X33.639 Y26.252
G01 F600 X33.517 Y26.463
G01 F600 X33.355 Y26.644
G01 F600 X33.158 Y26.787
G01 F600 X33.053 Y26.833
G01 F600 X33.053 Y29.874
G01 F600 X33.125 Y29.906
G01 F600 X33.311 Y30.041
G01 F600 X33.465 Y30.212
G01 F600 X33.580 Y30.411
G01 F600 X33.651 Y30.630
G01 F600 X33.675 Y30.858
G01 F600 X33.651 Y31.087
G01 F600 X33.580 Y31.306
G01 F600 X33.465 Y31.505
G01 F600 X33.311 Y31.676
G01 F600 X33.125 Y31.811
G01 F600 X32.915 Y31.905
G01 F600 X32.690 Y31.952
G01 F600 X32.460 Y31.952
G00 F3000 Z3.000
G00 F3000 X12.140 Y31.952
G00 F1500 Z0
G01 F600 Z-0.200
G01 F600 X11.915 Y31.905
G01 F600 X11.705 Y31.811
G01 F600 X11.519 Y31.676
G01 F600 X11.366 Y31.505
G01 F600 X11.251 Y31.306
G01 F600 X11.179 Y31.087
G01 F600 X11.155 Y30.858
G01 F600 X11.179 Y30.630
G01 F600 X11.251 Y30.411
G01 F600 X11.366 Y30.212
G01 F600 X11.519 Y30.041
G01 F600 X11.705 Y29.906
G01 F600 X11.778 Y29.874
G01 F600 X11.776 Y26.833
G01 F600 X11.673 Y26.787
G01 F600 X11.476 Y26.644
G01 F600 X11.313 Y26.463
G01 F600 X11.192 Y26.252
G01 F600 X11.116 Y26.021
G01 F600 X11.091 Y25.778
G01 F600 X11.116 Y25.536
G01 F600 X11.192 Y25.305
G01 F600 X11.313 Y25.094
G01 F600 X11.476 Y24.913
G01 F600 X11.673 Y24.770
G01 F600 X11.896 Y24.671
G01 F600 X12.134 Y24.620
G01 F600 X12.377 Y24.620
G01 F600 X12.615 Y24.671
G01 F600 X12.838 Y24.770
G01 F600 X13.035 Y24.913
G01 F600 X13.197 Y25.094
G01 F600 X13.319 Y25.305
G01 F600 X13.395 Y25.536
G01 F600 X13.420 Y25.778
G01 F600 X13.395 Y26.021
G01 F600 X13.319 Y26.252
G01 F600 X13.197 Y26.463
G01 F600 X13.035 Y26.644
G01 F600 X12.838 Y26.787
G01 F600 X12.733 Y26.833
G01 F600 X12.733 Y29.874
G01 F600 X12.805 Y29.906
G01 F600 X12.991 Y30.041
G01 F600 X13.145 Y30.212
G01 F600 X13.260 Y30.411
G01 F600 X13.331 Y30.630
G01 F600 X13.355 Y30.858
G01 F600 X13.331 Y31.087
G01 F600 X13.260 Y31.306
G01 F600 X13.145 Y31.505
G01 F600 X12.991 Y31.676
G01 F600 X12.805 Y31.811
G01 F600 X12.595 Y31.905
G01 F600 X12.370 Y31.952
G01 F600 X12.140 Y31.952
G00 F3000 Z3.000
G00 F3000 X9.600 Y31.952
G00 F1500 Z0
G01 F600 Z-0.200
G01 F600 X9.376 Y31.905
G01 F600 X9.165 Y31.811
G01 F600 X8.979 Y31.676
G01 F600 X8.825 Y31.505
G01 F600 X8.710 Y31.306
G01 F600 X8.639 Y31.087
G01 F600 X8.615 Y30.858
G01 F600 X8.639 Y30.630
G01 F600 X8.710 Y30.411
G01 F600 X8.825 Y30.212
G01 F600 X8.979 Y30.041
G01 F600 X9.165 Y29.906
G01 F600 X9.238 Y29.874
G01 F600 X9.236 Y26.833
G01 F600 X9.133 Y26.787
G01 F600 X8.936 Y26.644
G01 F600 X8.773 Y26.463
G01 F600 X8.652 Y26.252
G01 F600 X8.576 Y26.021
G01 F600 X8.551 Y25.778
G01 F600 X8.576 Y25.536
G01 F600 X8.652 Y25.305
G01 F600 X8.773 Y25.094
G01 F600 X8.936 Y24.913
G01 F600 X9.133 Y24.770
G01 F600 X9.356 Y24.671
G01 F600 X9.594 Y24.620
G01 F600 X9.837 Y24.620
G01 F600 X10.075 Y24.671
G01 F600 X10.298 Y24.770
G01 F600 X10.495 Y24.913
G01 F600 X10.658 Y25.094
G01 F600 X10.779 Y25.305
G01 F600 X10.854 Y25.536
G01 F600 X10.880 Y25.778
G01 F600 X10.854 Y26.021
G01 F600 X10.779 Y26.252
G01 F600 X10.658 Y26.463
G01 F600 X10.495 Y26.644
G01 F600 X10.298 Y26.787
G01 F600 X10.193 Y26.833
G01 F600 X10.193 Y29.874
G01 F600 X10.265 Y29.906
G01 F600 X10.451 Y30.041
G01 F600 X10.605 Y30.212
G01 F600 X10.720 Y30.411
G01 F600 X10.791 Y30.630
G01 F600 X10.815 Y30.858
G01 F600 X10.791 Y31.087
G01 F600 X10.720 Y31.306
G01 F600 X10.605 Y31.505
G01 F600 X10.451 Y31.676
G01 F600 X10.265 Y31.811
G01 F600 X10.055 Y31.905
G01 F600 X9.830 Y31.952
G01 F600 X9.600 Y31.952
G00 F3000 Z3.000
G00 F3000 X14.680 Y31.952
G00 F1500 Z0
G01 F600 Z-0.200
G01 F600 X14.456 Y31.905
G01 F600 X14.245 Y31.811
G01 F600 X14.059 Y31.676
G01 F600 X13.905 Y31.505
G01 F600 X13.791 Y31.306
G01 F600 X13.719 Y31.087
G01 F600 X13.695 Y30.858
G01 F600 X13.719 Y30.630
G01 F600 X13.791 Y30.411
G01 F600 X13.905 Y30.212
G01 F600 X14.059 Y30.041
G01 F600 X14.245 Y29.906
G01 F600 X14.318 Y29.874
G01 F600 X14.316 Y26.833
G01 F600 X14.213 Y26.787
G01 F600 X14.016 Y26.644
G01 F600 X13.853 Y26.463
G01 F600 X13.732 Y26.252
G01 F600 X13.656 Y26.021
G01 F600 X13.631 Y25.778
G01 F600 X13.656 Y25.536
G01 F600 X13.732 Y25.305
G01 F600 X13.853 Y25.094
G01 F600 X14.016 Y24.913
G01 F600 X14.213 Y24.770
G01 F600 X14.436 Y24.671
G01 F600 X14.674 Y24.620
G01 F600 X14.917 Y24.620
G01 F600 X15.155 Y24.671
G01 F600 X15.378 Y24.770
G01 F600 X15.575 Y24.913
G01 F600 X15.738 Y25.094
G01 F600 X15.859 Y25.305
G01 F600 X15.934 Y25.536
G01 F600 X15.960 Y25.778
G01 F600 X15.934 Y26.021
G01 F600 X15.859 Y26.252
G01 F600 X15.738 Y26.463
G01 F600 X15.575 Y26.644
G01 F600 X15.378 Y26.787
G01 F600 X15.273 Y26.833
G01 F600 X15.273 Y29.874
G01 F600 X15.345 Y29.906
G01 F600 X15.531 Y30.041
G01 F600 X15.685 Y30.212
G01 F600 X15.800 Y30.411
G01 F600 X15.871 Y30.630
G01 F600 X15.895 Y30.858
G01 F600 X15.871 Y31.087
G01 F600 X15.800 Y31.306
G01 F600 X15.685 Y31.505
G01 F600 X15.531 Y31.676
G01 F600 X15.345 Y31.811
G01 F600 X15.135 Y31.905
G01 F600 X14.910 Y31.952
G01 F600 X14.680 Y31.952
G00 F3000 Z3.000
G00 F3000 X45.160 Y31.952
G00 F1500 Z0
G01 F600 Z-0.200
G01 F600 X44.936 Y31.905
G01 F600 X44.725 Y31.811
G01 F600 X44.539 Y31.676
G01 F600 X44.386 Y31.505
G01 F600 X44.271 Y31.306
G01 F600 X44.199 Y31.087
G01 F600 X44.175 Y30.858
G01 F600 X44.199 Y30.630
G01 F600 X44.271 Y30.411
G01 F600 X44.386 Y30.212
G01 F600 X44.539 Y30.041
G01 F600 X44.725 Y29.906
G01 F600 X44.936 Y29.812
G01 F600 X45.160 Y29.764
G01 F600 X45.390 Y29.764
G01 F600 X45.615 Y29.812
G01 F600 X45.825 Y29.906
G01 F600 X46.011 Y30.041
G01 F600 X46.165 Y30.212
G01 F600 X46.280 Y30.411
G01 F600 X46.351 Y30.630
G01 F600 X46.375 Y30.858
G01 F600 X46.351 Y31.087
G01 F600 X46.280 Y31.306
G01 F600 X46.165 Y31.505
G01 F600 X46.011 Y31.676
G01 F600 X45.825 Y31.811
G01 F600 X45.615 Y31.905
G01 F600 X45.390 Y31.952
G01 F600 X45.160 Y31.952
G00 F3000 Z3.000
G00 F3000 X7.060 Y31.952
G00 F1500 Z0
G01 F600 Z-0.200
G01 F600 X6.836 Y31.905
G01 F600 X6.625 Y31.811
G01 F600 X6.439 Y31.676
G01 F600 X6.285 Y31.505
G01 F600 X6.171 Y31.306
G01 F600 X6.099 Y31.087
G01 F600 X6.075 Y30.858
G01 F600 X6.099 Y30.630
G01 F600 X6.171 Y30.411
G01 F600 X6.285 Y30.212
G01 F600 X6.439 Y30.041
G01 F600 X6.625 Y29.906
G01 F600 X6.698 Y29.874
G01 F600 X6.696 Y26.833
G01 F600 X6.593 Y26.787
G01 F600 X6.396 Y26.644
G01 F600 X6.233 Y26.463
G01 F600 X6.112 Y26.252
G01 F600 X6.036 Y26.021
G01 F600 X6.011 Y25.778
G01 F600 X6.036 Y25.536
G01 F600 X6.112 Y25.305
G01 F600 X6.233 Y25.094
G01 F600 X6.396 Y24.913
G01 F600 X6.593 Y24.770
G01 F600 X6.816 Y24.671
G01 F600 X7.054 Y24.620
G01 F600 X7.297 Y24.620
G01 F600 X7.535 Y24.671
G01 F600 X7.758 Y24.770
G01 F600 X7.955 Y24.913
G01 F600 X8.117 Y25.094
G01 F600 X8.239 Y25.305
G01 F600 X8.315 Y25.536
G01 F600 X8.340 Y25.778
G01 F600 X8.315 Y26.021
G01 F600 X8.239 Y26.252
G01 F600 X8.117 Y26.463
G01 F600 X7.955 Y26.644
G01 F600 X7.758 Y26.787
G01 F600 X7.653 Y26.833
G01 F600 X7.653 Y29.874
G01 F600 X7.725 Y29.906
G01 F600 X7.911 Y30.041
G01 F600 X8.065 Y30.212
G01 F600 X8.180 Y30.411
G01 F600 X8.251 Y30.630
G01 F600 X8.275 Y30.858
G01 F600 X8.251 Y31.087
G01 F600 X8.180 Y31.306
G01 F600 X8.065 Y31.505
G01 F600 X7.911 Y31.676
G01 F600 X7.725 Y31.811
G01 F600 X7.515 Y31.905
G01 F600 X7.290 Y31.952
G01 F600 X7.060 Y31.952
G00 F3000 Z3.000
G00 F3000 X4.520 Y31.952
G00 F1500 Z0
G01 F600 Z-0.200
G01 F600 X4.296 Y31.905
G01 F600 X4.085 Y31.811
G01 F600 X3.899 Y31.676
G01 F600 X3.746 Y31.505
G01 F600 X3.631 Y31.306
G01 F600 X3.559 Y31.087
G01 F600 X3.535 Y30.858
G01 F600 X3.560 Y30.629
G01 F600 X3.597 Y30.517
G01 F600 X1.790 Y28.663
G01 F600 X1.734 Y28.600
G01 F600 X1.683 Y28.513
G01 F600 X1.653 Y28.418
G01 F600 X1.643 Y28.328
G01 F600 X1.643 Y23.388
G01 F600 X-3.258 Y18.584
G01 F600 X-23.405 Y18.584
G01 F600 X-23.503 Y18.563
G01 F600 X-23.595 Y18.522
G01 F600 X-23.672 Y18.466
G01 F600 X-25.995 Y16.119
G01 F600 X-28.247 Y16.107
G01 F600 X-28.309 Y16.120
G01 F600 X-28.392 Y16.120
G01 F600 X-29.909 Y16.099
G01 F600 X-30.013 Y16.280
G01 F600 X-30.171 Y16.456
G01 F600 X-30.361 Y16.594
G01 F600 X-30.577 Y16.690
G01 F600 X-30.807 Y16.739
G01 F600 X-31.042 Y16.739
G01 F600 X-31.273 Y16.690
G01 F600 X-31.488 Y16.594
G01 F600 X-31.678 Y16.456
G01 F600 X-31.836 Y16.280
G01 F600 X-31.954 Y16.077
G01 F600 X-32.026 Y15.853
G01 F600 X-32.051 Y15.618
G01 F600 X-32.026 Y15.384
G01 F600 X-31.954 Y15.160
G01 F600 X-31.836 Y14.956
G01 F600 X-31.678 Y14.781
G01 F600 X-31.488 Y14.643
G01 F600 X-31.273 Y14.547
G01 F600 X-31.042 Y14.498
G01 F600 X-30.807 Y14.498
G01 F600 X-30.577 Y14.547
G01 F600 X-30.361 Y14.643
G01 F600 X-30.171 Y14.781
G01 F600 X-30.013 Y14.956
G01 F600 X-29.905 Y15.144
G01 F600 X-28.844 Y15.150
G01 F600 X-28.859 Y14.094
G01 F600 X-28.948 Y14.054
G01 F600 X-29.138 Y13.916
G01 F600 X-29.296 Y13.741
G01 F600 X-29.414 Y13.537
G01 F600 X-29.486 Y13.313
G01 F600 X-29.511 Y13.078
G01 F600 X-29.486 Y12.844
G01 F600 X-29.414 Y12.620
G01 F600 X-29.296 Y12.416
G01 F600 X-29.138 Y12.241
G01 F600 X-28.948 Y12.103
G01 F600 X-28.733 Y12.007
G01 F600 X-28.502 Y11.958
G01 F600 X-28.267 Y11.958
G01 F600 X-28.037 Y12.007
G01 F600 X-27.821 Y12.103
G01 F600 X-27.631 Y12.241
G01 F600 X-27.473 Y12.416
G01 F600 X-27.356 Y12.620
G01 F600 X-27.283 Y12.844
G01 F600 X-27.258 Y13.078
G01 F600 X-27.283 Y13.313
G01 F600 X-27.356 Y13.537
G01 F600 X-27.473 Y13.741
G01 F600 X-27.631 Y13.916
G01 F600 X-27.821 Y14.054
G01 F600 X-27.903 Y14.090
G01 F600 X-27.888 Y15.155
G01 F600 X-25.743 Y15.168
G01 F600 X-25.646 Y15.189
G01 F600 X-25.554 Y15.229
G01 F600 X-25.477 Y15.286
G01 F600 X-23.155 Y17.632
G01 F600 X-2.985 Y17.632
G01 F600 X-2.888 Y17.652
G01 F600 X-2.796 Y17.693
G01 F600 X-2.719 Y17.749
G01 F600 X2.450 Y22.841
G01 F600 X2.508 Y22.906
G01 F600 X2.558 Y22.993
G01 F600 X2.589 Y23.088
G01 F600 X2.599 Y23.178
G01 F600 X2.599 Y28.123
G01 F600 X4.279 Y29.820
G01 F600 X4.296 Y29.812
G01 F600 X4.520 Y29.764
G01 F600 X4.750 Y29.764
G01 F600 X4.975 Y29.812
G01 F600 X5.185 Y29.906
G01 F600 X5.371 Y30.041
G01 F600 X5.525 Y30.212
G01 F600 X5.640 Y30.411
G01 F600 X5.711 Y30.630
G01 F600 X5.735 Y30.858
G01 F600 X5.711 Y31.087
G01 F600 X5.640 Y31.306
G01 F600 X5.525 Y31.505
G01 F600 X5.371 Y31.676
G01 F600 X5.185 Y31.811
G01 F600 X4.975 Y31.905
G01 F600 X4.750 Y31.952
G01 F600 X4.520 Y31.952
G00 F3000 Z3.000
G00 F3000 X-8.180 Y31.952
G00 F1500 Z0
G01 F600 Z-0.200
G01 F600 X-8.405 Y31.905
G01 F600 X-8.615 Y31.811
G01 F600 X-8.801 Y31.676
G01 F600 X-8.955 Y31.505
G01 F600 X-9.069 Y31.306
G01 F600 X-9.141 Y31.087
G01 F600 X-9.165 Y30.858
G01 F600 X-9.141 Y30.630
G01 F600 X-9.069 Y30.411
G01 F600 X-8.955 Y30.212
G01 F600 X-8.801 Y30.041
G01 F600 X-8.615 Y29.906
G01 F600 X-8.542 Y29.874
G01 F600 X-8.542 Y29.332
G01 F600 X-8.628 Y29.294
G01 F600 X-8.818 Y29.155
G01 F600 X-8.976 Y28.981
G01 F600 X-9.094 Y28.777
G01 F600 X-9.166 Y28.553
G01 F600 X-9.191 Y28.318
G01 F600 X-9.166 Y28.084
G01 F600 X-9.094 Y27.860
G01 F600 X-8.976 Y27.656
G01 F600 X-8.818 Y27.481
G01 F600 X-8.628 Y27.343
G01 F600 X-8.413 Y27.247
G01 F600 X-8.182 Y27.198
G01 F600 X-7.947 Y27.198
G01 F600 X-7.717 Y27.247
G01 F600 X-7.501 Y27.343
G01 F600 X-7.311 Y27.481
G01 F600 X-7.153 Y27.656
G01 F600 X-7.036 Y27.860
G01 F600 X-6.963 Y28.084
G01 F600 X-6.938 Y28.318
G01 F600 X-6.963 Y28.553
G01 F600 X-7.036 Y28.777
G01 F600 X-7.153 Y28.981
G01 F600 X-7.311 Y29.155
G01 F600 X-7.501 Y29.294
G01 F600 X-7.587 Y29.332
G01 F600 X-7.587 Y29.874
G01 F600 X-7.515 Y29.906
G01 F600 X-7.329 Y30.041
G01 F600 X-7.175 Y30.212
G01 F600 X-7.060 Y30.411
G01 F600 X-6.989 Y30.630
G01 F600 X-6.965 Y30.858
G01 F600 X-6.989 Y31.087
G01 F600 X-7.060 Y31.306
G01 F600 X-7.175 Y31.505
G01 F600 X-7.329 Y31.676
G01 F600 X-7.515 Y31.811
G01 F600 X-7.725 Y31.905
G01 F600 X-7.950 Y31.952
G01 F600 X-8.180 Y31.952
G00 F3000 Z3.000
G00 F3000 X-13.260 Y31.952
G00 F1500 Z0
G01 F600 Z-0.200
G01 F600 X-13.485 Y31.905
G01 F600 X-13.695 Y31.811
G01 F600 X-13.881 Y31.676
G01 F600 X-14.035 Y31.505
G01 F600 X-14.150 Y31.306
G01 F600 X-14.221 Y31.087
G01 F600 X-14.245 Y30.858
G01 F600 X-14.221 Y30.630
G01 F600 X-14.150 Y30.411
G01 F600 X-14.035 Y30.212
G01 F600 X-13.881 Y30.041
G01 F600 X-13.695 Y29.906
G01 F600 X-13.648 Y29.885
G01 F600 X-13.648 Y28.309
G01 F600 X-13.638 Y28.219
G01 F600 X-13.607 Y28.124
G01 F600 X-13.557 Y28.037
G01 F600 X-13.490 Y27.963
G01 F600 X-13.409 Y27.904
G01 F600 X-13.332 Y27.869
G01 F600 X-12.842 Y27.674
G01 F600 X-12.824 Y27.500
G01 F600 X-12.751 Y27.276
G01 F600 X-12.633 Y27.072
G01 F600 X-12.476 Y26.897
G01 F600 X-12.285 Y26.759
G01 F600 X-12.070 Y26.663
G01 F600 X-11.840 Y26.614
G01 F600 X-11.604 Y26.614
G01 F600 X-11.374 Y26.663
G01 F600 X-11.159 Y26.759
G01 F600 X-10.969 Y26.897
G01 F600 X-10.811 Y27.072
G01 F600 X-10.693 Y27.276
G01 F600 X-10.620 Y27.500
G01 F600 X-10.596 Y27.734
G01 F600 X-10.620 Y27.968
G01 F600 X-10.693 Y28.192
G01 F600 X-10.811 Y28.396
G01 F600 X-10.969 Y28.571
G01 F600 X-11.159 Y28.710
G01 F600 X-11.374 Y28.806
G01 F600 X-11.604 Y28.855
G01 F600 X-11.840 Y28.855
G01 F600 X-12.070 Y28.806
G01 F600 X-12.285 Y28.710
G01 F600 X-12.476 Y28.571
G01 F600 X-12.487 Y28.559
G01 F600 X-12.692 Y28.641
G01 F600 X-12.686 Y29.865
G01 F600 X-12.595 Y29.906
G01 F600 X-12.409 Y30.041
G01 F600 X-12.255 Y30.212
G01 F600 X-12.140 Y30.411
G01 F600 X-12.069 Y30.630
G01 F600 X-12.045 Y30.858
G01 F600 X-12.069 Y31.087
G01 F600 X-12.140 Y31.306
G01 F600 X-12.255 Y31.505
G01 F600 X-12.409 Y31.676
G01 F600 X-12.595 Y31.811
G01 F600 X-12.805 Y31.905
G01 F600 X-13.030 Y31.952
G01 F600 X-13.260 Y31.952
G00 F3000 Z3.000
G00 F3000 X-3.100 Y31.952
G00 F1500 Z0
G01 F600 Z-0.200
G01 F600 X-3.325 Y31.905
G01 F600 X-3.535 Y31.811
G01 F600 X-3.721 Y31.676
G01 F600 X-3.875 Y31.505
G01 F600 X-3.990 Y31.306
G01 F600 X-4.061 Y31.087
G01 F600 X-4.085 Y30.858
G01 F600 X-4.061 Y30.630
G01 F600 X-3.990 Y30.411
G01 F600 X-3.875 Y30.212
G01 F600 X-3.721 Y30.041
G01 F600 X-3.535 Y29.906
G01 F600 X-3.325 Y29.812
G01 F600 X-3.100 Y29.764
G01 F600 X-2.870 Y29.764
G01 F600 X-2.645 Y29.812
G01 F600 X-2.435 Y29.906
G01 F600 X-2.249 Y30.041
G01 F600 X-2.095 Y30.212
G01 F600 X-1.980 Y30.411
G01 F600 X-1.909 Y30.630
G01 F600 X-1.885 Y30.858
G01 F600 X-1.909 Y31.087
G01 F600 X-1.980 Y31.306
G01 F600 X-2.095 Y31.505
G01 F600 X-2.249 Y31.676
G01 F600 X-2.435 Y31.811
G01 F600 X-2.645 Y31.905
G01 F600 X-2.870 Y31.952
G01 F600 X-3.100 Y31.952
G00 F3000 Z3.000
G00 F3000 X-18.340 Y31.952
G00 F1500 Z0
G01 F600 Z-0.200
G01 F600 X-18.565 Y31.905
G01 F600 X-18.775 Y31.811
G01 F600 X-18.961 Y31.676
G01 F600 X-19.114 Y31.505
G01 F600 X-19.230 Y31.306
G01 F600 X-19.301 Y31.087
G01 F600 X-19.325 Y30.858
G01 F600 X-19.301 Y30.630
G01 F600 X-19.230 Y30.411
G01 F600 X-19.114 Y30.212
G01 F600 X-18.961 Y30.041
G01 F600 X-18.775 Y29.906
G01 F600 X-18.565 Y29.812
G01 F600 X-18.340 Y29.764
G01 F600 X-18.110 Y29.764
G01 F600 X-17.885 Y29.812
G01 F600 X-17.675 Y29.906
G01 F600 X-17.489 Y30.041
G01 F600 X-17.335 Y30.212
G01 F600 X-17.220 Y30.411
G01 F600 X-17.149 Y30.630
G01 F600 X-17.125 Y30.858
G01 F600 X-17.149 Y31.087
G01 F600 X-17.220 Y31.306
G01 F600 X-17.335 Y31.505
G01 F600 X-17.489 Y31.676
G01 F600 X-17.675 Y31.811
G01 F600 X-17.885 Y31.905
G01 F600 X-18.110 Y31.952
G01 F600 X-18.340 Y31.952
G00 F3000 Z3.000
G00 F3000 X-15.800 Y31.952
G00 F1500 Z0
G01 F600 Z-0.200
G01 F600 X-16.024 Y31.905
G01 F600 X-16.235 Y31.811
G01 F600 X-16.421 Y31.676
G01 F600 X-16.575 Y31.505
G01 F600 X-16.690 Y31.306
G01 F600 X-16.761 Y31.087
G01 F600 X-16.785 Y30.858
G01 F600 X-16.761 Y30.630
G01 F600 X-16.690 Y30.411
G01 F600 X-16.575 Y30.212
G01 F600 X-16.421 Y30.041
G01 F600 X-16.235 Y29.906
G01 F600 X-16.024 Y29.812
G01 F600 X-15.800 Y29.764
G01 F600 X-15.570 Y29.764
G01 F600 X-15.345 Y29.812
G01 F600 X-15.135 Y29.906
G01 F600 X-14.949 Y30.041
G01 F600 X-14.795 Y30.212
G01 F600 X-14.680 Y30.411
G01 F600 X-14.609 Y30.630
G01 F600 X-14.585 Y30.858
G01 F600 X-14.609 Y31.087
G01 F600 X-14.680 Y31.306
G01 F600 X-14.795 Y31.505
G01 F600 X-14.949 Y31.676
G01 F600 X-15.135 Y31.811
G01 F600 X-15.345 Y31.905
G01 F600 X-15.570 Y31.952
G01 F600 X-15.800 Y31.952
G00 F3000 Z3.000
G00 F3000 X-5.640 Y31.952
G00 F1500 Z0
G01 F600 Z-0.200
G01 F600 X-5.865 Y31.905
G01 F600 X-6.075 Y31.811
G01 F600 X-6.261 Y31.676
G01 F600 X-6.415 Y31.505
G01 F600 X-6.530 Y31.306
G01 F600 X-6.601 Y31.087
G01 F600 X-6.625 Y30.858
G01 F600 X-6.601 Y30.630
G01 F600 X-6.530 Y30.411
G01 F600 X-6.415 Y30.212
G01 F600 X-6.261 Y30.041
G01 F600 X-6.075 Y29.906
G01 F600 X-6.002 Y29.874
G01 F600 X-6.002 Y26.280
G01 F600 X-15.735 Y26.280
G01 F600 X-15.833 Y26.259
G01 F600 X-15.924 Y26.218
G01 F600 X-16.002 Y26.162
G01 F600 X-17.845 Y24.296
G01 F600 X-17.877 Y24.310
G01 F600 X-18.107 Y24.359
G01 F600 X-18.342 Y24.359
G01 F600 X-18.573 Y24.310
G01 F600 X-18.788 Y24.214
G01 F600 X-18.978 Y24.076
G01 F600 X-19.136 Y23.901
G01 F600 X-19.254 Y23.697
G01 F600 X-19.326 Y23.473
G01 F600 X-19.351 Y23.238
G01 F600 X-19.326 Y23.004
G01 F600 X-19.254 Y22.780
G01 F600 X-19.136 Y22.576
G01 F600 X-18.978 Y22.401
G01 F600 X-18.788 Y22.263
G01 F600 X-18.573 Y22.167
G01 F600 X-18.342 Y22.118
G01 F600 X-18.107 Y22.118
G01 F600 X-17.877 Y22.167
G01 F600 X-17.661 Y22.263
G01 F600 X-17.471 Y22.401
G01 F600 X-17.313 Y22.576
G01 F600 X-17.195 Y22.780
G01 F600 X-17.123 Y23.004
G01 F600 X-17.098 Y23.238
G01 F600 X-17.123 Y23.473
G01 F600 X-17.171 Y23.620
G01 F600 X-15.484 Y25.328
G01 F600 X-5.475 Y25.328
G01 F600 X-5.377 Y25.349
G01 F600 X-5.285 Y25.389
G01 F600 X-5.204 Y25.448
G01 F600 X-5.137 Y25.522
G01 F600 X-5.087 Y25.609
G01 F600 X-5.056 Y25.704
G01 F600 X-5.047 Y25.795
G01 F600 X-5.047 Y29.874
G01 F600 X-4.975 Y29.906
G01 F600 X-4.789 Y30.041
G01 F600 X-4.635 Y30.212
G01 F600 X-4.520 Y30.411
G01 F600 X-4.449 Y30.630
G01 F600 X-4.425 Y30.858
G01 F600 X-4.449 Y31.087
G01 F600 X-4.520 Y31.306
G01 F600 X-4.635 Y31.505
G01 F600 X-4.789 Y31.676
G01 F600 X-4.975 Y31.811
G01 F600 X-5.185 Y31.905
G01 F600 X-5.410 Y31.952
G01 F600 X-5.640 Y31.952
G00 F3000 Z3.000
G00 F3000 X-29.764 Y30.841
G00 F1500 Z0
G01 F600 Z-0.200
G01 F600 X-29.764 Y28.666
G01 F600 X-28.859 Y28.666
G01 F600 X-28.859 Y28.692
G01 F600 X-28.809 Y28.692
G01 F600 X-28.809 Y28.717
G01 F600 X-28.783 Y28.717
G01 F600 X-28.783 Y28.742
G01 F600 X-28.758 Y28.742
G01 F600 X-28.758 Y28.793
G01 F600 X-28.732 Y28.793
G01 F600 X-28.732 Y29.266
G01 F600 X-28.758 Y29.266
G01 F600 X-28.758 Y29.317
G01 F600 X-28.783 Y29.317
G01 F600 X-28.783 Y29.342
G01 F600 X-28.809 Y29.342
G01 F600 X-28.809 Y29.368
G01 F600 X-28.885 Y29.368
G01 F600 X-28.885 Y29.393
G01 F600 X-29.037 Y29.393
G01 F600 X-29.037 Y29.403
G01 F600 X-26.649 Y29.403
G01 F600 X-26.649 Y29.428
G01 F600 X-26.624 Y29.428
G01 F600 X-26.624 Y29.454
G01 F600 X-26.599 Y29.454
G01 F600 X-26.599 Y29.479
G01 F600 X-26.573 Y29.479
G01 F600 X-26.573 Y29.530
G01 F600 X-26.548 Y29.530
G01 F600 X-26.548 Y29.977
G01 F600 X-26.573 Y29.977
G01 F600 X-26.573 Y30.028
G01 F600 X-26.599 Y30.028
G01 F600 X-26.599 Y30.054
G01 F600 X-26.624 Y30.054
G01 F600 X-26.624 Y30.079
G01 F600 X-26.649 Y30.079
G01 F600 X-26.649 Y30.104
G01 F600 X-29.037 Y30.104
G01 F600 X-29.037 Y30.114
G01 F600 X-28.910 Y30.114
G01 F600 X-28.910 Y30.139
G01 F600 X-28.834 Y30.139
G01 F600 X-28.834 Y30.165
G01 F600 X-28.783 Y30.165
G01 F600 X-28.783 Y30.190
G01 F600 X-28.758 Y30.190
G01 F600 X-28.758 Y30.241
G01 F600 X-28.732 Y30.241
G01 F600 X-28.732 Y30.714
G01 F600 X-28.758 Y30.714
G01 F600 X-28.758 Y30.765
G01 F600 X-28.783 Y30.765
G01 F600 X-28.783 Y30.790
G01 F600 X-28.809 Y30.790
G01 F600 X-28.809 Y30.816
G01 F600 X-28.834 Y30.816
G01 F600 X-28.834 Y30.841
G01 F600 X-29.764 Y30.841
G00 F3000 Z3.000
G00 F3000 X-32.939 Y30.257
G00 F1500 Z0
G01 F600 Z-0.200
G01 F600 X-32.939 Y30.231
G01 F600 X-32.990 Y30.231
G01 F600 X-32.990 Y30.206
G01 F600 X-33.015 Y30.206
G01 F600 X-33.015 Y30.181
G01 F600 X-33.041 Y30.181
G01 F600 X-33.041 Y30.104
G01 F600 X-33.066 Y30.104
G01 F600 X-33.066 Y28.234
G01 F600 X-33.041 Y28.234
G01 F600 X-33.041 Y28.184
G01 F600 X-33.015 Y28.184
G01 F600 X-33.015 Y28.158
G01 F600 X-32.990 Y28.158
G01 F600 X-32.990 Y28.133
G01 F600 X-32.965 Y28.133
G01 F600 X-32.965 Y28.107
G01 F600 X-32.914 Y28.107
G01 F600 X-32.914 Y28.082
G01 F600 X-32.339 Y28.082
G01 F600 X-32.339 Y28.107
G01 F600 X-32.263 Y28.107
G01 F600 X-32.263 Y28.133
G01 F600 X-32.238 Y28.133
G01 F600 X-32.238 Y28.158
G01 F600 X-32.212 Y28.158
G01 F600 X-32.212 Y28.209
G01 F600 X-32.187 Y28.209
G01 F600 X-32.187 Y30.155
G01 F600 X-32.212 Y30.155
G01 F600 X-32.212 Y30.206
G01 F600 X-32.238 Y30.206
G01 F600 X-32.238 Y30.231
G01 F600 X-32.288 Y30.231
G01 F600 X-32.288 Y30.257
G01 F600 X-32.939 Y30.257
G00 F3000 Z3.000
G00 F3000 X-38.490 Y29.478
G00 F1500 Z0
G01 F600 Z-0.200
G01 F600 X-38.472 Y29.474
G01 F600 X-38.457 Y29.469
G01 F600 X-38.388 Y29.438
G01 F600 X-38.290 Y29.417
G01 F600 X-38.206 Y29.417
G01 F600 X-38.225 Y29.360
G01 F600 X-38.226 Y29.353
G01 F600 X-38.272 Y29.273
G01 F600 X-38.288 Y29.220
G01 F600 X-38.297 Y29.210
G01 F600 X-38.329 Y29.154
G01 F600 X-38.348 Y29.133
G01 F600 X-38.398 Y29.047
G01 F600 X-38.429 Y28.951
G01 F600 X-38.436 Y28.881
G01 F600 X-38.454 Y28.824
G01 F600 X-38.455 Y28.819
G01 F600 X-38.481 Y28.773
G01 F600 X-38.500 Y28.752
G01 F600 X-38.532 Y28.697
G01 F600 X-38.551 Y28.676
G01 F600 X-38.601 Y28.589
G01 F600 X-38.632 Y28.494
G01 F600 X-38.641 Y28.404
G01 F600 X-38.641 Y28.398
G01 F600 X-38.642 Y28.397
G01 F600 X-38.677 Y28.335
G01 F600 X-38.708 Y28.240
G01 F600 X-38.718 Y28.150
G01 F600 X-38.718 Y28.134
G01 F600 X-38.727 Y28.102
G01 F600 X-38.735 Y28.088
G01 F600 X-38.754 Y28.067
G01 F600 X-38.804 Y27.980
G01 F600 X-38.835 Y27.885
G01 F600 X-38.845 Y27.794
G01 F600 X-38.845 Y27.781
G01 F600 X-38.852 Y27.758
G01 F600 X-38.869 Y27.787
G01 F600 X-38.884 Y27.804
G01 F600 X-38.901 Y27.838
G01 F600 X-38.945 Y27.914
G01 F600 X-39.012 Y27.988
G01 F600 X-39.075 Y28.034
G01 F600 X-39.124 Y28.119
G01 F600 X-39.184 Y28.183
G01 F600 X-39.217 Y28.219
G01 F600 X-39.264 Y28.251
G01 F600 X-39.275 Y28.270
G01 F600 X-39.342 Y28.344
G01 F600 X-39.417 Y28.399
G01 F600 X-39.442 Y28.412
G01 F600 X-39.496 Y28.451
G01 F600 X-39.557 Y28.482
G01 F600 X-39.569 Y28.488
G01 F600 X-39.626 Y28.530
G01 F600 X-39.718 Y28.571
G01 F600 X-39.811 Y28.591
G01 F600 X-39.818 Y28.591
G01 F600 X-39.825 Y28.598
G01 F600 X-39.905 Y28.657
G01 F600 X-39.997 Y28.698
G01 F600 X-40.095 Y28.718
G01 F600 X-40.241 Y28.718
G01 F600 X-40.251 Y28.723
G01 F600 X-40.349 Y28.744
G01 F600 X-40.601 Y28.744
G01 F600 X-40.699 Y28.723
G01 F600 X-40.709 Y28.718
G01 F600 X-40.981 Y28.718
G01 F600 X-40.977 Y28.723
G01 F600 X-40.961 Y28.750
G01 F600 X-40.895 Y28.798
G01 F600 X-40.891 Y28.802
G01 F600 X-40.856 Y28.813
G01 F600 X-40.784 Y28.828
G01 F600 X-40.693 Y28.869
G01 F600 X-40.624 Y28.919
G01 F600 X-40.566 Y28.945
G01 F600 X-40.509 Y28.987
G01 F600 X-40.492 Y28.995
G01 F600 X-40.454 Y29.017
G01 F600 X-40.440 Y29.024
G01 F600 X-40.403 Y29.032
G01 F600 X-40.312 Y29.072
G01 F600 X-40.255 Y29.114
G01 F600 X-40.230 Y29.127
G01 F600 X-40.213 Y29.140
G01 F600 X-40.119 Y29.160
G01 F600 X-40.041 Y29.200
G01 F600 X-39.997 Y29.209
G01 F600 X-39.957 Y29.227
G01 F600 X-39.916 Y29.236
G01 F600 X-39.837 Y29.276
G01 F600 X-39.789 Y29.287
G01 F600 X-39.732 Y29.316
G01 F600 X-39.688 Y29.316
G01 F600 X-39.590 Y29.336
G01 F600 X-39.580 Y29.341
G01 F600 X-39.536 Y29.341
G01 F600 X-39.434 Y29.363
G01 F600 X-39.376 Y29.392
G01 F600 X-39.333 Y29.392
G01 F600 X-39.237 Y29.412
G01 F600 X-39.225 Y29.417
G01 F600 X-38.952 Y29.417
G01 F600 X-38.850 Y29.439
G01 F600 X-38.792 Y29.468
G01 F600 X-38.549 Y29.468
G01 F600 X-38.490 Y29.478
G00 F3000 Z3.000
G00 F3000 X-18.342 Y28.855
G00 F1500 Z0
G01 F600 Z-0.200
G01 F600 X-18.573 Y28.806
G01 F600 X-18.788 Y28.710
G01 F600 X-18.978 Y28.571
G01 F600 X-19.136 Y28.396
G01 F600 X-19.254 Y28.192
G01 F600 X-19.326 Y27.968
G01 F600 X-19.351 Y27.734
G01 F600 X-19.326 Y27.500
G01 F600 X-19.254 Y27.276
G01 F600 X-19.136 Y27.072
G01 F600 X-18.978 Y26.897
G01 F600 X-18.788 Y26.759
G01 F600 X-18.573 Y26.663
G01 F600 X-18.342 Y26.614
G01 F600 X-18.107 Y26.614
G01 F600 X-17.877 Y26.663
G01 F600 X-17.661 Y26.759
G01 F600 X-17.471 Y26.897
G01 F600 X-17.313 Y27.072
G01 F600 X-17.195 Y27.276
G01 F600 X-17.123 Y27.500
G01 F600 X-17.098 Y27.734
G01 F600 X-17.123 Y27.968
G01 F600 X-17.195 Y28.192
G01 F600 X-17.313 Y28.396
G01 F600 X-17.471 Y28.571
G01 F600 X-17.661 Y28.710
G01 F600 X-17.877 Y28.806
G01 F600 X-18.107 Y28.855
G01 F600 X-18.342 Y28.855
G00 F3000 Z3.000
G00 F3000 X-29.612 Y28.199
G00 F1500 Z0
G01 F600 Z-0.200
G01 F600 X-29.612 Y28.174
G01 F600 X-29.663 Y28.174
G01 F600 X-29.663 Y28.149
G01 F600 X-29.713 Y28.149
G01 F600 X-29.713 Y28.098
G01 F600 X-29.739 Y28.098
G01 F600 X-29.739 Y28.047
G01 F600 X-29.764 Y28.047
G01 F600 X-29.764 Y26.152
G01 F600 X-29.739 Y26.152
G01 F600 X-29.739 Y26.101
G01 F600 X-29.713 Y26.101
G01 F600 X-29.713 Y26.075
G01 F600 X-29.688 Y26.075
G01 F600 X-29.688 Y26.050
G01 F600 X-29.663 Y26.050
G01 F600 X-29.663 Y26.024
G01 F600 X-29.139 Y26.024
G01 F600 X-29.139 Y26.050
G01 F600 X-29.113 Y26.050
G01 F600 X-29.113 Y26.075
G01 F600 X-29.088 Y26.075
G01 F600 X-29.088 Y26.101
G01 F600 X-29.063 Y26.101
G01 F600 X-29.063 Y26.152
G01 F600 X-29.037 Y26.152
G01 F600 X-29.037 Y26.736
G01 F600 X-27.275 Y26.736
G01 F600 X-27.275 Y26.152
G01 F600 X-27.250 Y26.152
G01 F600 X-27.250 Y26.101
G01 F600 X-27.224 Y26.101
G01 F600 X-27.224 Y26.075
G01 F600 X-27.199 Y26.075
G01 F600 X-27.199 Y26.050
G01 F600 X-27.173 Y26.050
G01 F600 X-27.173 Y26.024
G01 F600 X-26.649 Y26.024
G01 F600 X-26.649 Y26.050
G01 F600 X-26.624 Y26.050
G01 F600 X-26.624 Y26.075
G01 F600 X-26.599 Y26.075
G01 F600 X-26.599 Y26.101
G01 F600 X-26.573 Y26.101
G01 F600 X-26.573 Y26.152
G01 F600 X-26.548 Y26.152
G01 F600 X-26.548 Y28.047
G01 F600 X-26.573 Y28.047
G01 F600 X-26.573 Y28.098
G01 F600 X-26.599 Y28.098
G01 F600 X-26.599 Y28.149
G01 F600 X-26.649 Y28.149
G01 F600 X-26.649 Y28.174
G01 F600 X-26.700 Y28.174
G01 F600 X-26.700 Y28.199
G01 F600 X-27.123 Y28.199
G01 F600 X-27.123 Y28.174
G01 F600 X-27.173 Y28.174
G01 F600 X-27.173 Y28.149
G01 F600 X-27.224 Y28.149
G01 F600 X-27.224 Y28.098
G01 F600 X-27.250 Y28.098
G01 F600 X-27.250 Y28.047
G01 F600 X-27.275 Y28.047
G01 F600 X-27.275 Y27.463
G01 F600 X-29.037 Y27.463
G01 F600 X-29.037 Y28.047
G01 F600 X-29.063 Y28.047
G01 F600 X-29.063 Y28.098
G01 F600 X-29.088 Y28.098
G01 F600 X-29.088 Y28.149
G01 F600 X-29.139 Y28.149
G01 F600 X-29.139 Y28.174
G01 F600 X-29.190 Y28.174
G01 F600 X-29.190 Y28.199
G01 F600 X-29.612 Y28.199
G00 F3000 Z3.000
G00 F3000 X-33.676 Y27.615
G00 F1500 Z0
G01 F600 Z-0.200
G01 F600 X-33.676 Y27.590
G01 F600 X-33.777 Y27.590
G01 F600 X-33.777 Y27.564
G01 F600 X-33.854 Y27.564
G01 F600 X-33.854 Y27.539
G01 F600 X-33.904 Y27.539
G01 F600 X-33.904 Y27.514
G01 F600 X-33.955 Y27.514
G01 F600 X-33.955 Y27.488
G01 F600 X-33.980 Y27.488
G01 F600 X-33.980 Y27.463
G01 F600 X-34.006 Y27.463
G01 F600 X-34.006 Y27.437
G01 F600 X-34.031 Y27.437
G01 F600 X-34.031 Y27.412
G01 F600 X-34.082 Y27.412
G01 F600 X-34.082 Y27.387
G01 F600 X-34.108 Y27.387
G01 F600 X-34.108 Y27.336
G01 F600 X-34.133 Y27.336
G01 F600 X-34.133 Y27.310
G01 F600 X-34.158 Y27.310
G01 F600 X-34.158 Y27.285
G01 F600 X-34.184 Y27.285
G01 F600 X-34.184 Y27.234
G01 F600 X-34.209 Y27.234
G01 F600 X-34.209 Y27.209
G01 F600 X-34.235 Y27.209
G01 F600 X-34.235 Y27.133
G01 F600 X-34.260 Y27.133
G01 F600 X-34.260 Y27.082
G01 F600 X-34.285 Y27.082
G01 F600 X-34.285 Y26.904
G01 F600 X-34.311 Y26.904
G01 F600 X-34.311 Y25.440
G01 F600 X-31.095 Y25.440
G01 F600 X-31.095 Y27.006
G01 F600 X-31.120 Y27.006
G01 F600 X-31.120 Y27.107
G01 F600 X-31.145 Y27.107
G01 F600 X-31.145 Y27.183
G01 F600 X-31.171 Y27.183
G01 F600 X-31.171 Y27.234
G01 F600 X-31.196 Y27.234
G01 F600 X-31.196 Y27.260
G01 F600 X-31.222 Y27.260
G01 F600 X-31.222 Y27.310
G01 F600 X-31.247 Y27.310
G01 F600 X-31.247 Y27.336
G01 F600 X-31.272 Y27.336
G01 F600 X-31.272 Y27.361
G01 F600 X-31.298 Y27.361
G01 F600 X-31.298 Y27.387
G01 F600 X-31.323 Y27.387
G01 F600 X-31.323 Y27.412
G01 F600 X-31.349 Y27.412
G01 F600 X-31.349 Y27.437
G01 F600 X-31.374 Y27.437
G01 F600 X-31.374 Y27.463
G01 F600 X-31.425 Y27.463
G01 F600 X-31.425 Y27.488
G01 F600 X-31.450 Y27.488
G01 F600 X-31.450 Y27.514
G01 F600 X-31.501 Y27.514
G01 F600 X-31.501 Y27.539
G01 F600 X-31.552 Y27.539
G01 F600 X-31.552 Y27.564
G01 F600 X-31.603 Y27.564
G01 F600 X-31.603 Y27.590
G01 F600 X-31.730 Y27.590
G01 F600 X-31.730 Y27.615
G01 F600 X-32.431 Y27.615
G01 F600 X-32.431 Y27.590
G01 F600 X-32.533 Y27.590
G01 F600 X-32.533 Y27.564
G01 F600 X-32.609 Y27.564
G01 F600 X-32.609 Y27.539
G01 F600 X-32.660 Y27.539
G01 F600 X-32.660 Y27.514
G01 F600 X-32.745 Y27.514
G01 F600 X-32.745 Y27.539
G01 F600 X-32.796 Y27.539
G01 F600 X-32.796 Y27.564
G01 F600 X-32.847 Y27.564
G01 F600 X-32.847 Y27.590
G01 F600 X-32.974 Y27.590
G01 F600 X-32.974 Y27.615
G01 F600 X-33.676 Y27.615
G00 F3000 Z3.000
G00 F3000 X-40.568 Y27.514
G00 F1500 Z0
G01 F600 Z-0.200
G01 F600 X-40.565 Y27.513
G01 F600 X-40.496 Y27.482
G01 F600 X-40.398 Y27.461
G01 F600 X-40.303 Y27.461
G01 F600 X-40.293 Y27.457
G01 F600 X-40.249 Y27.448
G01 F600 X-40.233 Y27.431
G01 F600 X-40.186 Y27.379
G01 F600 X-40.103 Y27.318
G01 F600 X-40.052 Y27.297
G01 F600 X-40.040 Y27.284
G01 F600 X-40.030 Y27.275
G01 F600 X-40.017 Y27.249
G01 F600 X-39.979 Y27.184
G01 F600 X-39.965 Y27.163
G01 F600 X-39.947 Y27.108
G01 F600 X-39.897 Y27.021
G01 F600 X-39.884 Y27.006
G01 F600 X-39.882 Y27.003
G01 F600 X-39.876 Y26.948
G01 F600 X-39.861 Y26.901
G01 F600 X-39.861 Y26.887
G01 F600 X-39.855 Y26.832
G01 F600 X-39.861 Y26.778
G01 F600 X-39.861 Y26.740
G01 F600 X-39.877 Y26.691
G01 F600 X-39.879 Y26.663
G01 F600 X-39.898 Y26.631
G01 F600 X-39.913 Y26.578
G01 F600 X-39.922 Y26.568
G01 F600 X-39.969 Y26.487
G01 F600 X-39.990 Y26.437
G01 F600 X-40.004 Y26.409
G01 F600 X-40.033 Y26.388
G01 F600 X-40.046 Y26.375
G01 F600 X-40.054 Y26.371
G01 F600 X-40.135 Y26.312
G01 F600 X-40.173 Y26.270
G01 F600 X-40.233 Y26.243
G01 F600 X-40.274 Y26.212
G01 F600 X-40.297 Y26.207
G01 F600 X-40.355 Y26.178
G01 F600 X-40.373 Y26.178
G01 F600 X-40.471 Y26.158
G01 F600 X-40.481 Y26.153
G01 F600 X-40.576 Y26.153
G01 F600 X-40.602 Y26.147
G01 F600 X-40.628 Y26.153
G01 F600 X-40.647 Y26.153
G01 F600 X-40.714 Y26.177
G01 F600 X-40.778 Y26.205
G01 F600 X-40.803 Y26.213
G01 F600 X-40.848 Y26.245
G01 F600 X-40.902 Y26.268
G01 F600 X-40.942 Y26.312
G01 F600 X-41.023 Y26.371
G01 F600 X-41.040 Y26.378
G01 F600 X-41.046 Y26.386
G01 F600 X-41.078 Y26.441
G01 F600 X-41.099 Y26.463
G01 F600 X-41.105 Y26.481
G01 F600 X-41.148 Y26.557
G01 F600 X-41.163 Y26.579
G01 F600 X-41.178 Y26.626
G01 F600 X-41.210 Y26.693
G01 F600 X-41.216 Y26.714
G01 F600 X-41.216 Y26.778
G01 F600 X-41.219 Y26.807
G01 F600 X-41.216 Y26.837
G01 F600 X-41.217 Y26.899
G01 F600 X-41.201 Y26.949
G01 F600 X-41.192 Y27.033
G01 F600 X-41.180 Y27.046
G01 F600 X-41.130 Y27.133
G01 F600 X-41.102 Y27.220
G01 F600 X-41.084 Y27.238
G01 F600 X-41.046 Y27.282
G01 F600 X-41.022 Y27.300
G01 F600 X-40.962 Y27.360
G01 F600 X-40.940 Y27.382
G01 F600 X-40.921 Y27.398
G01 F600 X-40.886 Y27.406
G01 F600 X-40.794 Y27.447
G01 F600 X-40.737 Y27.488
G01 F600 X-40.713 Y27.501
G01 F600 X-40.698 Y27.512
G01 F600 X-40.577 Y27.512
G01 F600 X-40.568 Y27.514
G00 F3000 Z3.000
G00 F3000 X42.614 Y26.937
G00 F1500 Z0
G01 F600 Z-0.200
G01 F600 X42.376 Y26.886
G01 F600 X42.153 Y26.787
G01 F600 X41.956 Y26.644
G01 F600 X41.793 Y26.463
G01 F600 X41.672 Y26.252
G01 F600 X41.596 Y26.021
G01 F600 X41.571 Y25.778
G01 F600 X41.596 Y25.536
G01 F600 X41.672 Y25.305
G01 F600 X41.793 Y25.094
G01 F600 X41.956 Y24.913
G01 F600 X42.153 Y24.770
G01 F600 X42.376 Y24.671
G01 F600 X42.614 Y24.620
G01 F600 X42.857 Y24.620
G01 F600 X43.095 Y24.671
G01 F600 X43.318 Y24.770
G01 F600 X43.457 Y24.871
G01 F600 X46.716 Y23.242
G01 F600 X46.715 Y23.238
G01 F600 X46.739 Y23.010
G01 F600 X46.811 Y22.791
G01 F600 X46.925 Y22.592
G01 F600 X47.079 Y22.421
G01 F600 X47.265 Y22.286
G01 F600 X47.476 Y22.192
G01 F600 X47.700 Y22.144
G01 F600 X47.930 Y22.144
G01 F600 X48.155 Y22.192
G01 F600 X48.365 Y22.286
G01 F600 X48.551 Y22.421
G01 F600 X48.705 Y22.592
G01 F600 X48.820 Y22.791
G01 F600 X48.891 Y23.010
G01 F600 X48.915 Y23.238
G01 F600 X48.891 Y23.467
G01 F600 X48.820 Y23.686
G01 F600 X48.705 Y23.885
G01 F600 X48.551 Y24.056
G01 F600 X48.365 Y24.191
G01 F600 X48.155 Y24.285
G01 F600 X47.930 Y24.332
G01 F600 X47.700 Y24.332
G01 F600 X47.476 Y24.285
G01 F600 X47.265 Y24.191
G01 F600 X47.138 Y24.098
G01 F600 X43.894 Y25.720
G01 F600 X43.900 Y25.778
G01 F600 X43.875 Y26.021
G01 F600 X43.799 Y26.252
G01 F600 X43.678 Y26.463
G01 F600 X43.515 Y26.644
G01 F600 X43.318 Y26.787
G01 F600 X43.095 Y26.886
G01 F600 X42.857 Y26.937
G01 F600 X42.614 Y26.937
G00 F3000 Z3.000
G00 F3000 X55.314 Y26.937
G00 F1500 Z0
G01 F600 Z-0.200
G01 F600 X55.076 Y26.886
G01 F600 X54.853 Y26.787
G01 F600 X54.656 Y26.644
G01 F600 X54.493 Y26.463
G01 F600 X54.372 Y26.252
G01 F600 X54.296 Y26.021
G01 F600 X54.271 Y25.778
G01 F600 X54.277 Y25.720
G01 F600 X51.033 Y24.098
G01 F600 X50.905 Y24.191
G01 F600 X50.695 Y24.285
G01 F600 X50.470 Y24.332
G01 F600 X50.240 Y24.332
G01 F600 X50.016 Y24.285
G01 F600 X49.805 Y24.191
G01 F600 X49.619 Y24.056
G01 F600 X49.466 Y23.885
G01 F600 X49.351 Y23.686
G01 F600 X49.279 Y23.467
G01 F600 X49.255 Y23.238
G01 F600 X49.279 Y23.010
G01 F600 X49.351 Y22.791
G01 F600 X49.466 Y22.592
G01 F600 X49.619 Y22.421
G01 F600 X49.805 Y22.286
G01 F600 X50.016 Y22.192
G01 F600 X50.240 Y22.144
G01 F600 X50.470 Y22.144
G01 F600 X50.695 Y22.192
G01 F600 X50.905 Y22.286
G01 F600 X51.091 Y22.421
G01 F600 X51.245 Y22.592
G01 F600 X51.360 Y22.791
G01 F600 X51.431 Y23.010
G01 F600 X51.455 Y23.238
G01 F600 X51.455 Y23.242
G01 F600 X54.714 Y24.871
G01 F600 X54.853 Y24.770
G01 F600 X55.076 Y24.671
G01 F600 X55.314 Y24.620
G01 F600 X55.557 Y24.620
G01 F600 X55.795 Y24.671
G01 F600 X56.018 Y24.770
G01 F600 X56.215 Y24.913
G01 F600 X56.378 Y25.094
G01 F600 X56.499 Y25.305
G01 F600 X56.575 Y25.536
G01 F600 X56.600 Y25.778
G01 F600 X56.575 Y26.021
G01 F600 X56.499 Y26.252
G01 F600 X56.378 Y26.463
G01 F600 X56.215 Y26.644
G01 F600 X56.018 Y26.787
G01 F600 X55.795 Y26.886
G01 F600 X55.557 Y26.937
G01 F600 X55.314 Y26.937
G00 F3000 Z3.000
G00 F3000 X-32.085 Y26.888
G00 F1500 Z0
G01 F600 Z-0.200
G01 F600 X-32.075 Y26.888
G01 F600 X-32.075 Y26.863
G01 F600 X-31.999 Y26.863
G01 F600 X-31.999 Y26.837
G01 F600 X-31.974 Y26.837
G01 F600 X-31.974 Y26.812
G01 F600 X-31.949 Y26.812
G01 F600 X-31.949 Y26.787
G01 F600 X-31.923 Y26.787
G01 F600 X-31.923 Y26.761
G01 F600 X-31.898 Y26.761
G01 F600 X-31.898 Y26.736
G01 F600 X-31.872 Y26.736
G01 F600 X-31.872 Y26.710
G01 F600 X-31.847 Y26.710
G01 F600 X-31.847 Y26.660
G01 F600 X-31.822 Y26.660
G01 F600 X-31.822 Y26.167
G01 F600 X-32.339 Y26.167
G01 F600 X-32.339 Y26.609
G01 F600 X-32.314 Y26.609
G01 F600 X-32.314 Y26.685
G01 F600 X-32.288 Y26.685
G01 F600 X-32.288 Y26.736
G01 F600 X-32.263 Y26.736
G01 F600 X-32.263 Y26.761
G01 F600 X-32.238 Y26.761
G01 F600 X-32.238 Y26.787
G01 F600 X-32.212 Y26.787
G01 F600 X-32.212 Y26.812
G01 F600 X-32.187 Y26.812
G01 F600 X-32.187 Y26.837
G01 F600 X-32.136 Y26.837
G01 F600 X-32.136 Y26.863
G01 F600 X-32.085 Y26.863
G01 F600 X-32.085 Y26.888
G00 F3000 Z3.000
G00 F3000 X-33.330 Y26.888
G00 F1500 Z0
G01 F600 Z-0.200
G01 F600 X-33.320 Y26.888
G01 F600 X-33.320 Y26.863
G01 F600 X-33.244 Y26.863
G01 F600 X-33.244 Y26.837
G01 F600 X-33.218 Y26.837
G01 F600 X-33.218 Y26.812
G01 F600 X-33.193 Y26.812
G01 F600 X-33.193 Y26.787
G01 F600 X-33.168 Y26.787
G01 F600 X-33.168 Y26.761
G01 F600 X-33.142 Y26.761
G01 F600 X-33.142 Y26.736
G01 F600 X-33.117 Y26.736
G01 F600 X-33.117 Y26.710
G01 F600 X-33.092 Y26.710
G01 F600 X-33.092 Y26.660
G01 F600 X-33.066 Y26.660
G01 F600 X-33.066 Y26.167
G01 F600 X-33.584 Y26.167
G01 F600 X-33.584 Y26.609
G01 F600 X-33.558 Y26.609
G01 F600 X-33.558 Y26.685
G01 F600 X-33.533 Y26.685
G01 F600 X-33.533 Y26.736
G01 F600 X-33.508 Y26.736
G01 F600 X-33.508 Y26.761
G01 F600 X-33.482 Y26.761
G01 F600 X-33.482 Y26.787
G01 F600 X-33.457 Y26.787
G01 F600 X-33.457 Y26.812
G01 F600 X-33.431 Y26.812
G01 F600 X-33.431 Y26.837
G01 F600 X-33.381 Y26.837
G01 F600 X-33.381 Y26.863
G01 F600 X-33.330 Y26.863
G01 F600 X-33.330 Y26.888
G00 F3000 Z3.000
G00 F3000 X50.240 Y26.872
G00 F1500 Z0
G01 F600 Z-0.200
G01 F600 X50.016 Y26.825
G01 F600 X49.805 Y26.731
G01 F600 X49.619 Y26.596
G01 F600 X49.466 Y26.425
G01 F600 X49.351 Y26.226
G01 F600 X49.279 Y26.007
G01 F600 X49.255 Y25.778
G01 F600 X49.279 Y25.550
G01 F600 X49.351 Y25.331
G01 F600 X49.466 Y25.132
G01 F600 X49.619 Y24.961
G01 F600 X49.805 Y24.826
G01 F600 X50.016 Y24.732
G01 F600 X50.240 Y24.684
G01 F600 X50.470 Y24.684
G01 F600 X50.695 Y24.732
G01 F600 X50.905 Y24.826
G01 F600 X51.091 Y24.961
G01 F600 X51.245 Y25.132
G01 F600 X51.360 Y25.331
G01 F600 X51.431 Y25.550
G01 F600 X51.455 Y25.778
G01 F600 X51.431 Y26.007
G01 F600 X51.360 Y26.226
G01 F600 X51.245 Y26.425
G01 F600 X51.091 Y26.596
G01 F600 X50.905 Y26.731
G01 F600 X50.695 Y26.825
G01 F600 X50.470 Y26.872
