( PCB drills )
( Generated by Rapid-PCB.com )
( Material Size)
( X= 160.000, Y= 100.000, Z= 1.580)
()
G00
G17
G21
G40
G49
G54
G80
G90
G94
G00 F3000 Z3.000
M03 S9000
G00 F3000 X27.488 Y-4.704
G00 F1500 Z0
G01 F60 Z-2.000
G00 F3000 Z3.000
G00 F3000 X-18.232 Y0.376
G00 F1500 Z0
G01 F60 Z-2.000
G00 F3000 Z3.000
G00 F3000 X35.108 Y25.776
G00 F1500 Z0
G01 F60 Z-2.000
G00 F3000 Z3.000
G00 F3000 X55.428 Y25.776
G00 F1500 Z0
G01 F60 Z-2.000
G00 F3000 Z3.000
G00 F3000 X30.028 Y-4.704
G00 F1500 Z0
G01 F60 Z-2.000
G00 F3000 Z3.000
G00 F3000 X14.788 Y-4.704
G00 F1500 Z0
G01 F60 Z-2.000
G00 F3000 Z3.000
G00 F3000 X27.488 Y-2.164
G00 F1500 Z0
G01 F60 Z-2.000
G00 F3000 Z3.000
G00 F3000 X-30.932 Y0.376
G00 F1500 Z0
G01 F60 Z-2.000
G00 F3000 Z3.000
G00 F3000 X55.428 Y5.456
G00 F1500 Z0
G01 F60 Z-2.000
G00 F3000 Z3.000
G00 F3000 X37.648 Y25.776
G00 F1500 Z0
G01 F60 Z-2.000
G00 F3000 Z3.000
G00 F3000 X30.028 Y-2.164
G00 F1500 Z0
G01 F60 Z-2.000
G00 F3000 Z3.000
G00 F3000 X14.788 Y-2.164
G00 F1500 Z0
G01 F60 Z-2.000
G00 F3000 Z3.000
G00 F3000 X55.428 Y18.156
G00 F1500 Z0
G01 F60 Z-2.000
G00 F3000 Z3.000
G00 F3000 X9.708 Y-22.484
G00 F1500 Z0
G01 F60 Z-2.000
G00 F3000 Z3.000
G00 F3000 X-41.092 Y-7.244
G00 F1500 Z0
G01 F60 Z-2.000
G00 F3000 Z3.000
G00 F3000 X-30.932 Y-7.244
G00 F1500 Z0
G01 F60 Z-2.000
G00 F3000 Z3.000
G00 F3000 X12.248 Y-22.484
G00 F1500 Z0
G01 F60 Z-2.000
G00 F3000 Z3.000
G00 F3000 X-38.552 Y-7.244
G00 F1500 Z0
G01 F60 Z-2.000
G00 F3000 Z3.000
G00 F3000 X32.568 Y25.776
G00 F1500 Z0
G01 F60 Z-2.000
G00 F3000 Z3.000
G00 F3000 X22.408 Y25.776
G00 F1500 Z0
G01 F60 Z-2.000
G00 F3000 Z3.000
G00 F3000 X17.328 Y25.776
G00 F1500 Z0
G01 F60 Z-2.000
G00 F3000 Z3.000
G00 F3000 X7.168 Y-4.704
G00 F1500 Z0
G01 F60 Z-2.000
G00 F3000 Z3.000
G00 F3000 X30.028 Y25.776
G00 F1500 Z0
G01 F60 Z-2.000
G00 F3000 Z3.000
G00 F3000 X24.948 Y25.776
G00 F1500 Z0
G01 F60 Z-2.000
G00 F3000 Z3.000
G00 F3000 X19.868 Y25.776
G00 F1500 Z0
G01 F60 Z-2.000
G00 F3000 Z3.000
G00 F3000 X14.788 Y25.776
G00 F1500 Z0
G01 F60 Z-2.000
G00 F3000 Z3.000
G00 F3000 X9.708 Y25.776
G00 F1500 Z0
G01 F60 Z-2.000
G00 F3000 Z3.000
G00 F3000 X-15.692 Y-4.704
G00 F1500 Z0
G01 F60 Z-2.000
G00 F3000 Z3.000
G00 F3000 X4.628 Y-4.704
G00 F1500 Z0
G01 F60 Z-2.000
G00 F3000 Z3.000
G00 F3000 X55.428 Y13.076
G00 F1500 Z0
G01 F60 Z-2.000
G00 F3000 Z3.000
G00 F3000 X7.168 Y-2.164
G00 F1500 Z0
G01 F60 Z-2.000
G00 F3000 Z3.000
G00 F3000 X-41.092 Y-12.324
G00 F1500 Z0
G01 F60 Z-2.000
G00 F3000 Z3.000
G00 F3000 X12.248 Y25.776
G00 F1500 Z0
G01 F60 Z-2.000
G00 F3000 Z3.000
G00 F3000 X-8.072 Y-4.704
G00 F1500 Z0
G01 F60 Z-2.000
G00 F3000 Z3.000
G00 F3000 X7.168 Y-22.484
G00 F1500 Z0
G01 F60 Z-2.000
G00 F3000 Z3.000
G00 F3000 X2.088 Y-22.484
G00 F1500 Z0
G01 F60 Z-2.000
G00 F3000 Z3.000
G00 F3000 X-15.692 Y-2.164
G00 F1500 Z0
G01 F60 Z-2.000
G00 F3000 Z3.000
G00 F3000 X4.628 Y-2.164
G00 F1500 Z0
G01 F60 Z-2.000
G00 F3000 Z3.000
G00 F3000 X-38.552 Y-12.324
G00 F1500 Z0
G01 F60 Z-2.000
G00 F3000 Z3.000
G00 F3000 X4.628 Y-22.484
G00 F1500 Z0
G01 F60 Z-2.000
G00 F3000 Z3.000
G00 F3000 X-0.452 Y-22.484
G00 F1500 Z0
G01 F60 Z-2.000
G00 F3000 Z3.000
G00 F3000 X-10.612 Y-22.484
G00 F1500 Z0
G01 F60 Z-2.000
G00 F3000 Z3.000
G00 F3000 X-15.692 Y-22.484
G00 F1500 Z0
G01 F60 Z-2.000
G00 F3000 Z3.000
G00 F3000 X-8.072 Y-2.164
G00 F1500 Z0
G01 F60 Z-2.000
G00 F3000 Z3.000
G00 F3000 X27.488 Y0.376
G00 F1500 Z0
G01 F60 Z-2.000
G00 F3000 Z3.000
G00 F3000 X-13.152 Y-22.484
G00 F1500 Z0
G01 F60 Z-2.000
G00 F3000 Z3.000
G00 F3000 X55.428 Y7.996
G00 F1500 Z0
G01 F60 Z-2.000
G00 F3000 Z3.000
G00 F3000 X7.168 Y25.776
G00 F1500 Z0
G01 F60 Z-2.000
G00 F3000 Z3.000
G00 F3000 X-18.232 Y-4.704
G00 F1500 Z0
G01 F60 Z-2.000
G00 F3000 Z3.000
G00 F3000 X30.028 Y0.376
G00 F1500 Z0
G01 F60 Z-2.000
G00 F3000 Z3.000
G00 F3000 X14.788 Y0.376
G00 F1500 Z0
G01 F60 Z-2.000
G00 F3000 Z3.000
G00 F3000 X42.728 Y23.236
G00 F1500 Z0
G01 F60 Z-2.000
G00 F3000 Z3.000
G00 F3000 X-41.092 Y-4.704
G00 F1500 Z0
G01 F60 Z-2.000
G00 F3000 Z3.000
G00 F3000 X-30.932 Y-4.704
G00 F1500 Z0
G01 F60 Z-2.000
G00 F3000 Z3.000
G00 F3000 X-18.232 Y-2.164
G00 F1500 Z0
G01 F60 Z-2.000
G00 F3000 Z3.000
G00 F3000 X-10.612 Y-27.564
G00 F1500 Z0
G01 F60 Z-2.000
G00 F3000 Z3.000
G00 F3000 X-15.692 Y-27.564
G00 F1500 Z0
G01 F60 Z-2.000
G00 F3000 Z3.000
G00 F3000 X55.428 Y23.236
G00 F1500 Z0
G01 F60 Z-2.000
G00 F3000 Z3.000
G00 F3000 X-38.552 Y-4.704
G00 F1500 Z0
G01 F60 Z-2.000
G00 F3000 Z3.000
G00 F3000 X14.788 Y-7.244
G00 F1500 Z0
G01 F60 Z-2.000
G00 F3000 Z3.000
G00 F3000 X-23.312 Y-22.484
G00 F1500 Z0
G01 F60 Z-2.000
G00 F3000 Z3.000
G00 F3000 X-18.232 Y-22.484
G00 F1500 Z0
G01 F60 Z-2.000
G00 F3000 Z3.000
G00 F3000 X-41.092 Y-2.164
G00 F1500 Z0
G01 F60 Z-2.000
G00 F3000 Z3.000
G00 F3000 X-30.932 Y-2.164
G00 F1500 Z0
G01 F60 Z-2.000
G00 F3000 Z3.000
G00 F3000 X-13.152 Y-27.564
G00 F1500 Z0
G01 F60 Z-2.000
G00 F3000 Z3.000
G00 F3000 X-25.852 Y-22.484
G00 F1500 Z0
G01 F60 Z-2.000
G00 F3000 Z3.000
G00 F3000 X-38.552 Y-2.164
G00 F1500 Z0
G01 F60 Z-2.000
G00 F3000 Z3.000
G00 F3000 X55.428 Y15.616
G00 F1500 Z0
G01 F60 Z-2.000
G00 F3000 Z3.000
G00 F3000 X7.168 Y0.376
G00 F1500 Z0
G01 F60 Z-2.000
G00 F3000 Z3.000
G00 F3000 X-41.092 Y-9.784
G00 F1500 Z0
G01 F60 Z-2.000
G00 F3000 Z3.000
G00 F3000 X-15.692 Y0.376
G00 F1500 Z0
G01 F60 Z-2.000
G00 F3000 Z3.000
G00 F3000 X4.628 Y0.376
G00 F1500 Z0
G01 F60 Z-2.000
G00 F3000 Z3.000
G00 F3000 X-38.552 Y-9.784
G00 F1500 Z0
G01 F60 Z-2.000
G00 F3000 Z3.000
G00 F3000 X-18.232 Y-27.564
G00 F1500 Z0
G01 F60 Z-2.000
G00 F3000 Z3.000
G00 F3000 X-8.072 Y0.376
G00 F1500 Z0
G01 F60 Z-2.000
G00 F3000 Z3.000
G00 F3000 X55.428 Y10.536
G00 F1500 Z0
G01 F60 Z-2.000
G00 F3000 Z3.000
G00 F3000 X-41.092 Y-14.864
G00 F1500 Z0
G01 F60 Z-2.000
G00 F3000 Z3.000
G00 F3000 X-8.072 Y-7.244
G00 F1500 Z0
G01 F60 Z-2.000
G00 F3000 Z3.000
G00 F3000 X-38.552 Y-14.864
G00 F1500 Z0
G01 F60 Z-2.000
G00 F3000 Z3.000
G00 F3000 X42.728 Y25.776
G00 F1500 Z0
G01 F60 Z-2.000
G00 F3000 Z3.000
G00 F3000 X55.428 Y30.856
G00 F1500 Z0
G01 F60 Z-2.000
G00 F3000 Z3.000
G00 F3000 X-46.172 Y-25.024
G00 F1500 Z0
G01 F60 Z-2.000
G00 F3000 Z3.000
G00 F3000 X-46.172 Y30.856
G00 F1500 Z0
G01 F60 Z-2.000
G00 F3000 Z3.000
G00 F3000 X55.428 Y-25.024
G00 F1500 Z0
G01 F60 Z-2.000
G00 F3000 Z3.000
G00 F3000 X-43.632 Y12.116
G00 F1500 Z0
G01 F60 Z-2.000
G00 F3000 Z3.000
G00 F3000 X24.328 Y-22.484
G00 F1500 Z0
G01 F60 Z-2.000
G00 F3000 Z3.000
G00 F3000 X-43.632 Y5.456
G00 F1500 Z0
G01 F60 Z-2.000
G00 F3000 Z3.000
G00 F3000 X47.188 Y-22.484
G00 F1500 Z0
G01 F60 Z-2.000
G00 F3000 Z3.000
G00 F3000 X43.688 Y-22.484
G00 F1500 Z0
G01 F60 Z-2.000
G00 F3000 Z3.000
G00 F3000 X34.828 Y-22.484
G00 F1500 Z0
G01 F60 Z-2.000
G00 F3000 Z3.000
G00 F3000 X57.968 Y-9.784
G00 F1500 Z0
G01 F60 Z-2.000
G00 F3000 Z3.000
G00 F3000 X20.828 Y-22.484
G00 F1500 Z0
G01 F60 Z-2.000
G00 F3000 Z3.000
G00 F3000 X57.968 Y0.376
G00 F1500 Z0
G01 F60 Z-2.000
G00 F3000 Z3.000
G00 F3000 X40.188 Y-22.484
G00 F1500 Z0
G01 F60 Z-2.000
G00 F3000 Z3.000
G00 F3000 X-43.632 Y1.956
G00 F1500 Z0
G01 F60 Z-2.000
G00 F3000 Z3.000
G00 F3000 X31.328 Y-22.484
G00 F1500 Z0
G01 F60 Z-2.000
G00 F3000 Z3.000
G00 F3000 X17.328 Y-22.484
G00 F1500 Z0
G01 F60 Z-2.000
G00 F3000 Z3.000
G00 F3000 X50.688 Y-22.484
G00 F1500 Z0
G01 F60 Z-2.000
G00 F3000 Z3.000
G00 F3000 X57.968 Y-13.284
G00 F1500 Z0
G01 F60 Z-2.000
G00 F3000 Z3.000
G00 F3000 X57.968 Y-3.124
G00 F1500 Z0
G01 F60 Z-2.000
G00 F3000 Z3.000
G00 F3000 X27.828 Y-22.484
G00 F1500 Z0
G01 F60 Z-2.000
G00 F3000 Z3.000
G00 F3000 X-43.632 Y15.616
G00 F1500 Z0
G01 F60 Z-2.000
G00 F3000 Z3.000
G00 F3000 X47.810 Y15.616
G00 F1500 Z0
G01 F60 Z-2.000
G00 F3000 Z3.000
G00 F3000 X35.110 Y-17.404
G00 F1500 Z0
G01 F60 Z-2.000
G00 F3000 Z3.000
G00 F3000 X40.190 Y-17.404
G00 F1500 Z0
G01 F60 Z-2.000
G00 F3000 Z3.000
G00 F3000 X50.348 Y25.776
G00 F1500 Z0
G01 F60 Z-2.000
G00 F3000 Z3.000
G00 F3000 X12.248 Y-17.404
G00 F1500 Z0
G01 F60 Z-2.000
G00 F3000 Z3.000
G00 F3000 X47.810 Y-4.704
G00 F1500 Z0
G01 F60 Z-2.000
G00 F3000 Z3.000
G00 F3000 X32.568 Y30.856
G00 F1500 Z0
G01 F60 Z-2.000
G00 F3000 Z3.000
G00 F3000 X50.348 Y5.456
G00 F1500 Z0
G01 F60 Z-2.000
G00 F3000 Z3.000
G00 F3000 X-19.754 Y-17.404
G00 F1500 Z0
G01 F60 Z-2.000
G00 F3000 Z3.000
G00 F3000 X47.810 Y-2.164
G00 F1500 Z0
G01 F60 Z-2.000
G00 F3000 Z3.000
G00 F3000 X42.730 Y30.856
G00 F1500 Z0
G01 F60 Z-2.000
G00 F3000 Z3.000
G00 F3000 X50.348 Y-14.864
G00 F1500 Z0
G01 F60 Z-2.000
G00 F3000 Z3.000
G00 F3000 X19.868 Y30.856
G00 F1500 Z0
G01 F60 Z-2.000
G00 F3000 Z3.000
G00 F3000 X50.348 Y18.156
G00 F1500 Z0
G01 F60 Z-2.000
G00 F3000 Z3.000
G00 F3000 X47.810 Y10.536
G00 F1500 Z0
G01 F60 Z-2.000
G00 F3000 Z3.000
G00 F3000 X40.190 Y30.856
G00 F1500 Z0
G01 F60 Z-2.000
G00 F3000 Z3.000
G00 F3000 X35.110 Y30.856
G00 F1500 Z0
G01 F60 Z-2.000
G00 F3000 Z3.000
G00 F3000 X12.248 Y30.856
G00 F1500 Z0
G01 F60 Z-2.000
G00 F3000 Z3.000
G00 F3000 X30.030 Y-17.404
G00 F1500 Z0
G01 F60 Z-2.000
G00 F3000 Z3.000
G00 F3000 X7.168 Y-17.404
G00 F1500 Z0
G01 F60 Z-2.000
G00 F3000 Z3.000
G00 F3000 X47.810 Y-9.784
G00 F1500 Z0
G01 F60 Z-2.000
G00 F3000 Z3.000
G00 F3000 X17.330 Y-17.404
G00 F1500 Z0
G01 F60 Z-2.000
G00 F3000 Z3.000
G00 F3000 X22.410 Y-17.404
G00 F1500 Z0
G01 F60 Z-2.000
G00 F3000 Z3.000
G00 F3000 X27.490 Y-17.404
G00 F1500 Z0
G01 F60 Z-2.000
G00 F3000 Z3.000
G00 F3000 X-0.452 Y-17.404
G00 F1500 Z0
G01 F60 Z-2.000
G00 F3000 Z3.000
G00 F3000 X50.348 Y0.376
G00 F1500 Z0
G01 F60 Z-2.000
G00 F3000 Z3.000
G00 F3000 X14.790 Y-17.404
G00 F1500 Z0
G01 F60 Z-2.000
G00 F3000 Z3.000
G00 F3000 X47.810 Y25.776
G00 F1500 Z0
G01 F60 Z-2.000
G00 F3000 Z3.000
G00 F3000 X9.710 Y-17.404
G00 F1500 Z0
G01 F60 Z-2.000
G00 F3000 Z3.000
G00 F3000 X50.348 Y13.076
G00 F1500 Z0
G01 F60 Z-2.000
G00 F3000 Z3.000
G00 F3000 X30.030 Y30.856
G00 F1500 Z0
G01 F60 Z-2.000
G00 F3000 Z3.000
G00 F3000 X-2.992 Y30.856
G00 F1500 Z0
G01 F60 Z-2.000
G00 F3000 Z3.000
G00 F3000 X47.810 Y5.456
G00 F1500 Z0
G01 F60 Z-2.000
G00 F3000 Z3.000
G00 F3000 X7.168 Y30.856
G00 F1500 Z0
G01 F60 Z-2.000
G00 F3000 Z3.000
G00 F3000 X50.348 Y-7.244
G00 F1500 Z0
G01 F60 Z-2.000
G00 F3000 Z3.000
G00 F3000 X27.490 Y30.856
G00 F1500 Z0
G01 F60 Z-2.000
G00 F3000 Z3.000
G00 F3000 X47.810 Y-14.864
G00 F1500 Z0
G01 F60 Z-2.000
G00 F3000 Z3.000
G00 F3000 X22.410 Y30.856
G00 F1500 Z0
G01 F60 Z-2.000
G00 F3000 Z3.000
G00 F3000 X17.330 Y30.856
G00 F1500 Z0
G01 F60 Z-2.000
G00 F3000 Z3.000
G00 F3000 X-5.532 Y30.856
G00 F1500 Z0
G01 F60 Z-2.000
G00 F3000 Z3.000
G00 F3000 X-15.692 Y30.856
G00 F1500 Z0
G01 F60 Z-2.000
G00 F3000 Z3.000
G00 F3000 X-0.452 Y30.856
G00 F1500 Z0
G01 F60 Z-2.000
G00 F3000 Z3.000
G00 F3000 X47.810 Y18.156
G00 F1500 Z0
G01 F60 Z-2.000
G00 F3000 Z3.000
G00 F3000 X14.790 Y30.856
G00 F1500 Z0
G01 F60 Z-2.000
G00 F3000 Z3.000
G00 F3000 X9.710 Y30.856
G00 F1500 Z0
G01 F60 Z-2.000
G00 F3000 Z3.000
G00 F3000 X-13.152 Y30.856
G00 F1500 Z0
G01 F60 Z-2.000
G00 F3000 Z3.000
G00 F3000 X4.630 Y-17.404
G00 F1500 Z0
G01 F60 Z-2.000
G00 F3000 Z3.000
G00 F3000 X50.348 Y7.996
G00 F1500 Z0
G01 F60 Z-2.000
G00 F3000 Z3.000
G00 F3000 X2.090 Y-17.404
G00 F1500 Z0
G01 F60 Z-2.000
G00 F3000 Z3.000
G00 F3000 X47.810 Y0.376
G00 F1500 Z0
G01 F60 Z-2.000
G00 F3000 Z3.000
G00 F3000 X50.348 Y-12.324
G00 F1500 Z0
G01 F60 Z-2.000
G00 F3000 Z3.000
G00 F3000 X50.348 Y20.696
G00 F1500 Z0
G01 F60 Z-2.000
G00 F3000 Z3.000
G00 F3000 X47.810 Y13.076
G00 F1500 Z0
G01 F60 Z-2.000
G00 F3000 Z3.000
G00 F3000 X4.630 Y30.856
G00 F1500 Z0
G01 F60 Z-2.000
G00 F3000 Z3.000
G00 F3000 X-18.232 Y30.856
G00 F1500 Z0
G01 F60 Z-2.000
G00 F3000 Z3.000
G00 F3000 X-4.516 Y-17.404
G00 F1500 Z0
G01 F60 Z-2.000
G00 F3000 Z3.000
G00 F3000 X-14.676 Y-17.404
G00 F1500 Z0
G01 F60 Z-2.000
G00 F3000 Z3.000
G00 F3000 X-9.596 Y-17.404
G00 F1500 Z0
G01 F60 Z-2.000
G00 F3000 Z3.000
G00 F3000 X50.348 Y23.236
G00 F1500 Z0
G01 F60 Z-2.000
G00 F3000 Z3.000
G00 F3000 X47.810 Y-7.244
G00 F1500 Z0
G01 F60 Z-2.000
G00 F3000 Z3.000
G00 F3000 X-8.070 Y30.856
G00 F1500 Z0
G01 F60 Z-2.000
G00 F3000 Z3.000
G00 F3000 X50.348 Y2.916
G00 F1500 Z0
G01 F60 Z-2.000
G00 F3000 Z3.000
G00 F3000 X-12.136 Y-17.404
G00 F1500 Z0
G01 F60 Z-2.000
G00 F3000 Z3.000
G00 F3000 X-10.610 Y30.856
G00 F1500 Z0
G01 F60 Z-2.000
G00 F3000 Z3.000
G00 F3000 X50.348 Y-17.404
G00 F1500 Z0
G01 F60 Z-2.000
G00 F3000 Z3.000
G00 F3000 X50.348 Y15.616
G00 F1500 Z0
G01 F60 Z-2.000
G00 F3000 Z3.000
G00 F3000 X47.810 Y7.996
G00 F1500 Z0
G01 F60 Z-2.000
G00 F3000 Z3.000
G00 F3000 X37.648 Y-17.404
G00 F1500 Z0
G01 F60 Z-2.000
G00 F3000 Z3.000
G00 F3000 X50.348 Y-4.704
G00 F1500 Z0
G01 F60 Z-2.000
G00 F3000 Z3.000
G00 F3000 X47.810 Y-12.324
G00 F1500 Z0
G01 F60 Z-2.000
G00 F3000 Z3.000
G00 F3000 X47.810 Y20.696
G00 F1500 Z0
G01 F60 Z-2.000
G00 F3000 Z3.000
G00 F3000 X-17.216 Y-17.404
G00 F1500 Z0
G01 F60 Z-2.000
G00 F3000 Z3.000
G00 F3000 X-22.296 Y-17.404
G00 F1500 Z0
G01 F60 Z-2.000
G00 F3000 Z3.000
G00 F3000 X50.348 Y-2.164
G00 F1500 Z0
G01 F60 Z-2.000
G00 F3000 Z3.000
G00 F3000 X45.268 Y30.856
G00 F1500 Z0
G01 F60 Z-2.000
G00 F3000 Z3.000
G00 F3000 X-7.054 Y-17.404
G00 F1500 Z0
G01 F60 Z-2.000
G00 F3000 Z3.000
G00 F3000 X47.810 Y23.236
G00 F1500 Z0
G01 F60 Z-2.000
G00 F3000 Z3.000
G00 F3000 X-24.836 Y-17.404
G00 F1500 Z0
G01 F60 Z-2.000
G00 F3000 Z3.000
G00 F3000 X50.348 Y10.536
G00 F1500 Z0
G01 F60 Z-2.000
G00 F3000 Z3.000
G00 F3000 X37.648 Y30.856
G00 F1500 Z0
G01 F60 Z-2.000
G00 F3000 Z3.000
G00 F3000 X47.810 Y2.916
G00 F1500 Z0
G01 F60 Z-2.000
G00 F3000 Z3.000
G00 F3000 X32.568 Y-17.404
G00 F1500 Z0
G01 F60 Z-2.000
G00 F3000 Z3.000
G00 F3000 X-27.376 Y-17.404
G00 F1500 Z0
G01 F60 Z-2.000
G00 F3000 Z3.000
G00 F3000 X50.348 Y-9.784
G00 F1500 Z0
G01 F60 Z-2.000
G00 F3000 Z3.000
G00 F3000 X47.810 Y-17.404
G00 F1500 Z0
G01 F60 Z-2.000
G00 F3000 Z3.000
G00 F3000 X24.948 Y-17.404
G00 F1500 Z0
G01 F60 Z-2.000
G00 F3000 Z3.000
G00 F3000 X-18.232 Y27.737
G00 F1500 Z0
G01 F60 Z-2.000
G00 F3000 Z3.000
G00 F3000 X42.728 Y15.616
G00 F1500 Z0
G01 F60 Z-2.000
G00 F3000 Z3.000
G00 F3000 X-11.730 Y23.236
G00 F1500 Z0
G01 F60 Z-2.000
G00 F3000 Z3.000
G00 F3000 X44.150 Y7.417
G00 F1500 Z0
G01 F60 Z-2.000
G00 F3000 Z3.000
G00 F3000 X-10.612 Y7.996
G00 F1500 Z0
G01 F60 Z-2.000
G00 F3000 Z3.000
G00 F3000 X44.150 Y-4.704
G00 F1500 Z0
G01 F60 Z-2.000
G00 F3000 Z3.000
G00 F3000 X-15.692 Y10.536
G00 F1500 Z0
G01 F60 Z-2.000
G00 F3000 Z3.000
G00 F3000 X44.150 Y-0.203
G00 F1500 Z0
G01 F60 Z-2.000
G00 F3000 Z3.000
G00 F3000 X32.568 Y18.156
G00 F1500 Z0
G01 F60 Z-2.000
G00 F3000 Z3.000
G00 F3000 X-36.012 Y5.456
G00 F1500 Z0
G01 F60 Z-2.000
G00 F3000 Z3.000
G00 F3000 X42.728 Y-17.404
G00 F1500 Z0
G01 F60 Z-2.000
G00 F3000 Z3.000
G00 F3000 X-28.392 Y13.076
G00 F1500 Z0
G01 F60 Z-2.000
G00 F3000 Z3.000
G00 F3000 X-0.452 Y7.996
G00 F1500 Z0
G01 F60 Z-2.000
G00 F3000 Z3.000
G00 F3000 X32.568 Y10.536
G00 F1500 Z0
G01 F60 Z-2.000
G00 F3000 Z3.000
G00 F3000 X37.650 Y7.417
G00 F1500 Z0
G01 F60 Z-2.000
G00 F3000 Z3.000
G00 F3000 X37.650 Y-4.704
G00 F1500 Z0
G01 F60 Z-2.000
G00 F3000 Z3.000
G00 F3000 X35.108 Y-4.704
G00 F1500 Z0
G01 F60 Z-2.000
G00 F3000 Z3.000
G00 F3000 X-0.452 Y0.376
G00 F1500 Z0
G01 F60 Z-2.000
G00 F3000 Z3.000
G00 F3000 X42.728 Y20.696
G00 F1500 Z0
G01 F60 Z-2.000
G00 F3000 Z3.000
G00 F3000 X37.650 Y-0.203
G00 F1500 Z0
G01 F60 Z-2.000
G00 F3000 Z3.000
G00 F3000 X-30.932 Y15.616
G00 F1500 Z0
G01 F60 Z-2.000
G00 F3000 Z3.000
G00 F3000 X42.728 Y13.076
G00 F1500 Z0
G01 F60 Z-2.000
G00 F3000 Z3.000
G00 F3000 X-8.072 Y13.076
G00 F1500 Z0
G01 F60 Z-2.000
G00 F3000 Z3.000
G00 F3000 X-18.232 Y23.236
G00 F1500 Z0
G01 F60 Z-2.000
G00 F3000 Z3.000
G00 F3000 X12.248 Y10.536
G00 F1500 Z0
G01 F60 Z-2.000
G00 F3000 Z3.000
G00 F3000 X44.150 Y2.916
G00 F1500 Z0
G01 F60 Z-2.000
G00 F3000 Z3.000
G00 F3000 X-23.312 Y7.996
G00 F1500 Z0
G01 F60 Z-2.000
G00 F3000 Z3.000
G00 F3000 X22.408 Y0.376
G00 F1500 Z0
G01 F60 Z-2.000
G00 F3000 Z3.000
G00 F3000 X32.568 Y15.616
G00 F1500 Z0
G01 F60 Z-2.000
G00 F3000 Z3.000
G00 F3000 X-36.012 Y2.916
G00 F1500 Z0
G01 F60 Z-2.000
G00 F3000 Z3.000
G00 F3000 X17.328 Y2.916
G00 F1500 Z0
G01 F60 Z-2.000
G00 F3000 Z3.000
G00 F3000 X-11.730 Y27.737
G00 F1500 Z0
G01 F60 Z-2.000
G00 F3000 Z3.000
G00 F3000 X-23.312 Y0.376
G00 F1500 Z0
G01 F60 Z-2.000
G00 F3000 Z3.000
G00 F3000 X-28.392 Y2.916
G00 F1500 Z0
G01 F60 Z-2.000
G00 F3000 Z3.000
G00 F3000 X42.728 Y18.156
G00 F1500 Z0
G01 F60 Z-2.000
G00 F3000 Z3.000
G00 F3000 X37.650 Y2.916
G00 F1500 Z0
G01 F60 Z-2.000
G00 F3000 Z3.000
G00 F3000 X-15.692 Y20.696
G00 F1500 Z0
G01 F60 Z-2.000
G00 F3000 Z3.000
G00 F3000 X-10.612 Y10.536
G00 F1500 Z0
G01 F60 Z-2.000
G00 F3000 Z3.000
G00 F3000 X-8.072 Y28.316
G00 F1500 Z0
G01 F60 Z-2.000
G00 F3000 Z3.000
G00 F3000 X35.108 Y-14.864
G00 F1500 Z0
G01 F60 Z-2.000
G00 F3000 Z3.000
G00 F3000 X42.728 Y10.536
G00 F1500 Z0
G01 F60 Z-2.000
G00 F3000 Z3.000
G00 F3000 X-30.932 Y5.456
G00 F1500 Z0
G01 F60 Z-2.000
G00 F3000 Z3.000
G00 F3000 X17.328 Y15.616
G00 F1500 Z0
G01 F60 Z-2.000
G00 F3000 Z3.000
G00 F3000 X42.728 Y-7.244
G00 F1500 Z0
G01 F60 Z-2.000
G00 F3000 Z3.000
G00 F3000 X12.248 Y7.996
G00 F1500 Z0
G01 F60 Z-2.000
G00 F3000 Z3.000
G00 F3000 X22.408 Y5.456
G00 F1500 Z0
G01 F60 Z-2.000
G00 F3000 Z3.000
G00 F3000 X32.568 Y20.696
G00 F1500 Z0
G01 F60 Z-2.000
G00 F3000 Z3.000
G00 F3000 X45.268 Y-7.244
G00 F1500 Z0
G01 F60 Z-2.000
G00 F3000 Z3.000
G00 F3000 X32.568 Y13.076
G00 F1500 Z0
G01 F60 Z-2.000
G00 F3000 Z3.000
G00 F3000 X45.268 Y-14.864
G00 F1500 Z0
G01 F60 Z-2.000
G00 F3000 Z3.000
G00 F3000 X19.868 Y-9.784
G00 F1500 Z0
G01 F60 Z-2.000
G00 F3000 Z3.000
G00 F3000 X32.568 Y5.456
G00 F1500 Z0
G01 F60 Z-2.000
G00 F3000 Z3.000
G00 F3000 X-13.152 Y-2.164
G00 F1500 Z0
G01 F60 Z-2.000
G00 F3000 Z3.000
G00 F3000 X19.868 Y0.376
G00 F1500 Z0
G01 F60 Z-2.000
G00 F3000 Z3.000
G00 F3000 X32.568 Y-12.324
G00 F1500 Z0
G01 F60 Z-2.000
G00 F3000 Z3.000
G00 F3000 X-25.852 Y-9.784
G00 F1500 Z0
G01 F60 Z-2.000
G00 F3000 Z3.000
G00 F3000 X32.568 Y-2.164
G00 F1500 Z0
G01 F60 Z-2.000
G00 F3000 Z3.000
G00 F3000 X9.708 Y-4.704
G00 F1500 Z0
G01 F60 Z-2.000
G00 F3000 Z3.000
G00 F3000 X-25.852 Y0.376
G00 F1500 Z0
G01 F60 Z-2.000
G00 F3000 Z3.000
G00 F3000 X9.708 Y5.456
G00 F1500 Z0
G01 F60 Z-2.000
G00 F3000 Z3.000
G00 F3000 X9.708 Y-12.324
G00 F1500 Z0
G01 F60 Z-2.000
G00 F3000 Z3.000
G00 F3000 X9.708 Y-2.164
G00 F1500 Z0
G01 F60 Z-2.000
G00 F3000 Z3.000
G00 F3000 X-13.152 Y-7.244
G00 F1500 Z0
G01 F60 Z-2.000
G00 F3000 Z3.000
G00 F3000 X19.868 Y-4.704
G00 F1500 Z0
G01 F60 Z-2.000
G00 F3000 Z3.000
G00 F3000 X-2.992 Y-9.784
G00 F1500 Z0
G01 F60 Z-2.000
G00 F3000 Z3.000
G00 F3000 X-13.152 Y2.916
G00 F1500 Z0
G01 F60 Z-2.000
G00 F3000 Z3.000
G00 F3000 X19.868 Y5.456
G00 F1500 Z0
G01 F60 Z-2.000
G00 F3000 Z3.000
G00 F3000 X-2.992 Y0.376
G00 F1500 Z0
G01 F60 Z-2.000
G00 F3000 Z3.000
G00 F3000 X32.568 Y-7.244
G00 F1500 Z0
G01 F60 Z-2.000
G00 F3000 Z3.000
G00 F3000 X19.868 Y-12.324
G00 F1500 Z0
G01 F60 Z-2.000
G00 F3000 Z3.000
G00 F3000 X-25.852 Y-4.704
G00 F1500 Z0
G01 F60 Z-2.000
G00 F3000 Z3.000
G00 F3000 X32.568 Y2.916
G00 F1500 Z0
G01 F60 Z-2.000
G00 F3000 Z3.000
G00 F3000 X19.868 Y-2.164
G00 F1500 Z0
G01 F60 Z-2.000
G00 F3000 Z3.000
G00 F3000 X-25.852 Y5.456
G00 F1500 Z0
G01 F60 Z-2.000
G00 F3000 Z3.000
G00 F3000 X-25.852 Y-12.324
G00 F1500 Z0
G01 F60 Z-2.000
G00 F3000 Z3.000
G00 F3000 X9.708 Y-7.244
G00 F1500 Z0
G01 F60 Z-2.000
G00 F3000 Z3.000
G00 F3000 X-25.852 Y-2.164
G00 F1500 Z0
G01 F60 Z-2.000
G00 F3000 Z3.000
G00 F3000 X9.708 Y2.916
G00 F1500 Z0
G01 F60 Z-2.000
G00 F3000 Z3.000
G00 F3000 X-2.992 Y-4.704
G00 F1500 Z0
G01 F60 Z-2.000
G00 F3000 Z3.000
G00 F3000 X-2.992 Y5.456
G00 F1500 Z0
G01 F60 Z-2.000
G00 F3000 Z3.000
G00 F3000 X-13.152 Y-9.784
G00 F1500 Z0
G01 F60 Z-2.000
G00 F3000 Z3.000
G00 F3000 X19.868 Y-7.244
G00 F1500 Z0
G01 F60 Z-2.000
G00 F3000 Z3.000
G00 F3000 X-2.992 Y-12.324
G00 F1500 Z0
G01 F60 Z-2.000
G00 F3000 Z3.000
G00 F3000 X-13.152 Y0.376
G00 F1500 Z0
G01 F60 Z-2.000
G00 F3000 Z3.000
G00 F3000 X19.868 Y2.916
G00 F1500 Z0
G01 F60 Z-2.000
G00 F3000 Z3.000
G00 F3000 X-2.992 Y-2.164
G00 F1500 Z0
G01 F60 Z-2.000
G00 F3000 Z3.000
G00 F3000 X32.568 Y-9.784
G00 F1500 Z0
G01 F60 Z-2.000
G00 F3000 Z3.000
G00 F3000 X-25.852 Y-7.244
G00 F1500 Z0
G01 F60 Z-2.000
G00 F3000 Z3.000
G00 F3000 X32.568 Y0.376
G00 F1500 Z0
G01 F60 Z-2.000
G00 F3000 Z3.000
G00 F3000 X-25.852 Y2.916
G00 F1500 Z0
G01 F60 Z-2.000
G00 F3000 Z3.000
G00 F3000 X9.708 Y-9.784
G00 F1500 Z0
G01 F60 Z-2.000
G00 F3000 Z3.000
G00 F3000 X9.708 Y0.376
G00 F1500 Z0
G01 F60 Z-2.000
G00 F3000 Z3.000
G00 F3000 X-13.152 Y-4.704
G00 F1500 Z0
G01 F60 Z-2.000
G00 F3000 Z3.000
G00 F3000 X-2.992 Y-7.244
G00 F1500 Z0
G01 F60 Z-2.000
G00 F3000 Z3.000
G00 F3000 X-13.152 Y5.456
G00 F1500 Z0
G01 F60 Z-2.000
G00 F3000 Z3.000
G00 F3000 X-2.992 Y2.916
G00 F1500 Z0
G01 F60 Z-2.000
G00 F3000 Z3.000
G00 F3000 X32.568 Y-4.704
G00 F1500 Z0
G01 F60 Z-2.000
G00 F3000 Z3.000
G00 F3000 X-13.152 Y-12.324
G00 F1500 Z0
G01 F60 Z-2.000
G00 F3000 Z3.000
G00 F3000 X27.488 Y15.616
G00 F1500 Z0
G01 F60 Z-2.000
G00 F3000 Z3.000
G00 F3000 X29.990 Y20.696
G00 F1500 Z0
G01 F60 Z-2.000
G00 F3000 Z3.000
G00 F3000 X27.488 Y10.536
G00 F1500 Z0
G01 F60 Z-2.000
G00 F3000 Z3.000
G00 F3000 X22.408 Y18.156
G00 F1500 Z0
G01 F60 Z-2.000
G00 F3000 Z3.000
G00 F3000 X29.990 Y15.616
G00 F1500 Z0
G01 F60 Z-2.000
G00 F3000 Z3.000
G00 F3000 X22.408 Y13.076
G00 F1500 Z0
G01 F60 Z-2.000
G00 F3000 Z3.000
G00 F3000 X29.990 Y10.536
G00 F1500 Z0
G01 F60 Z-2.000
G00 F3000 Z3.000
G00 F3000 X24.910 Y18.156
G00 F1500 Z0
G01 F60 Z-2.000
G00 F3000 Z3.000
G00 F3000 X24.910 Y13.076
G00 F1500 Z0
G01 F60 Z-2.000
G00 F3000 Z3.000
G00 F3000 X27.488 Y20.696
G00 F1500 Z0
G01 F60 Z-2.000
G00 F3000 Z3.000
G00 F3000 Z3.000
G00 F3000 X0.000 Y0.000
M05
M30
%