( PCB drills )
( Generated by Rapid-PCB.com )
( Material Size)
( X= 110.000, Y= 70.000, Z= 1.580)
()
G00
G17
G21
G40
G49
G54
G80
G90
G94
G00 F3000 Z3.000
M03 S9000
G00 F3000 X-7.952 Y1.028
G00 F1500 Z0
G01 F60 Z-2.000
G00 F3000 Z3.000
G00 F3000 X-30.812 Y-4.052
G00 F1500 Z0
G01 F60 Z-2.000
G00 F3000 Z3.000
G00 F3000 X27.608 Y3.568
G00 F1500 Z0
G01 F60 Z-2.000
G00 F3000 Z3.000
G00 F3000 X-7.952 Y-6.592
G00 F1500 Z0
G01 F60 Z-2.000
G00 F3000 Z3.000
G00 F3000 X-18.112 Y6.108
G00 F1500 Z0
G01 F60 Z-2.000
G00 F3000 Z3.000
G00 F3000 X27.608 Y-4.052
G00 F1500 Z0
G01 F60 Z-2.000
G00 F3000 Z3.000
G00 F3000 X-18.112 Y-11.672
G00 F1500 Z0
G01 F60 Z-2.000
G00 F3000 Z3.000
G00 F3000 X14.908 Y-9.132
G00 F1500 Z0
G01 F60 Z-2.000
G00 F3000 Z3.000
G00 F3000 X4.748 Y3.568
G00 F1500 Z0
G01 F60 Z-2.000
G00 F3000 Z3.000
G00 F3000 X-18.112 Y-1.512
G00 F1500 Z0
G01 F60 Z-2.000
G00 F3000 Z3.000
G00 F3000 X14.908 Y1.028
G00 F1500 Z0
G01 F60 Z-2.000
G00 F3000 Z3.000
G00 F3000 X-30.812 Y-9.132
G00 F1500 Z0
G01 F60 Z-2.000
G00 F3000 Z3.000
G00 F3000 X4.748 Y-4.052
G00 F1500 Z0
G01 F60 Z-2.000
G00 F3000 Z3.000
G00 F3000 X14.908 Y-6.592
G00 F1500 Z0
G01 F60 Z-2.000
G00 F3000 Z3.000
G00 F3000 X-7.952 Y6.108
G00 F1500 Z0
G01 F60 Z-2.000
G00 F3000 Z3.000
G00 F3000 X-30.812 Y1.028
G00 F1500 Z0
G01 F60 Z-2.000
G00 F3000 Z3.000
G00 F3000 X-7.952 Y-11.672
G00 F1500 Z0
G01 F60 Z-2.000
G00 F3000 Z3.000
G00 F3000 X-7.952 Y-1.512
G00 F1500 Z0
G01 F60 Z-2.000
G00 F3000 Z3.000
G00 F3000 X-30.812 Y-6.592
G00 F1500 Z0
G01 F60 Z-2.000
G00 F3000 Z3.000
G00 F3000 X27.608 Y-9.132
G00 F1500 Z0
G01 F60 Z-2.000
G00 F3000 Z3.000
G00 F3000 X27.608 Y1.028
G00 F1500 Z0
G01 F60 Z-2.000
G00 F3000 Z3.000
G00 F3000 X-18.112 Y3.568
G00 F1500 Z0
G01 F60 Z-2.000
G00 F3000 Z3.000
G00 F3000 X27.608 Y-6.592
G00 F1500 Z0
G01 F60 Z-2.000
G00 F3000 Z3.000
G00 F3000 X14.908 Y6.108
G00 F1500 Z0
G01 F60 Z-2.000
G00 F3000 Z3.000
G00 F3000 X4.748 Y-9.132
G00 F1500 Z0
G01 F60 Z-2.000
G00 F3000 Z3.000
G00 F3000 X14.908 Y-11.672
G00 F1500 Z0
G01 F60 Z-2.000
G00 F3000 Z3.000
G00 F3000 X4.748 Y1.028
G00 F1500 Z0
G01 F60 Z-2.000
G00 F3000 Z3.000
G00 F3000 X-18.112 Y-4.052
G00 F1500 Z0
G01 F60 Z-2.000
G00 F3000 Z3.000
G00 F3000 X14.908 Y-1.512
G00 F1500 Z0
G01 F60 Z-2.000
G00 F3000 Z3.000
G00 F3000 X-30.812 Y6.108
G00 F1500 Z0
G01 F60 Z-2.000
G00 F3000 Z3.000
G00 F3000 X-30.812 Y-11.672
G00 F1500 Z0
G01 F60 Z-2.000
G00 F3000 Z3.000
G00 F3000 X4.748 Y-6.592
G00 F1500 Z0
G01 F60 Z-2.000
G00 F3000 Z3.000
G00 F3000 X-7.952 Y3.568
G00 F1500 Z0
G01 F60 Z-2.000
G00 F3000 Z3.000
G00 F3000 X-30.812 Y-1.512
G00 F1500 Z0
G01 F60 Z-2.000
G00 F3000 Z3.000
G00 F3000 X27.608 Y6.108
G00 F1500 Z0
G01 F60 Z-2.000
G00 F3000 Z3.000
G00 F3000 X-7.952 Y-4.052
G00 F1500 Z0
G01 F60 Z-2.000
G00 F3000 Z3.000
G00 F3000 X27.608 Y-11.672
G00 F1500 Z0
G01 F60 Z-2.000
G00 F3000 Z3.000
G00 F3000 X27.608 Y-1.512
G00 F1500 Z0
G01 F60 Z-2.000
G00 F3000 Z3.000
G00 F3000 X-18.112 Y-9.132
G00 F1500 Z0
G01 F60 Z-2.000
G00 F3000 Z3.000
G00 F3000 X4.748 Y6.108
G00 F1500 Z0
G01 F60 Z-2.000
G00 F3000 Z3.000
G00 F3000 X-18.112 Y1.028
G00 F1500 Z0
G01 F60 Z-2.000
G00 F3000 Z3.000
G00 F3000 X14.908 Y3.568
G00 F1500 Z0
G01 F60 Z-2.000
G00 F3000 Z3.000
G00 F3000 X4.748 Y-11.672
G00 F1500 Z0
G01 F60 Z-2.000
G00 F3000 Z3.000
G00 F3000 X4.748 Y-1.512
G00 F1500 Z0
G01 F60 Z-2.000
G00 F3000 Z3.000
G00 F3000 X-18.112 Y-6.592
G00 F1500 Z0
G01 F60 Z-2.000
G00 F3000 Z3.000
G00 F3000 X14.908 Y-4.052
G00 F1500 Z0
G01 F60 Z-2.000
G00 F3000 Z3.000
G00 F3000 X-30.812 Y3.568
G00 F1500 Z0
G01 F60 Z-2.000
G00 F3000 Z3.000
G00 F3000 X-7.952 Y-9.132
G00 F1500 Z0
G01 F60 Z-2.000
G00 F3000 Z3.000
G00 F3000 X17.448 Y18.808
G00 F1500 Z0
G01 F60 Z-2.000
G00 F3000 Z3.000
G00 F3000 X22.528 Y16.268
G00 F1500 Z0
G01 F60 Z-2.000
G00 F3000 Z3.000
G00 F3000 X19.950 Y18.808
G00 F1500 Z0
G01 F60 Z-2.000
G00 F3000 Z3.000
G00 F3000 X22.528 Y11.188
G00 F1500 Z0
G01 F60 Z-2.000
G00 F3000 Z3.000
G00 F3000 X25.030 Y16.268
G00 F1500 Z0
G01 F60 Z-2.000
G00 F3000 Z3.000
G00 F3000 X17.448 Y13.728
G00 F1500 Z0
G01 F60 Z-2.000
G00 F3000 Z3.000
G00 F3000 X25.030 Y11.188
G00 F1500 Z0
G01 F60 Z-2.000
G00 F3000 Z3.000
G00 F3000 X22.528 Y21.348
G00 F1500 Z0
G01 F60 Z-2.000
G00 F3000 Z3.000
G00 F3000 X-43.512 Y21.310
G00 F1500 Z0
G01 F60 Z-2.000
G00 F3000 Z3.000
G00 F3000 X19.950 Y13.728
G00 F1500 Z0
G01 F60 Z-2.000
G00 F3000 Z3.000
G00 F3000 X25.030 Y21.348
G00 F1500 Z0
G01 F60 Z-2.000
G00 F3000 Z3.000
G00 F3000 X-43.512 Y18.808
G00 F1500 Z0
G01 F60 Z-2.000
G00 F3000 Z3.000
G00 F3000 X-15.572 Y-26.912
G00 F1500 Z0
G01 F60 Z-2.000
G00 F3000 Z3.000
G00 F3000 X-20.652 Y-26.912
G00 F1500 Z0
G01 F60 Z-2.000
G00 F3000 Z3.000
G00 F3000 X-28.272 Y-21.832
G00 F1500 Z0
G01 F60 Z-2.000
G00 F3000 Z3.000
G00 F3000 X-23.192 Y-21.832
G00 F1500 Z0
G01 F60 Z-2.000
G00 F3000 Z3.000
G00 F3000 X22.528 Y-4.052
G00 F1500 Z0
G01 F60 Z-2.000
G00 F3000 Z3.000
G00 F3000 X-46.052 Y-1.512
G00 F1500 Z0
G01 F60 Z-2.000
G00 F3000 Z3.000
G00 F3000 X47.928 Y16.268
G00 F1500 Z0
G01 F60 Z-2.000
G00 F3000 Z3.000
G00 F3000 X-0.332 Y1.028
G00 F1500 Z0
G01 F60 Z-2.000
G00 F3000 Z3.000
G00 F3000 X7.288 Y-24.372
G00 F1500 Z0
G01 F60 Z-2.000
G00 F3000 Z3.000
G00 F3000 X-43.512 Y-9.132
G00 F1500 Z0
G01 F60 Z-2.000
G00 F3000 Z3.000
G00 F3000 X9.828 Y-4.052
G00 F1500 Z0
G01 F60 Z-2.000
G00 F3000 Z3.000
G00 F3000 X-35.892 Y-6.592
G00 F1500 Z0
G01 F60 Z-2.000
G00 F3000 Z3.000
G00 F3000 X2.208 Y1.028
G00 F1500 Z0
G01 F60 Z-2.000
G00 F3000 Z3.000
G00 F3000 X-13.032 Y1.028
G00 F1500 Z0
G01 F60 Z-2.000
G00 F3000 Z3.000
G00 F3000 X4.748 Y-24.372
G00 F1500 Z0
G01 F60 Z-2.000
G00 F3000 Z3.000
G00 F3000 X47.928 Y18.808
G00 F1500 Z0
G01 F60 Z-2.000
G00 F3000 Z3.000
G00 F3000 X-46.052 Y-9.132
G00 F1500 Z0
G01 F60 Z-2.000
G00 F3000 Z3.000
G00 F3000 X-43.512 Y-6.592
G00 F1500 Z0
G01 F60 Z-2.000
G00 F3000 Z3.000
G00 F3000 X-20.652 Y1.028
G00 F1500 Z0
G01 F60 Z-2.000
G00 F3000 Z3.000
G00 F3000 X-23.192 Y-26.912
G00 F1500 Z0
G01 F60 Z-2.000
G00 F3000 Z3.000
G00 F3000 X-46.052 Y-6.592
G00 F1500 Z0
G01 F60 Z-2.000
G00 F3000 Z3.000
G00 F3000 X47.928 Y11.188
G00 F1500 Z0
G01 F60 Z-2.000
G00 F3000 Z3.000
G00 F3000 X-0.332 Y-4.052
G00 F1500 Z0
G01 F60 Z-2.000
G00 F3000 Z3.000
G00 F3000 X-43.512 Y-14.212
G00 F1500 Z0
G01 F60 Z-2.000
G00 F3000 Z3.000
G00 F3000 X-0.332 Y-24.372
G00 F1500 Z0
G01 F60 Z-2.000
G00 F3000 Z3.000
G00 F3000 X-5.412 Y-24.372
G00 F1500 Z0
G01 F60 Z-2.000
G00 F3000 Z3.000
G00 F3000 X2.208 Y-4.052
G00 F1500 Z0
G01 F60 Z-2.000
G00 F3000 Z3.000
G00 F3000 X-13.032 Y-4.052
G00 F1500 Z0
G01 F60 Z-2.000
G00 F3000 Z3.000
G00 F3000 X-46.052 Y-14.212
G00 F1500 Z0
G01 F60 Z-2.000
G00 F3000 Z3.000
G00 F3000 X-35.892 Y1.028
G00 F1500 Z0
G01 F60 Z-2.000
G00 F3000 Z3.000
G00 F3000 X2.208 Y-24.372
G00 F1500 Z0
G01 F60 Z-2.000
G00 F3000 Z3.000
G00 F3000 X-2.872 Y-24.372
G00 F1500 Z0
G01 F60 Z-2.000
G00 F3000 Z3.000
G00 F3000 X-20.652 Y-4.052
G00 F1500 Z0
G01 F60 Z-2.000
G00 F3000 Z3.000
G00 F3000 X32.688 Y26.428
G00 F1500 Z0
G01 F60 Z-2.000
G00 F3000 Z3.000
G00 F3000 X37.768 Y26.428
G00 F1500 Z0
G01 F60 Z-2.000
G00 F3000 Z3.000
G00 F3000 X-23.192 Y1.028
G00 F1500 Z0
G01 F60 Z-2.000
G00 F3000 Z3.000
G00 F3000 X25.068 Y-1.512
G00 F1500 Z0
G01 F60 Z-2.000
G00 F3000 Z3.000
G00 F3000 X47.928 Y6.108
G00 F1500 Z0
G01 F60 Z-2.000
G00 F3000 Z3.000
G00 F3000 X30.148 Y26.428
G00 F1500 Z0
G01 F60 Z-2.000
G00 F3000 Z3.000
G00 F3000 X22.528 Y-1.512
G00 F1500 Z0
G01 F60 Z-2.000
G00 F3000 Z3.000
G00 F3000 X53.008 Y1.028
G00 F1500 Z0
G01 F60 Z-2.000
G00 F3000 Z3.000
G00 F3000 X50.468 Y21.348
G00 F1500 Z0
G01 F60 Z-2.000
G00 F3000 Z3.000
G00 F3000 X9.828 Y-1.512
G00 F1500 Z0
G01 F60 Z-2.000
G00 F3000 Z3.000
G00 F3000 X-35.892 Y-4.052
G00 F1500 Z0
G01 F60 Z-2.000
G00 F3000 Z3.000
G00 F3000 X50.468 Y1.028
G00 F1500 Z0
G01 F60 Z-2.000
G00 F3000 Z3.000
G00 F3000 X-23.192 Y-4.052
G00 F1500 Z0
G01 F60 Z-2.000
G00 F3000 Z3.000
G00 F3000 X-43.512 Y-4.052
G00 F1500 Z0
G01 F60 Z-2.000
G00 F3000 Z3.000
G00 F3000 X25.068 Y26.428
G00 F1500 Z0
G01 F60 Z-2.000
G00 F3000 Z3.000
G00 F3000 X19.988 Y26.428
G00 F1500 Z0
G01 F60 Z-2.000
G00 F3000 Z3.000
G00 F3000 X14.908 Y26.428
G00 F1500 Z0
G01 F60 Z-2.000
G00 F3000 Z3.000
G00 F3000 X-46.052 Y-4.052
G00 F1500 Z0
G01 F60 Z-2.000
G00 F3000 Z3.000
G00 F3000 X27.608 Y26.428
G00 F1500 Z0
G01 F60 Z-2.000
G00 F3000 Z3.000
G00 F3000 X17.448 Y26.428
G00 F1500 Z0
G01 F60 Z-2.000
G00 F3000 Z3.000
G00 F3000 X12.368 Y26.428
G00 F1500 Z0
G01 F60 Z-2.000
G00 F3000 Z3.000
G00 F3000 X7.288 Y26.428
G00 F1500 Z0
G01 F60 Z-2.000
G00 F3000 Z3.000
G00 F3000 X47.928 Y13.728
G00 F1500 Z0
G01 F60 Z-2.000
G00 F3000 Z3.000
G00 F3000 X-0.332 Y-1.512
G00 F1500 Z0
G01 F60 Z-2.000
G00 F3000 Z3.000
G00 F3000 X-43.512 Y-11.672
G00 F1500 Z0
G01 F60 Z-2.000
G00 F3000 Z3.000
G00 F3000 X9.828 Y-6.592
G00 F1500 Z0
G01 F60 Z-2.000
G00 F3000 Z3.000
G00 F3000 X9.828 Y26.428
G00 F1500 Z0
G01 F60 Z-2.000
G00 F3000 Z3.000
G00 F3000 X4.748 Y26.428
G00 F1500 Z0
G01 F60 Z-2.000
G00 F3000 Z3.000
G00 F3000 X2.208 Y-1.512
G00 F1500 Z0
G01 F60 Z-2.000
G00 F3000 Z3.000
G00 F3000 X-13.032 Y-1.512
G00 F1500 Z0
G01 F60 Z-2.000
G00 F3000 Z3.000
G00 F3000 X-46.052 Y-11.672
G00 F1500 Z0
G01 F60 Z-2.000
G00 F3000 Z3.000
G00 F3000 X-18.112 Y-21.832
G00 F1500 Z0
G01 F60 Z-2.000
G00 F3000 Z3.000
G00 F3000 X-20.652 Y-1.512
G00 F1500 Z0
G01 F60 Z-2.000
G00 F3000 Z3.000
G00 F3000 X25.068 Y1.028
G00 F1500 Z0
G01 F60 Z-2.000
G00 F3000 Z3.000
G00 F3000 X-15.572 Y-21.832
G00 F1500 Z0
G01 F60 Z-2.000
G00 F3000 Z3.000
G00 F3000 X-20.652 Y-21.832
G00 F1500 Z0
G01 F60 Z-2.000
G00 F3000 Z3.000
G00 F3000 X47.928 Y8.648
G00 F1500 Z0
G01 F60 Z-2.000
G00 F3000 Z3.000
G00 F3000 X22.528 Y1.028
G00 F1500 Z0
G01 F60 Z-2.000
G00 F3000 Z3.000
G00 F3000 X-13.032 Y-6.592
G00 F1500 Z0
G01 F60 Z-2.000
G00 F3000 Z3.000
G00 F3000 X53.008 Y3.568
G00 F1500 Z0
G01 F60 Z-2.000
G00 F3000 Z3.000
G00 F3000 X2.208 Y26.428
G00 F1500 Z0
G01 F60 Z-2.000
G00 F3000 Z3.000
G00 F3000 X50.468 Y23.888
G00 F1500 Z0
G01 F60 Z-2.000
G00 F3000 Z3.000
G00 F3000 X9.828 Y1.028
G00 F1500 Z0
G01 F60 Z-2.000
G00 F3000 Z3.000
G00 F3000 X-35.892 Y-1.512
G00 F1500 Z0
G01 F60 Z-2.000
G00 F3000 Z3.000
G00 F3000 X-18.112 Y-26.912
G00 F1500 Z0
G01 F60 Z-2.000
G00 F3000 Z3.000
G00 F3000 X50.468 Y3.568
G00 F1500 Z0
G01 F60 Z-2.000
G00 F3000 Z3.000
G00 F3000 X37.768 Y23.888
G00 F1500 Z0
G01 F60 Z-2.000
G00 F3000 Z3.000
G00 F3000 X-30.812 Y-21.832
G00 F1500 Z0
G01 F60 Z-2.000
G00 F3000 Z3.000
G00 F3000 X-23.192 Y-1.512
G00 F1500 Z0
G01 F60 Z-2.000
G00 F3000 Z3.000
G00 F3000 X25.068 Y-4.052
G00 F1500 Z0
G01 F60 Z-2.000
G00 F3000 Z3.000
G00 F3000 X-43.512 Y-1.512
G00 F1500 Z0
G01 F60 Z-2.000
G00 F3000 Z3.000
G00 F3000 X50.468 Y31.508
G00 F1500 Z0
G01 F60 Z-2.000
G00 F3000 Z3.000
G00 F3000 X50.468 Y-26.912
G00 F1500 Z0
G01 F60 Z-2.000
G00 F3000 Z3.000
G00 F3000 X-51.132 Y31.508
G00 F1500 Z0
G01 F60 Z-2.000
G00 F3000 Z3.000
G00 F3000 X-51.132 Y-26.912
G00 F1500 Z0
G01 F60 Z-2.000
G00 F3000 Z3.000
G00 F3000 X45.729 Y-24.372
G00 F1500 Z0
G01 F60 Z-2.000
G00 F3000 Z3.000
G00 F3000 X42.229 Y-24.372
G00 F1500 Z0
G01 F60 Z-2.000
G00 F3000 Z3.000
G00 F3000 X19.369 Y-24.372
G00 F1500 Z0
G01 F60 Z-2.000
G00 F3000 Z3.000
G00 F3000 X-48.614 Y18.767
G00 F1500 Z0
G01 F60 Z-2.000
G00 F3000 Z3.000
G00 F3000 X53.008 Y-10.092
G00 F1500 Z0
G01 F60 Z-2.000
G00 F3000 Z3.000
G00 F3000 X53.008 Y-16.752
G00 F1500 Z0
G01 F60 Z-2.000
G00 F3000 Z3.000
G00 F3000 X53.008 Y-6.592
G00 F1500 Z0
G01 F60 Z-2.000
G00 F3000 Z3.000
G00 F3000 X15.869 Y-24.372
G00 F1500 Z0
G01 F60 Z-2.000
G00 F3000 Z3.000
G00 F3000 X-48.592 Y6.108
G00 F1500 Z0
G01 F60 Z-2.000
G00 F3000 Z3.000
G00 F3000 X53.008 Y-20.252
G00 F1500 Z0
G01 F60 Z-2.000
G00 F3000 Z3.000
G00 F3000 X-48.614 Y15.267
G00 F1500 Z0
G01 F60 Z-2.000
G00 F3000 Z3.000
G00 F3000 X38.729 Y-24.372
G00 F1500 Z0
G01 F60 Z-2.000
G00 F3000 Z3.000
G00 F3000 X35.228 Y-24.372
G00 F1500 Z0
G01 F60 Z-2.000
G00 F3000 Z3.000
G00 F3000 X29.869 Y-24.372
G00 F1500 Z0
G01 F60 Z-2.000
G00 F3000 Z3.000
G00 F3000 X26.369 Y-24.372
G00 F1500 Z0
G01 F60 Z-2.000
G00 F3000 Z3.000
G00 F3000 X12.368 Y-24.372
G00 F1500 Z0
G01 F60 Z-2.000
G00 F3000 Z3.000
G00 F3000 X-48.592 Y2.608
G00 F1500 Z0
G01 F60 Z-2.000
G00 F3000 Z3.000
G00 F3000 X22.869 Y-24.372
G00 F1500 Z0
G01 F60 Z-2.000
G00 F3000 Z3.000
G00 F3000 X45.388 Y-16.752
G00 F1500 Z0
G01 F60 Z-2.000
G00 F3000 Z3.000
G00 F3000 X-23.192 Y31.508
G00 F1500 Z0
G01 F60 Z-2.000
G00 F3000 Z3.000
G00 F3000 X42.848 Y3.568
G00 F1500 Z0
G01 F60 Z-2.000
G00 F3000 Z3.000
G00 F3000 X-9.476 Y-16.752
G00 F1500 Z0
G01 F60 Z-2.000
G00 F3000 Z3.000
G00 F3000 X-19.636 Y-16.752
G00 F1500 Z0
G01 F60 Z-2.000
G00 F3000 Z3.000
G00 F3000 X-14.556 Y-16.752
G00 F1500 Z0
G01 F60 Z-2.000
G00 F3000 Z3.000
G00 F3000 X45.388 Y16.268
G00 F1500 Z0
G01 F60 Z-2.000
G00 F3000 Z3.000
G00 F3000 X42.848 Y-16.752
G00 F1500 Z0
G01 F60 Z-2.000
G00 F3000 Z3.000
G00 F3000 X32.688 Y-16.752
G00 F1500 Z0
G01 F60 Z-2.000
G00 F3000 Z3.000
G00 F3000 X42.848 Y16.268
G00 F1500 Z0
G01 F60 Z-2.000
G00 F3000 Z3.000
G00 F3000 X45.388 Y18.808
G00 F1500 Z0
G01 F60 Z-2.000
G00 F3000 Z3.000
G00 F3000 X30.148 Y-16.752
G00 F1500 Z0
G01 F60 Z-2.000
G00 F3000 Z3.000
G00 F3000 X35.228 Y-16.752
G00 F1500 Z0
G01 F60 Z-2.000
G00 F3000 Z3.000
G00 F3000 X45.388 Y-1.512
G00 F1500 Z0
G01 F60 Z-2.000
G00 F3000 Z3.000
G00 F3000 X42.848 Y18.808
G00 F1500 Z0
G01 F60 Z-2.000
G00 F3000 Z3.000
G00 F3000 X40.308 Y31.508
G00 F1500 Z0
G01 F60 Z-2.000
G00 F3000 Z3.000
G00 F3000 X-24.716 Y-16.752
G00 F1500 Z0
G01 F60 Z-2.000
G00 F3000 Z3.000
G00 F3000 X42.848 Y-1.512
G00 F1500 Z0
G01 F60 Z-2.000
G00 F3000 Z3.000
G00 F3000 X45.388 Y11.188
G00 F1500 Z0
G01 F60 Z-2.000
G00 F3000 Z3.000
G00 F3000 X37.768 Y31.508
G00 F1500 Z0
G01 F60 Z-2.000
G00 F3000 Z3.000
G00 F3000 X32.688 Y31.508
G00 F1500 Z0
G01 F60 Z-2.000
G00 F3000 Z3.000
G00 F3000 X-22.176 Y-16.752
G00 F1500 Z0
G01 F60 Z-2.000
G00 F3000 Z3.000
G00 F3000 X-27.256 Y-16.752
G00 F1500 Z0
G01 F60 Z-2.000
G00 F3000 Z3.000
G00 F3000 X-32.336 Y-16.752
G00 F1500 Z0
G01 F60 Z-2.000
G00 F3000 Z3.000
G00 F3000 X45.388 Y-9.132
G00 F1500 Z0
G01 F60 Z-2.000
G00 F3000 Z3.000
G00 F3000 X42.848 Y11.188
G00 F1500 Z0
G01 F60 Z-2.000
G00 F3000 Z3.000
G00 F3000 X35.228 Y31.508
G00 F1500 Z0
G01 F60 Z-2.000
G00 F3000 Z3.000
G00 F3000 X30.148 Y31.508
G00 F1500 Z0
G01 F60 Z-2.000
G00 F3000 Z3.000
G00 F3000 X19.988 Y-16.752
G00 F1500 Z0
G01 F60 Z-2.000
G00 F3000 Z3.000
G00 F3000 X25.068 Y-16.752
G00 F1500 Z0
G01 F60 Z-2.000
G00 F3000 Z3.000
G00 F3000 X-29.796 Y-16.752
G00 F1500 Z0
G01 F60 Z-2.000
G00 F3000 Z3.000
G00 F3000 X42.848 Y-9.132
G00 F1500 Z0
G01 F60 Z-2.000
G00 F3000 Z3.000
G00 F3000 X45.388 Y-6.592
G00 F1500 Z0
G01 F60 Z-2.000
G00 F3000 Z3.000
G00 F3000 X45.388 Y26.428
G00 F1500 Z0
G01 F60 Z-2.000
G00 F3000 Z3.000
G00 F3000 X7.288 Y-16.752
G00 F1500 Z0
G01 F60 Z-2.000
G00 F3000 Z3.000
G00 F3000 X12.368 Y-16.752
G00 F1500 Z0
G01 F60 Z-2.000
G00 F3000 Z3.000
G00 F3000 X17.448 Y-16.752
G00 F1500 Z0
G01 F60 Z-2.000
G00 F3000 Z3.000
G00 F3000 X22.528 Y-16.752
G00 F1500 Z0
G01 F60 Z-2.000
G00 F3000 Z3.000
G00 F3000 X27.608 Y-16.752
G00 F1500 Z0
G01 F60 Z-2.000
G00 F3000 Z3.000
G00 F3000 X42.848 Y-6.592
G00 F1500 Z0
G01 F60 Z-2.000
G00 F3000 Z3.000
G00 F3000 X45.388 Y6.108
G00 F1500 Z0
G01 F60 Z-2.000
G00 F3000 Z3.000
G00 F3000 X9.828 Y-16.752
G00 F1500 Z0
G01 F60 Z-2.000
G00 F3000 Z3.000
G00 F3000 X42.848 Y26.428
G00 F1500 Z0
G01 F60 Z-2.000
G00 F3000 Z3.000
G00 F3000 X4.748 Y-16.752
G00 F1500 Z0
G01 F60 Z-2.000
G00 F3000 Z3.000
G00 F3000 X45.388 Y-14.212
G00 F1500 Z0
G01 F60 Z-2.000
G00 F3000 Z3.000
G00 F3000 X14.908 Y31.508
G00 F1500 Z0
G01 F60 Z-2.000
G00 F3000 Z3.000
G00 F3000 X25.068 Y31.508
G00 F1500 Z0
G01 F60 Z-2.000
G00 F3000 Z3.000
G00 F3000 X42.848 Y6.108
G00 F1500 Z0
G01 F60 Z-2.000
G00 F3000 Z3.000
G00 F3000 X22.528 Y31.508
G00 F1500 Z0
G01 F60 Z-2.000
G00 F3000 Z3.000
G00 F3000 X42.848 Y-14.212
G00 F1500 Z0
G01 F60 Z-2.000
G00 F3000 Z3.000
G00 F3000 X17.448 Y31.508
G00 F1500 Z0
G01 F60 Z-2.000
G00 F3000 Z3.000
G00 F3000 X12.368 Y31.508
G00 F1500 Z0
G01 F60 Z-2.000
G00 F3000 Z3.000
G00 F3000 X7.288 Y31.508
G00 F1500 Z0
G01 F60 Z-2.000
G00 F3000 Z3.000
G00 F3000 X27.608 Y31.508
G00 F1500 Z0
G01 F60 Z-2.000
G00 F3000 Z3.000
G00 F3000 X45.388 Y21.348
G00 F1500 Z0
G01 F60 Z-2.000
G00 F3000 Z3.000
G00 F3000 X9.828 Y31.508
G00 F1500 Z0
G01 F60 Z-2.000
G00 F3000 Z3.000
G00 F3000 X4.748 Y31.508
G00 F1500 Z0
G01 F60 Z-2.000
G00 F3000 Z3.000
G00 F3000 X-0.332 Y-16.752
G00 F1500 Z0
G01 F60 Z-2.000
G00 F3000 Z3.000
G00 F3000 X-5.412 Y-16.752
G00 F1500 Z0
G01 F60 Z-2.000
G00 F3000 Z3.000
G00 F3000 X45.388 Y1.028
G00 F1500 Z0
G01 F60 Z-2.000
G00 F3000 Z3.000
G00 F3000 X42.848 Y21.348
G00 F1500 Z0
G01 F60 Z-2.000
G00 F3000 Z3.000
G00 F3000 X-2.872 Y-16.752
G00 F1500 Z0
G01 F60 Z-2.000
G00 F3000 Z3.000
G00 F3000 X2.208 Y-16.752
G00 F1500 Z0
G01 F60 Z-2.000
G00 F3000 Z3.000
G00 F3000 X42.848 Y1.028
G00 F1500 Z0
G01 F60 Z-2.000
G00 F3000 Z3.000
G00 F3000 X45.388 Y13.728
G00 F1500 Z0
G01 F60 Z-2.000
G00 F3000 Z3.000
G00 F3000 X42.848 Y13.728
G00 F1500 Z0
G01 F60 Z-2.000
G00 F3000 Z3.000
G00 F3000 X-10.492 Y31.508
G00 F1500 Z0
G01 F60 Z-2.000
G00 F3000 Z3.000
G00 F3000 X-5.412 Y31.508
G00 F1500 Z0
G01 F60 Z-2.000
G00 F3000 Z3.000
G00 F3000 X-0.332 Y31.508
G00 F1500 Z0
G01 F60 Z-2.000
G00 F3000 Z3.000
G00 F3000 X45.388 Y-4.052
G00 F1500 Z0
G01 F60 Z-2.000
G00 F3000 Z3.000
G00 F3000 X-7.952 Y31.508
G00 F1500 Z0
G01 F60 Z-2.000
G00 F3000 Z3.000
G00 F3000 X-13.032 Y31.508
G00 F1500 Z0
G01 F60 Z-2.000
G00 F3000 Z3.000
G00 F3000 X-18.112 Y31.508
G00 F1500 Z0
G01 F60 Z-2.000
G00 F3000 Z3.000
G00 F3000 X2.208 Y31.508
G00 F1500 Z0
G01 F60 Z-2.000
G00 F3000 Z3.000
G00 F3000 X42.848 Y-4.052
G00 F1500 Z0
G01 F60 Z-2.000
G00 F3000 Z3.000
G00 F3000 X45.388 Y8.648
G00 F1500 Z0
G01 F60 Z-2.000
G00 F3000 Z3.000
G00 F3000 X-20.652 Y31.508
G00 F1500 Z0
G01 F60 Z-2.000
G00 F3000 Z3.000
G00 F3000 X-15.572 Y31.508
G00 F1500 Z0
G01 F60 Z-2.000
G00 F3000 Z3.000
G00 F3000 X45.388 Y-11.672
G00 F1500 Z0
G01 F60 Z-2.000
G00 F3000 Z3.000
G00 F3000 X42.848 Y8.648
G00 F1500 Z0
G01 F60 Z-2.000
G00 F3000 Z3.000
G00 F3000 X42.848 Y-11.672
G00 F1500 Z0
G01 F60 Z-2.000
G00 F3000 Z3.000
G00 F3000 X45.388 Y23.888
G00 F1500 Z0
G01 F60 Z-2.000
G00 F3000 Z3.000
G00 F3000 X45.388 Y3.568
G00 F1500 Z0
G01 F60 Z-2.000
G00 F3000 Z3.000
G00 F3000 X-12.016 Y-16.752
G00 F1500 Z0
G01 F60 Z-2.000
G00 F3000 Z3.000
G00 F3000 X-17.096 Y-16.752
G00 F1500 Z0
G01 F60 Z-2.000
G00 F3000 Z3.000
G00 F3000 X42.848 Y23.888
G00 F1500 Z0
G01 F60 Z-2.000
G00 F3000 Z3.000
G00 F3000 X37.768 Y-6.592
G00 F1500 Z0
G01 F60 Z-2.000
G00 F3000 Z3.000
G00 F3000 X7.288 Y8.648
G00 F1500 Z0
G01 F60 Z-2.000
G00 F3000 Z3.000
G00 F3000 X27.608 Y21.348
G00 F1500 Z0
G01 F60 Z-2.000
G00 F3000 Z3.000
G00 F3000 X32.688 Y-4.052
G00 F1500 Z0
G01 F60 Z-2.000
G00 F3000 Z3.000
G00 F3000 X-38.432 Y8.648
G00 F1500 Z0
G01 F60 Z-2.000
G00 F3000 Z3.000
G00 F3000 X-16.692 Y28.389
G00 F1500 Z0
G01 F60 Z-2.000
G00 F3000 Z3.000
G00 F3000 X37.768 Y13.728
G00 F1500 Z0
G01 F60 Z-2.000
G00 F3000 Z3.000
G00 F3000 X40.308 Y-14.212
G00 F1500 Z0
G01 F60 Z-2.000
G00 F3000 Z3.000
G00 F3000 X-38.432 Y18.808
G00 F1500 Z0
G01 F60 Z-2.000
G00 F3000 Z3.000
G00 F3000 X-23.192 Y23.888
G00 F1500 Z0
G01 F60 Z-2.000
G00 F3000 Z3.000
G00 F3000 X-40.972 Y11.188
G00 F1500 Z0
G01 F60 Z-2.000
G00 F3000 Z3.000
G00 F3000 X-28.272 Y8.648
G00 F1500 Z0
G01 F60 Z-2.000
G00 F3000 Z3.000
G00 F3000 X17.448 Y1.028
G00 F1500 Z0
G01 F60 Z-2.000
G00 F3000 Z3.000
G00 F3000 X27.608 Y16.268
G00 F1500 Z0
G01 F60 Z-2.000
G00 F3000 Z3.000
G00 F3000 X-40.972 Y3.568
G00 F1500 Z0
G01 F60 Z-2.000
G00 F3000 Z3.000
G00 F3000 X39.188 Y3.568
G00 F1500 Z0
G01 F60 Z-2.000
G00 F3000 Z3.000
G00 F3000 X32.688 Y8.069
G00 F1500 Z0
G01 F60 Z-2.000
G00 F3000 Z3.000
G00 F3000 X12.368 Y3.568
G00 F1500 Z0
G01 F60 Z-2.000
G00 F3000 Z3.000
G00 F3000 X-28.272 Y1.028
G00 F1500 Z0
G01 F60 Z-2.000
G00 F3000 Z3.000
G00 F3000 X39.188 Y-4.052
G00 F1500 Z0
G01 F60 Z-2.000
G00 F3000 Z3.000
G00 F3000 X32.688 Y0.449
G00 F1500 Z0
G01 F60 Z-2.000
G00 F3000 Z3.000
G00 F3000 X27.608 Y18.808
G00 F1500 Z0
G01 F60 Z-2.000
G00 F3000 Z3.000
G00 F3000 X-33.352 Y3.568
G00 F1500 Z0
G01 F60 Z-2.000
G00 F3000 Z3.000
G00 F3000 X-15.572 Y11.188
G00 F1500 Z0
G01 F60 Z-2.000
G00 F3000 Z3.000
G00 F3000 X-5.412 Y8.648
G00 F1500 Z0
G01 F60 Z-2.000
G00 F3000 Z3.000
G00 F3000 X30.148 Y-14.212
G00 F1500 Z0
G01 F60 Z-2.000
G00 F3000 Z3.000
G00 F3000 X-23.192 Y28.389
G00 F1500 Z0
G01 F60 Z-2.000
G00 F3000 Z3.000
G00 F3000 X47.928 Y-19.292
G00 F1500 Z0
G01 F60 Z-2.000
G00 F3000 Z3.000
G00 F3000 X37.768 Y11.188
G00 F1500 Z0
G01 F60 Z-2.000
G00 F3000 Z3.000
G00 F3000 X12.368 Y16.268
G00 F1500 Z0
G01 F60 Z-2.000
G00 F3000 Z3.000
G00 F3000 X30.148 Y-4.052
G00 F1500 Z0
G01 F60 Z-2.000
G00 F3000 Z3.000
G00 F3000 X37.768 Y21.348
G00 F1500 Z0
G01 F60 Z-2.000
G00 F3000 Z3.000
G00 F3000 X40.308 Y-6.592
G00 F1500 Z0
G01 F60 Z-2.000
G00 F3000 Z3.000
G00 F3000 X17.448 Y6.108
G00 F1500 Z0
G01 F60 Z-2.000
G00 F3000 Z3.000
G00 F3000 X-5.412 Y1.028
G00 F1500 Z0
G01 F60 Z-2.000
G00 F3000 Z3.000
G00 F3000 X-35.892 Y16.268
G00 F1500 Z0
G01 F60 Z-2.000
G00 F3000 Z3.000
G00 F3000 X39.188 Y8.069
G00 F1500 Z0
G01 F60 Z-2.000
G00 F3000 Z3.000
G00 F3000 X-46.052 Y11.188
G00 F1500 Z0
G01 F60 Z-2.000
G00 F3000 Z3.000
G00 F3000 X27.608 Y13.728
G00 F1500 Z0
G01 F60 Z-2.000
G00 F3000 Z3.000
G00 F3000 X-13.032 Y13.728
G00 F1500 Z0
G01 F60 Z-2.000
G00 F3000 Z3.000
G00 F3000 X7.288 Y11.188
G00 F1500 Z0
G01 F60 Z-2.000
G00 F3000 Z3.000
G00 F3000 X39.188 Y0.449
G00 F1500 Z0
G01 F60 Z-2.000
G00 F3000 Z3.000
G00 F3000 X37.768 Y16.268
G00 F1500 Z0
G01 F60 Z-2.000
G00 F3000 Z3.000
G00 F3000 X-16.692 Y23.888
G00 F1500 Z0
G01 F60 Z-2.000
G00 F3000 Z3.000
G00 F3000 X-15.572 Y8.648
G00 F1500 Z0
G01 F60 Z-2.000
G00 F3000 Z3.000
G00 F3000 X47.928 Y-4.052
G00 F1500 Z0
G01 F60 Z-2.000
G00 F3000 Z3.000
G00 F3000 X-20.652 Y11.188
G00 F1500 Z0
G01 F60 Z-2.000
G00 F3000 Z3.000
G00 F3000 X37.768 Y18.808
G00 F1500 Z0
G01 F60 Z-2.000
G00 F3000 Z3.000
G00 F3000 X-20.652 Y21.348
G00 F1500 Z0
G01 F60 Z-2.000
G00 F3000 Z3.000
G00 F3000 X-40.972 Y6.108
G00 F1500 Z0
G01 F60 Z-2.000
G00 F3000 Z3.000
G00 F3000 X37.768 Y-16.752
G00 F1500 Z0
G01 F60 Z-2.000
G00 F3000 Z3.000
G00 F3000 X-13.032 Y28.968
G00 F1500 Z0
G01 F60 Z-2.000
G00 F3000 Z3.000
G00 F3000 X-33.352 Y13.728
G00 F1500 Z0
G01 F60 Z-2.000
G00 F3000 Z3.000
G00 F3000 X27.608 Y11.188
G00 F1500 Z0
G01 F60 Z-2.000
G00 F3000 Z3.000
G00 F3000 X32.688 Y3.568
G00 F1500 Z0
G01 F60 Z-2.000
G00 F3000 Z3.000
G00 F3000 X-35.892 Y6.108
G00 F1500 Z0
G01 F60 Z-2.000
G00 F3000 Z3.000
G00 F3000 Z3.000
G00 F3000 X0.000 Y0.000
M05
M30
%