(www.thuijzer.nl/image2gcode)
(2016-12-14 00:12:52)
(bit size: 1mm)
(x size: 30mm)
(max z: 18mm)

G21 (Programming in millimeters)
G90 (Absolute programming)
G92 X0 Y0 Z18 (Tell the machine it is at 0, 0, 18)
G00 X0 Y-0.5 Z18 (Starting position)

G01 X0.526478 Y-0.5 Z0
G01 X29.5203 Y-0.5 Z0
G01 X29.5203 Y-0.526478 Z0
G01 X29.5203 Y-0.552957 Z0
G01 X29.5203 Y-0.579435 Z0
G01 X29.5203 Y-0.605914 Z0
G01 X29.5203 Y-0.632392 Z0
G01 X29.5203 Y-0.65887 Z0
G01 X29.5203 Y-0.685349 Z0
G01 X29.5203 Y-0.711827 Z0
G01 X29.5203 Y-0.738305 Z0
G01 X29.5203 Y-0.764784 Z0
G01 X29.5203 Y-0.791262 Z0
G01 X29.5203 Y-0.817741 Z0
G01 X29.5203 Y-0.844219 Z0
G01 X29.5203 Y-0.870697 Z0
G01 X29.5203 Y-0.897176 Z0
G01 X29.5203 Y-0.923654 Z0
G01 X29.5203 Y-0.950132 Z0
G01 X29.5203 Y-0.976611 Z0
G01 X29.5203 Y-1.003089 Z0
G01 X0.5 Y-1.003089 Z0
G01 X0.5 Y-1.029568 Z0
G01 X0.5 Y-1.056046 Z0
G01 X0.5 Y-1.082524 Z0
G01 X0.5 Y-1.109003 Z0
G01 X0.5 Y-1.135481 Z0
G01 X0.5 Y-1.161959 Z0
G01 X0.5 Y-1.188438 Z0
G01 X0.5 Y-1.214916 Z0
G01 X0.5 Y-1.241395 Z0
G01 X0.5 Y-1.267873 Z0
G01 X0.5 Y-1.294351 Z0
G01 X0.5 Y-1.32083 Z0
G01 X0.5 Y-1.347308 Z0
G01 X0.5 Y-1.373786 Z0
G01 X0.5 Y-1.400265 Z0
G01 X0.5 Y-1.426743 Z0
G01 X0.5 Y-1.453222 Z0
G01 X0.5 Y-1.4797 Z0
G01 X0.5 Y-1.506178 Z0
G01 X29.5203 Y-1.506178 Z0
G01 X29.5203 Y-1.532657 Z0
G01 X29.5203 Y-1.559135 Z0
G01 X29.5203 Y-1.585613 Z0
G01 X29.5203 Y-1.612092 Z0
G01 X29.5203 Y-1.63857 Z0
G01 X29.5203 Y-1.665049 Z0
G01 X29.5203 Y-1.691527 Z0
G01 X29.5203 Y-1.718005 Z0
G01 X29.5203 Y-1.744484 Z0
G01 X29.5203 Y-1.770962 Z0
G01 X29.5203 Y-1.79744 Z0
G01 X29.5203 Y-1.823919 Z0
G01 X29.5203 Y-1.850397 Z0
G01 X29.5203 Y-1.876876 Z0
G01 X29.5203 Y-1.903354 Z0
G01 X29.5203 Y-1.929832 Z0
G01 X29.5203 Y-1.956311 Z0
G01 X29.5203 Y-1.982789 Z0
G01 X29.5203 Y-2.009267 Z0
G01 X0.5 Y-2.009267 Z0
G01 X0.5 Y-2.035746 Z0
G01 X0.5 Y-2.062224 Z0
G01 X0.5 Y-2.088703 Z0
G01 X0.5 Y-2.115181 Z0
G01 X0.5 Y-2.141659 Z0
G01 X0.5 Y-2.168138 Z0
G01 X0.5 Y-2.194616 Z0
G01 X0.5 Y-2.221094 Z0
G01 X0.5 Y-2.247573 Z0
G01 X0.5 Y-2.274051 Z0
G01 X0.5 Y-2.30053 Z0
G01 X0.5 Y-2.327008 Z0
G01 X0.5 Y-2.353486 Z0
G01 X0.5 Y-2.379965 Z0
G01 X0.5 Y-2.406443 Z0
G01 X0.5 Y-2.432921 Z0
G01 X0.5 Y-2.4594 Z0
G01 X0.5 Y-2.485878 Z0
G01 X0.5 Y-2.512357 Z0
G01 X29.5203 Y-2.512357 Z0
G01 X29.5203 Y-2.538835 Z0
G01 X29.5203 Y-2.565313 Z0
G01 X29.5203 Y-2.591792 Z0
G01 X29.5203 Y-2.61827 Z0
G01 X29.5203 Y-2.644748 Z0
G01 X29.5203 Y-2.671227 Z0
G01 X29.5203 Y-2.697705 Z0
G01 X29.5203 Y-2.724184 Z0
G01 X29.5203 Y-2.750662 Z0
G01 X29.5203 Y-2.77714 Z0
G01 X29.5203 Y-2.803619 Z0
G01 X29.5203 Y-2.830097 Z0
G01 X29.5203 Y-2.856575 Z0
G01 X29.5203 Y-2.883054 Z0
G01 X29.5203 Y-2.909532 Z0
G01 X29.5203 Y-2.936011 Z0
G01 X29.5203 Y-2.962489 Z0
G01 X29.5203 Y-2.988967 Z0
G01 X29.5203 Y-3.015446 Z0
G01 X0.5 Y-3.015446 Z0
G01 X0.5 Y-3.041924 Z0
G01 X0.5 Y-3.068402 Z0
G01 X0.5 Y-3.094881 Z0
G01 X0.5 Y-3.121359 Z0
G01 X0.5 Y-3.147838 Z0
G01 X0.5 Y-3.174316 Z0
G01 X0.5 Y-3.200794 Z0
G01 X0.5 Y-3.227273 Z0
G01 X0.5 Y-3.253751 Z0
G01 X0.5 Y-3.280229 Z0
G01 X0.5 Y-3.306708 Z0
G01 X0.5 Y-3.333186 Z0
G01 X0.5 Y-3.359665 Z0
G01 X0.5 Y-3.386143 Z0
G01 X0.5 Y-3.412621 Z0
G01 X0.5 Y-3.4391 Z0
G01 X0.5 Y-3.465578 Z0
G01 X0.5 Y-3.492056 Z0
G01 X0.5 Y-3.518535 Z0
G01 X29.5203 Y-3.518535 Z0
G01 X29.5203 Y-3.545013 Z0
G01 X29.5203 Y-3.571492 Z0
G01 X29.5203 Y-3.59797 Z0
G01 X29.5203 Y-3.624448 Z0
G01 X29.5203 Y-3.650927 Z0
G01 X29.5203 Y-3.677405 Z0
G01 X29.5203 Y-3.703883 Z0
G01 X29.5203 Y-3.730362 Z0
G01 X29.5203 Y-3.75684 Z0
G01 X29.5203 Y-3.783319 Z0
G01 X29.5203 Y-3.809797 Z0
G01 X29.5203 Y-3.836275 Z0
G01 X29.5203 Y-3.862754 Z0
G01 X29.5203 Y-3.889232 Z0
G01 X29.5203 Y-3.915711 Z0
G01 X29.5203 Y-3.942189 Z0
G01 X29.5203 Y-3.968667 Z0
G01 X29.5203 Y-3.995146 Z0
G01 X29.5203 Y-4.021624 Z0
G01 X0.5 Y-4.021624 Z0
G01 X0.5 Y-4.048102 Z0
G01 X0.5 Y-4.074581 Z0
G01 X0.5 Y-4.101059 Z0
G01 X0.5 Y-4.127538 Z0
G01 X0.5 Y-4.154016 Z0
G01 X0.5 Y-4.180494 Z0
G01 X0.5 Y-4.206973 Z0
G01 X0.5 Y-4.233451 Z0
G01 X0.5 Y-4.259929 Z0
G01 X0.5 Y-4.286408 Z0
G01 X0.5 Y-4.312886 Z0
G01 X0.5 Y-4.339365 Z0
G01 X0.5 Y-4.365843 Z0
G01 X0.5 Y-4.392321 Z0
G01 X0.5 Y-4.4188 Z0
G01 X0.5 Y-4.445278 Z0
G01 X0.5 Y-4.471756 Z0
G01 X0.5 Y-4.498235 Z0
G01 X0.5 Y-4.524713 Z0
G01 X29.5203 Y-4.524713 Z0
G01 X29.5203 Y-4.551192 Z0
G01 X29.5203 Y-4.57767 Z0
G01 X29.5203 Y-4.604148 Z0
G01 X29.5203 Y-4.630627 Z0
G01 X29.5203 Y-4.657105 Z0
G01 X29.5203 Y-4.683583 Z0
G01 X29.5203 Y-4.710062 Z0
G01 X29.5203 Y-4.73654 Z0
G01 X29.5203 Y-4.763019 Z0
G01 X29.5203 Y-4.789497 Z0
G01 X29.5203 Y-4.815975 Z0
G01 X29.5203 Y-4.842454 Z0
G01 X29.5203 Y-4.868932 Z0
G01 X29.5203 Y-4.89541 Z0
G01 X29.5203 Y-4.921889 Z0
G01 X29.5203 Y-4.948367 Z0
G01 X29.5203 Y-4.974846 Z0
G01 X29.5203 Y-5.001324 Z0
G01 X29.5203 Y-5.027802 Z0
G01 X0.5 Y-5.027802 Z0
G01 X0.5 Y-5.054281 Z0
G01 X0.5 Y-5.080759 Z0
G01 X0.5 Y-5.107237 Z0
G01 X0.5 Y-5.133716 Z0
G01 X0.5 Y-5.160194 Z0
G01 X0.5 Y-5.186673 Z0
G01 X0.5 Y-5.213151 Z0
G01 X0.5 Y-5.239629 Z0
G01 X0.5 Y-5.266108 Z0
G01 X0.5 Y-5.292586 Z0
G01 X0.5 Y-5.319064 Z0
G01 X0.5 Y-5.345543 Z0
G01 X0.5 Y-5.372021 Z0
G01 X0.5 Y-5.3985 Z0
G01 X0.5 Y-5.424978 Z0
G01 X0.5 Y-5.451456 Z0
G01 X0.5 Y-5.477935 Z0
G01 X0.5 Y-5.504413 Z0
G01 X0.5 Y-5.530891 Z0
G01 X29.5203 Y-5.530891 Z0
G01 X29.5203 Y-5.55737 Z0
G01 X29.5203 Y-5.583848 Z0
G01 X29.5203 Y-5.610327 Z0
G01 X29.5203 Y-5.636805 Z0
G01 X29.5203 Y-5.663283 Z0
G01 X29.5203 Y-5.689762 Z0
G01 X29.5203 Y-5.71624 Z0
G01 X29.5203 Y-5.742718 Z0
G01 X29.5203 Y-5.769197 Z0
G01 X29.5203 Y-5.795675 Z0
G01 X29.5203 Y-5.822154 Z0
G01 X29.5203 Y-5.848632 Z0
G01 X29.5203 Y-5.87511 Z0
G01 X29.5203 Y-5.901589 Z0
G01 X29.5203 Y-5.928067 Z0
G01 X29.5203 Y-5.954545 Z0
G01 X29.5203 Y-5.981024 Z0
G01 X29.5203 Y-6.007502 Z0
G01 X29.5203 Y-6.033981 Z0
G01 X0.5 Y-6.033981 Z0
G01 X0.5 Y-6.060459 Z0
G01 X0.5 Y-6.086937 Z0
G01 X0.5 Y-6.113416 Z0
G01 X0.5 Y-6.139894 Z0
G01 X0.5 Y-6.166372 Z0
G01 X0.5 Y-6.192851 Z0
G01 X0.5 Y-6.219329 Z0
G01 X0.5 Y-6.245808 Z0
G01 X0.5 Y-6.272286 Z0
G01 X0.5 Y-6.298764 Z0
G01 X0.5 Y-6.325243 Z0
G01 X0.5 Y-6.351721 Z0
G01 X0.5 Y-6.378199 Z0
G01 X0.5 Y-6.404678 Z0
G01 X0.5 Y-6.431156 Z0
G01 X0.5 Y-6.457635 Z0
G01 X0.5 Y-6.484113 Z0
G01 X0.5 Y-6.510591 Z0
G01 X0.5 Y-6.53707 Z0
G01 X29.5203 Y-6.53707 Z0
G01 X29.5203 Y-6.563548 Z0
G01 X29.5203 Y-6.590026 Z0
G01 X29.5203 Y-6.616505 Z0
G01 X29.5203 Y-6.642983 Z0
G01 X29.5203 Y-6.669462 Z0
G01 X29.5203 Y-6.69594 Z0
G01 X29.5203 Y-6.722418 Z0
G01 X29.5203 Y-6.748897 Z0
G01 X29.5203 Y-6.775375 Z0
G01 X29.5203 Y-6.801853 Z0
G01 X29.5203 Y-6.828332 Z0
G01 X29.5203 Y-6.85481 Z0
G01 X29.5203 Y-6.881289 Z0
G01 X29.5203 Y-6.907767 Z0
G01 X29.5203 Y-6.934245 Z0
G01 X29.5203 Y-6.960724 Z0
G01 X29.5203 Y-6.987202 Z0
G01 X29.5203 Y-7.01368 Z0
G01 X29.5203 Y-7.040159 Z0
G01 X0.5 Y-7.040159 Z0
G01 X0.5 Y-7.066637 Z0
G01 X0.5 Y-7.093116 Z0
G01 X0.5 Y-7.119594 Z0
G01 X0.5 Y-7.146072 Z0
G01 X0.5 Y-7.172551 Z0
G01 X0.5 Y-7.199029 Z0
G01 X0.5 Y-7.225508 Z0
G01 X0.5 Y-7.251986 Z0
G01 X0.5 Y-7.278464 Z0
G01 X0.5 Y-7.304943 Z0
G01 X0.5 Y-7.331421 Z0
G01 X0.5 Y-7.357899 Z0
G01 X0.5 Y-7.384378 Z0
G01 X0.5 Y-7.410856 Z0
G01 X0.5 Y-7.437335 Z0
G01 X0.5 Y-7.463813 Z0
G01 X0.5 Y-7.490291 Z0
G01 X0.5 Y-7.51677 Z0
G01 X0.5 Y-7.543248 Z0
G01 X29.5203 Y-7.543248 Z0
G01 X29.5203 Y-7.569726 Z0
G01 X29.5203 Y-7.596205 Z0
G01 X29.5203 Y-7.622683 Z0
G01 X29.5203 Y-7.649162 Z0
G01 X29.5203 Y-7.67564 Z0
G01 X29.5203 Y-7.702118 Z0
G01 X29.5203 Y-7.728597 Z0
G01 X29.5203 Y-7.755075 Z0
G01 X29.5203 Y-7.781553 Z0
G01 X29.5203 Y-7.808032 Z0
G01 X29.5203 Y-7.83451 Z0
G01 X29.5203 Y-7.860989 Z0
G01 X29.5203 Y-7.887467 Z0
G01 X29.5203 Y-7.913945 Z0
G01 X29.5203 Y-7.940424 Z0
G01 X29.5203 Y-7.966902 Z0
G01 X29.5203 Y-7.99338 Z0
G01 X29.5203 Y-8.019859 Z0
G01 X29.5203 Y-8.046337 Z0
G01 X0.5 Y-8.046337 Z0
G01 X0.5 Y-8.072816 Z0
G01 X0.5 Y-8.099294 Z0
G01 X0.5 Y-8.125772 Z0
G01 X0.5 Y-8.152251 Z0
G01 X0.5 Y-8.178729 Z0
G01 X0.5 Y-8.205207 Z0
G01 X0.5 Y-8.231686 Z0
G01 X0.5 Y-8.258164 Z0
G01 X0.5 Y-8.284643 Z0
G01 X0.5 Y-8.311121 Z0
G01 X0.5 Y-8.337599 Z0
G01 X0.5 Y-8.364078 Z0
G01 X0.5 Y-8.390556 Z0
G01 X0.5 Y-8.417034 Z0
G01 X0.5 Y-8.443513 Z0
G01 X0.5 Y-8.469991 Z0
G01 X0.5 Y-8.49647 Z0
G01 X0.5 Y-8.522948 Z0
G01 X0.5 Y-8.549426 Z0
G01 X29.5203 Y-8.549426 Z0
G01 X29.5203 Y-8.575905 Z0
G01 X29.5203 Y-8.602383 Z0
G01 X29.5203 Y-8.628861 Z0
G01 X29.5203 Y-8.65534 Z0
G01 X29.5203 Y-8.681818 Z0
G01 X29.5203 Y-8.708297 Z0
G01 X29.5203 Y-8.734775 Z0
G01 X29.5203 Y-8.761253 Z0
G01 X29.5203 Y-8.787732 Z0
G01 X29.5203 Y-8.81421 Z0
G01 X29.5203 Y-8.840688 Z0
G01 X29.5203 Y-8.867167 Z0
G01 X29.5203 Y-8.893645 Z0
G01 X29.5203 Y-8.920124 Z0
G01 X29.5203 Y-8.946602 Z0
G01 X29.5203 Y-8.97308 Z0
G01 X29.5203 Y-8.999559 Z0
G01 X29.5203 Y-9.026037 Z0
G01 X29.5203 Y-9.052515 Z0
G01 X0.5 Y-9.052515 Z0
G01 X0.5 Y-9.078994 Z0
G01 X0.5 Y-9.105472 Z0
G01 X0.5 Y-9.131951 Z0
G01 X0.5 Y-9.158429 Z0
G01 X0.5 Y-9.184907 Z0
G01 X0.5 Y-9.211386 Z0
G01 X0.5 Y-9.237864 Z0
G01 X0.5 Y-9.264342 Z0
G01 X0.5 Y-9.290821 Z0
G01 X0.5 Y-9.317299 Z0
G01 X0.5 Y-9.343778 Z0
G01 X0.5 Y-9.370256 Z0
G01 X0.5 Y-9.396734 Z0
G01 X0.5 Y-9.423213 Z0
G01 X0.5 Y-9.449691 Z0
G01 X0.5 Y-9.476169 Z0
G01 X0.5 Y-9.502648 Z0
G01 X0.5 Y-9.529126 Z0
G01 X0.5 Y-9.555605 Z0
G01 X29.5203 Y-9.555605 Z0
G01 X29.5203 Y-9.582083 Z0
G01 X29.5203 Y-9.608561 Z0
G01 X29.5203 Y-9.63504 Z0
G01 X29.5203 Y-9.661518 Z0
G01 X29.5203 Y-9.687996 Z0
G01 X29.5203 Y-9.714475 Z0
G01 X29.5203 Y-9.740953 Z0
G01 X29.5203 Y-9.767432 Z0
G01 X29.5203 Y-9.79391 Z0
G01 X29.5203 Y-9.820388 Z0
G01 X29.5203 Y-9.846867 Z0
G01 X29.5203 Y-9.873345 Z0
G01 X29.5203 Y-9.899823 Z0
G01 X29.5203 Y-9.926302 Z0
G01 X29.5203 Y-9.95278 Z0
G01 X29.5203 Y-9.979259 Z0
G01 X29.5203 Y-10.005737 Z0
G01 X29.5203 Y-10.032215 Z0
G01 X29.5203 Y-10.058694 Z0
G01 X0.5 Y-10.058694 Z0
G01 X0.5 Y-10.085172 Z0
G01 X0.5 Y-10.11165 Z0
G01 X0.5 Y-10.138129 Z0
G01 X0.5 Y-10.164607 Z0
G01 X0.5 Y-10.191086 Z0
G01 X0.5 Y-10.217564 Z0
G01 X0.5 Y-10.244042 Z0
G01 X0.5 Y-10.270521 Z0
G01 X0.5 Y-10.296999 Z0
G01 X0.5 Y-10.323477 Z0
G01 X0.5 Y-10.349956 Z0
G01 X0.5 Y-10.376434 Z0
G01 X0.5 Y-10.402913 Z0
G01 X0.5 Y-10.429391 Z0
G01 X0.5 Y-10.455869 Z0
G01 X0.5 Y-10.482348 Z0
G01 X0.5 Y-10.508826 Z0
G01 X0.5 Y-10.535305 Z0
G01 X0.5 Y-10.561783 Z0
G01 X29.5203 Y-10.561783 Z0
G01 X29.5203 Y-10.588261 Z0
G01 X29.5203 Y-10.61474 Z0
G01 X29.5203 Y-10.641218 Z0
G01 X29.5203 Y-10.667696 Z0
G01 X29.5203 Y-10.694175 Z0
G01 X29.5203 Y-10.720653 Z0
G01 X29.5203 Y-10.747132 Z0
G01 X29.5203 Y-10.77361 Z0
G01 X29.5203 Y-10.800088 Z0
G01 X29.5203 Y-10.826567 Z0
G01 X29.5203 Y-10.853045 Z0
G01 X29.5203 Y-10.879523 Z0
G01 X29.5203 Y-10.906002 Z0
G01 X29.5203 Y-10.93248 Z0
G01 X29.5203 Y-10.958959 Z0
G01 X29.5203 Y-10.985437 Z0
G01 X29.5203 Y-11.011915 Z0
G01 X29.5203 Y-11.038394 Z0
G01 X29.5203 Y-11.064872 Z0
G01 X0.5 Y-11.064872 Z0
G01 X0.5 Y-11.09135 Z0
G01 X0.5 Y-11.117829 Z0
G01 X0.5 Y-11.144307 Z0
G01 X0.5 Y-11.170786 Z0
G01 X0.5 Y-11.197264 Z0
G01 X0.5 Y-11.223742 Z0
G01 X0.5 Y-11.250221 Z0
G01 X0.5 Y-11.276699 Z0
G01 X0.5 Y-11.303177 Z0
G01 X0.5 Y-11.329656 Z0
G01 X0.5 Y-11.356134 Z0
G01 X0.5 Y-11.382613 Z0
G01 X0.5 Y-11.409091 Z0
G01 X0.5 Y-11.435569 Z0
G01 X0.5 Y-11.462048 Z0
G01 X0.5 Y-11.488526 Z0
G01 X0.5 Y-11.515004 Z0
G01 X0.5 Y-11.541483 Z0
G01 X0.5 Y-11.567961 Z0
G01 X29.5203 Y-11.567961 Z0
G01 X29.5203 Y-11.59444 Z0
G01 X29.5203 Y-11.620918 Z0
G01 X29.5203 Y-11.647396 Z0
G01 X29.5203 Y-11.673875 Z0
G01 X29.5203 Y-11.700353 Z0
G01 X29.5203 Y-11.726831 Z0
G01 X29.5203 Y-11.75331 Z0
G01 X29.5203 Y-11.779788 Z0
G01 X29.5203 Y-11.806267 Z0
G01 X29.5203 Y-11.832745 Z0
G01 X29.5203 Y-11.859223 Z0
G01 X29.5203 Y-11.885702 Z0
G01 X29.5203 Y-11.91218 Z0
G01 X29.5203 Y-11.938658 Z0
G01 X29.5203 Y-11.965137 Z0
G01 X29.5203 Y-11.991615 Z0
G01 X29.5203 Y-12.018094 Z0
G01 X29.5203 Y-12.044572 Z0
G01 X29.5203 Y-12.07105 Z0
G01 X0.5 Y-12.07105 Z0
G01 X0.5 Y-12.097529 Z0
G01 X0.5 Y-12.124007 Z0
G01 X0.5 Y-12.150485 Z0
G01 X0.5 Y-12.176964 Z0
G01 X0.5 Y-12.203442 Z0
G01 X0.5 Y-12.229921 Z0
G01 X0.5 Y-12.256399 Z0
G01 X0.5 Y-12.282877 Z0
G01 X0.5 Y-12.309356 Z0
G01 X0.5 Y-12.335834 Z0
G01 X0.5 Y-12.362312 Z0
G01 X0.5 Y-12.388791 Z0
G01 X0.5 Y-12.415269 Z0
G01 X0.5 Y-12.441748 Z0
G01 X0.5 Y-12.468226 Z0
G01 X0.5 Y-12.494704 Z0
G01 X0.5 Y-12.521183 Z0
G01 X0.5 Y-12.547661 Z0
G01 X0.5 Y-12.574139 Z0
G01 X29.5203 Y-12.574139 Z0
G01 X29.5203 Y-12.600618 Z0
G01 X29.5203 Y-12.627096 Z0
G01 X29.5203 Y-12.653575 Z0
G01 X29.5203 Y-12.680053 Z0
G01 X29.5203 Y-12.706531 Z0
G01 X29.5203 Y-12.73301 Z0
G01 X29.5203 Y-12.759488 Z0
G01 X29.5203 Y-12.785966 Z0
G01 X29.5203 Y-12.812445 Z0
G01 X29.5203 Y-12.838923 Z0
G01 X29.5203 Y-12.865402 Z0
G01 X29.5203 Y-12.89188 Z0
G01 X29.5203 Y-12.918358 Z0
G01 X29.5203 Y-12.944837 Z0
G01 X29.5203 Y-12.971315 Z0
G01 X29.5203 Y-12.997793 Z0
G01 X29.5203 Y-13.024272 Z0
G01 X29.5203 Y-13.05075 Z0
G01 X29.5203 Y-13.077229 Z0
G01 X0.5 Y-13.077229 Z0
G01 X0.5 Y-13.103707 Z0
G01 X0.5 Y-13.130185 Z0
G01 X0.5 Y-13.156664 Z0
G01 X0.5 Y-13.183142 Z0
G01 X0.5 Y-13.20962 Z0
G01 X0.5 Y-13.236099 Z0
G01 X0.5 Y-13.262577 Z0
G01 X0.5 Y-13.289056 Z0
G01 X0.5 Y-13.315534 Z0
G01 X0.5 Y-13.342012 Z0
G01 X0.5 Y-13.368491 Z0
G01 X0.5 Y-13.394969 Z0
G01 X0.5 Y-13.421447 Z0
G01 X0.5 Y-13.447926 Z0
G01 X0.5 Y-13.474404 Z0
G01 X0.5 Y-13.500883 Z0
G01 X0.5 Y-13.527361 Z0
G01 X0.5 Y-13.553839 Z0
G01 X0.5 Y-13.580318 Z0
G01 X29.5203 Y-13.580318 Z0
G01 X29.5203 Y-13.606796 Z0
G01 X29.5203 Y-13.633274 Z0
G01 X29.5203 Y-13.659753 Z0
G01 X29.5203 Y-13.686231 Z0
G01 X29.5203 Y-13.71271 Z0
G01 X29.5203 Y-13.739188 Z0
G01 X29.5203 Y-13.765666 Z0
G01 X29.5203 Y-13.792145 Z0
G01 X29.5203 Y-13.818623 Z0
G01 X29.5203 Y-13.845102 Z0
G01 X29.5203 Y-13.87158 Z0
G01 X29.5203 Y-13.898058 Z0
G01 X29.5203 Y-13.924537 Z0
G01 X29.5203 Y-13.951015 Z0
G01 X29.5203 Y-13.977493 Z0
G01 X29.5203 Y-14.003972 Z0
G01 X29.5203 Y-14.03045 Z0
G01 X29.5203 Y-14.056929 Z0
G01 X29.5203 Y-14.083407 Z0
G01 X0.5 Y-14.083407 Z0
G01 X0.5 Y-14.109885 Z0
G01 X0.5 Y-14.136364 Z0
G01 X0.5 Y-14.162842 Z0
G01 X0.5 Y-14.18932 Z0
G01 X0.5 Y-14.215799 Z0
G01 X0.5 Y-14.242277 Z0
G01 X0.5 Y-14.268756 Z0
G01 X0.5 Y-14.295234 Z0
G01 X0.5 Y-14.321712 Z0
G01 X0.5 Y-14.348191 Z0
G01 X0.5 Y-14.374669 Z0
G01 X0.5 Y-14.401147 Z0
G01 X0.5 Y-14.427626 Z0
G01 X0.5 Y-14.454104 Z0
G01 X0.5 Y-14.480583 Z0
G01 X0.5 Y-14.507061 Z0
G01 X0.5 Y-14.533539 Z0
G01 X0.5 Y-14.560018 Z0
G01 X0.5 Y-14.586496 Z0
G01 X29.5203 Y-14.586496 Z0
G01 X29.5203 Y-14.612974 Z0
G01 X29.5203 Y-14.639453 Z0
G01 X29.5203 Y-14.665931 Z0
G01 X29.5203 Y-14.69241 Z0
G01 X29.5203 Y-14.718888 Z0
G01 X29.5203 Y-14.745366 Z0
G01 X29.5203 Y-14.771845 Z0
G01 X29.5203 Y-14.798323 Z0
G01 X29.5203 Y-14.824801 Z0
G01 X29.5203 Y-14.85128 Z0
G01 X29.5203 Y-14.877758 Z0
G01 X29.5203 Y-14.904237 Z0
G01 X29.5203 Y-14.930715 Z0
G01 X29.5203 Y-14.957193 Z0
G01 X29.5203 Y-14.983672 Z0
G01 X29.5203 Y-15.01015 Z0
G01 X29.5203 Y-15.036628 Z0
G01 X29.5203 Y-15.063107 Z0
G01 X29.5203 Y-15.089585 Z0
G01 X0.5 Y-15.089585 Z0
G01 X0.5 Y-15.116064 Z0
G01 X0.5 Y-15.142542 Z0
G01 X0.5 Y-15.16902 Z0
G01 X0.5 Y-15.195499 Z0
G01 X0.5 Y-15.221977 Z0
G01 X0.5 Y-15.248455 Z0
G01 X0.5 Y-15.274934 Z0
G01 X0.5 Y-15.301412 Z0
G01 X0.5 Y-15.327891 Z0
G01 X0.5 Y-15.354369 Z0
G01 X0.5 Y-15.380847 Z0
G01 X0.5 Y-15.407326 Z0
G01 X0.5 Y-15.433804 Z0
G01 X0.5 Y-15.460282 Z0
G01 X0.5 Y-15.486761 Z0
G01 X0.5 Y-15.513239 Z0
G01 X0.5 Y-15.539718 Z0
G01 X0.5 Y-15.566196 Z0
G01 X0.5 Y-15.592674 Z0
G01 X29.5203 Y-15.592674 Z0
G01 X29.5203 Y-15.619153 Z0
G01 X29.5203 Y-15.645631 Z0
G01 X29.5203 Y-15.672109 Z0
G01 X29.5203 Y-15.698588 Z0
G01 X29.5203 Y-15.725066 Z0
G01 X29.5203 Y-15.751545 Z0
G01 X29.5203 Y-15.778023 Z0
G01 X29.5203 Y-15.804501 Z0
G01 X29.5203 Y-15.83098 Z0
G01 X29.5203 Y-15.857458 Z0
G01 X29.5203 Y-15.883936 Z0
G01 X29.5203 Y-15.910415 Z0
G01 X29.5203 Y-15.936893 Z0
G01 X29.5203 Y-15.963372 Z0
G01 X29.5203 Y-15.98985 Z0
G01 X29.5203 Y-16.016328 Z0
G01 X29.5203 Y-16.042807 Z0
G01 X29.5203 Y-16.069285 Z0
G01 X29.5203 Y-16.095763 Z0
G01 X0.5 Y-16.095763 Z0
G01 X0.5 Y-16.122242 Z0
G01 X0.5 Y-16.14872 Z0
G01 X0.5 Y-16.175199 Z0
G01 X0.5 Y-16.201677 Z0
G01 X0.5 Y-16.228155 Z0
G01 X0.5 Y-16.254634 Z0
G01 X0.5 Y-16.281112 Z0
G01 X0.5 Y-16.30759 Z0
G01 X0.5 Y-16.334069 Z0
G01 X0.5 Y-16.360547 Z0
G01 X0.5 Y-16.387026 Z0
G01 X0.5 Y-16.413504 Z0
G01 X0.5 Y-16.439982 Z0
G01 X0.5 Y-16.466461 Z0
G01 X0.5 Y-16.492939 Z0
G01 X0.5 Y-16.519417 Z0
G01 X0.5 Y-16.545896 Z0
G01 X0.5 Y-16.572374 Z0
G01 X0.5 Y-16.598853 Z0
G01 X29.5203 Y-16.598853 Z0
G01 X29.5203 Y-16.625331 Z0
G01 X29.5203 Y-16.651809 Z0
G01 X29.5203 Y-16.678288 Z0
G01 X29.5203 Y-16.704766 Z0
G01 X29.5203 Y-16.731244 Z0
G01 X29.5203 Y-16.757723 Z0
G01 X29.5203 Y-16.784201 Z0
G01 X29.5203 Y-16.81068 Z0
G01 X29.5203 Y-16.837158 Z0
G01 X29.5203 Y-16.863636 Z0
G01 X29.5203 Y-16.890115 Z0
G01 X29.5203 Y-16.916593 Z0
G01 X29.5203 Y-16.943071 Z0
G01 X29.5203 Y-16.96955 Z0
G01 X29.5203 Y-16.996028 Z0
G01 X29.5203 Y-17.022507 Z0
G01 X29.5203 Y-17.048985 Z0
G01 X29.5203 Y-17.075463 Z0
G01 X29.5203 Y-17.101942 Z0
G01 X0.5 Y-17.101942 Z0
G01 X0.5 Y-17.12842 Z0
G01 X0.5 Y-17.154898 Z0
G01 X0.5 Y-17.181377 Z0
G01 X0.5 Y-17.207855 Z0
G01 X0.5 Y-17.234334 Z0
G01 X0.5 Y-17.260812 Z0
G01 X0.5 Y-17.28729 Z0
G01 X0.5 Y-17.313769 Z0
G01 X0.5 Y-17.340247 Z0
G01 X0.5 Y-17.366726 Z0
G01 X0.5 Y-17.393204 Z0
G01 X0.5 Y-17.419682 Z0
G01 X0.5 Y-17.446161 Z0
G01 X0.5 Y-17.472639 Z0
G01 X0.5 Y-17.499117 Z0
G01 X0.5 Y-17.525596 Z0
G01 X0.5 Y-17.552074 Z0
G01 X0.5 Y-17.578553 Z0
G01 X0.5 Y-17.605031 Z0
G01 X29.5203 Y-17.605031 Z0
G01 X29.5203 Y-17.631509 Z0
G01 X29.5203 Y-17.657988 Z0
G01 X29.5203 Y-17.684466 Z0
G01 X29.5203 Y-17.710944 Z0
G01 X29.5203 Y-17.737423 Z0
G01 X29.5203 Y-17.763901 Z0
G01 X29.5203 Y-17.79038 Z0
G01 X29.5203 Y-17.816858 Z0
G01 X29.5203 Y-17.843336 Z0
G01 X29.5203 Y-17.869815 Z0
G01 X29.5203 Y-17.896293 Z0
G01 X29.5203 Y-17.922771 Z0
G01 X29.5203 Y-17.94925 Z0
G01 X29.5203 Y-17.975728 Z0
G01 X29.5203 Y-18.002207 Z0
G01 X29.5203 Y-18.028685 Z0
G01 X29.5203 Y-18.055163 Z0
G01 X29.5203 Y-18.081642 Z0
G01 X29.5203 Y-18.10812 Z0
G01 X0.5 Y-18.10812 Z0
G01 X0.5 Y-18.134598 Z0
G01 X0.5 Y-18.161077 Z0
G01 X0.5 Y-18.187555 Z0
G01 X0.5 Y-18.214034 Z0
G01 X0.5 Y-18.240512 Z0
G01 X0.5 Y-18.26699 Z0
G01 X0.5 Y-18.293469 Z0
G01 X0.5 Y-18.319947 Z0
G01 X0.5 Y-18.346425 Z0
G01 X0.5 Y-18.372904 Z0
G01 X0.5 Y-18.399382 Z0
G01 X0.5 Y-18.425861 Z0
G01 X0.5 Y-18.452339 Z0

G00 Z18 (EOP take Z up)
G00 X0 Y0 (Move to home)
(Generated in 32.49 sec.)
