(www.thuijzer.nl/image2gcode)
(2016-12-14 00:14:39)
(bit size: 1mm)
(x size: 300mm)
(max z: 180mm)

G21 (Programming in millimeters)
G90 (Absolute programming)
G92 X0 Y0 Z180 (Tell the machine it is at 0, 0, 180)
G00 X0 Y-0.5 Z180 (Starting position)

G01 X0.764784 Y-0.5 Z0
G01 X299.705649 Y-0.5 Z0
G01 X299.705649 Y-0.764784 Z0
G01 X299.705649 Y-1.029568 Z0
G01 X0.5 Y-1.029568 Z0
G01 X0.5 Y-1.294351 Z0
G01 X0.5 Y-1.559135 Z0
G01 X299.705649 Y-1.559135 Z0
G01 X299.705649 Y-1.823919 Z0
G01 X299.705649 Y-2.088703 Z0
G01 X0.5 Y-2.088703 Z0
G01 X0.5 Y-2.353486 Z0
G01 X0.5 Y-2.61827 Z0
G01 X299.705649 Y-2.61827 Z0
G01 X299.705649 Y-2.883054 Z0
G01 X299.705649 Y-3.147838 Z0
G01 X0.5 Y-3.147838 Z0
G01 X0.5 Y-3.412621 Z0
G01 X0.5 Y-3.677405 Z0
G01 X299.705649 Y-3.677405 Z0
G01 X299.705649 Y-3.942189 Z0
G01 X299.705649 Y-4.206973 Z0
G01 X0.5 Y-4.206973 Z0
G01 X0.5 Y-4.471756 Z0
G01 X0.5 Y-4.73654 Z0
G01 X299.705649 Y-4.73654 Z0
G01 X299.705649 Y-5.001324 Z0
G01 X299.705649 Y-5.266108 Z0
G01 X0.5 Y-5.266108 Z0
G01 X0.5 Y-5.530891 Z0
G01 X0.5 Y-5.795675 Z0
G01 X299.705649 Y-5.795675 Z0
G01 X299.705649 Y-6.060459 Z0
G01 X299.705649 Y-6.325243 Z0
G01 X0.5 Y-6.325243 Z0
G01 X0.5 Y-6.590026 Z0
G01 X0.5 Y-6.85481 Z0
G01 X299.705649 Y-6.85481 Z0
G01 X299.705649 Y-7.119594 Z0
G01 X299.705649 Y-7.384378 Z0
G01 X0.5 Y-7.384378 Z0
G01 X0.5 Y-7.649162 Z0
G01 X0.5 Y-7.913945 Z0
G01 X299.705649 Y-7.913945 Z0
G01 X299.705649 Y-8.178729 Z0
G01 X299.705649 Y-8.443513 Z0
G01 X0.5 Y-8.443513 Z0
G01 X0.5 Y-8.708297 Z0
G01 X0.5 Y-8.97308 Z0
G01 X299.705649 Y-8.97308 Z0
G01 X299.705649 Y-9.237864 Z0
G01 X299.705649 Y-9.502648 Z0
G01 X0.5 Y-9.502648 Z0
G01 X0.5 Y-9.767432 Z0
G01 X0.5 Y-10.032215 Z0
G01 X299.705649 Y-10.032215 Z0
G01 X299.705649 Y-10.296999 Z0
G01 X299.705649 Y-10.561783 Z0
G01 X0.5 Y-10.561783 Z0
G01 X0.5 Y-10.826567 Z0
G01 X0.5 Y-11.09135 Z0
G01 X299.705649 Y-11.09135 Z0
G01 X299.705649 Y-11.356134 Z0
G01 X299.705649 Y-11.620918 Z0
G01 X0.5 Y-11.620918 Z0
G01 X0.5 Y-11.885702 Z0
G01 X0.5 Y-12.150485 Z0
G01 X299.705649 Y-12.150485 Z0
G01 X299.705649 Y-12.415269 Z0
G01 X299.705649 Y-12.680053 Z0
G01 X0.5 Y-12.680053 Z0
G01 X0.5 Y-12.944837 Z0
G01 X0.5 Y-13.20962 Z0
G01 X299.705649 Y-13.20962 Z0
G01 X299.705649 Y-13.474404 Z0
G01 X299.705649 Y-13.739188 Z0
G01 X0.5 Y-13.739188 Z0
G01 X0.5 Y-14.003972 Z0
G01 X0.5 Y-14.268756 Z0
G01 X299.705649 Y-14.268756 Z0
G01 X299.705649 Y-14.533539 Z0
G01 X299.705649 Y-14.798323 Z0
G01 X0.5 Y-14.798323 Z0
G01 X0.5 Y-15.063107 Z0
G01 X0.5 Y-15.327891 Z0
G01 X299.705649 Y-15.327891 Z0
G01 X299.705649 Y-15.592674 Z0
G01 X299.705649 Y-15.857458 Z0
G01 X0.5 Y-15.857458 Z0
G01 X0.5 Y-16.122242 Z0
G01 X0.5 Y-16.387026 Z0
G01 X299.705649 Y-16.387026 Z0
G01 X299.705649 Y-16.651809 Z0
G01 X299.705649 Y-16.916593 Z0
G01 X0.5 Y-16.916593 Z0
G01 X0.5 Y-17.181377 Z0
G01 X0.5 Y-17.446161 Z0
G01 X299.705649 Y-17.446161 Z0
G01 X299.705649 Y-17.710944 Z0
G01 X299.705649 Y-17.975728 Z0
G01 X0.5 Y-17.975728 Z0
G01 X0.5 Y-18.240512 Z0
G01 X0.5 Y-18.505296 Z0
G01 X299.705649 Y-18.505296 Z0
G01 X299.705649 Y-18.770079 Z0
G01 X299.705649 Y-19.034863 Z0
G01 X0.5 Y-19.034863 Z0
G01 X0.5 Y-19.299647 Z0
G01 X0.5 Y-19.564431 Z0
G01 X299.705649 Y-19.564431 Z0
G01 X299.705649 Y-19.829214 Z0
G01 X299.705649 Y-20.093998 Z0
G01 X0.5 Y-20.093998 Z0
G01 X0.5 Y-20.358782 Z0
G01 X0.5 Y-20.623566 Z0
G01 X299.705649 Y-20.623566 Z0
G01 X299.705649 Y-20.88835 Z0
G01 X299.705649 Y-21.153133 Z0
G01 X0.5 Y-21.153133 Z0
G01 X0.5 Y-21.417917 Z0
G01 X0.5 Y-21.682701 Z0
G01 X299.705649 Y-21.682701 Z0
G01 X299.705649 Y-21.947485 Z0
G01 X299.705649 Y-22.212268 Z0
G01 X0.5 Y-22.212268 Z0
G01 X0.5 Y-22.477052 Z0
G01 X0.5 Y-22.741836 Z0
G01 X299.705649 Y-22.741836 Z0
G01 X299.705649 Y-23.00662 Z0
G01 X299.705649 Y-23.271403 Z0
G01 X0.5 Y-23.271403 Z0
G01 X0.5 Y-23.536187 Z0
G01 X0.5 Y-23.800971 Z0
G01 X299.705649 Y-23.800971 Z0
G01 X299.705649 Y-24.065755 Z0
G01 X299.705649 Y-24.330538 Z0
G01 X0.5 Y-24.330538 Z0
G01 X0.5 Y-24.595322 Z0
G01 X0.5 Y-24.860106 Z0
G01 X299.705649 Y-24.860106 Z0
G01 X299.705649 Y-25.12489 Z0
G01 X299.705649 Y-25.389673 Z0
G01 X0.5 Y-25.389673 Z0
G01 X0.5 Y-25.654457 Z0
G01 X0.5 Y-25.919241 Z0
G01 X299.705649 Y-25.919241 Z0
G01 X299.705649 Y-26.184025 Z0
G01 X299.705649 Y-26.448808 Z0
G01 X0.5 Y-26.448808 Z0
G01 X0.5 Y-26.713592 Z0
G01 X0.5 Y-26.978376 Z0
G01 X299.705649 Y-26.978376 Z0
G01 X299.705649 Y-27.24316 Z0
G01 X299.705649 Y-27.507944 Z0
G01 X0.5 Y-27.507944 Z0
G01 X0.5 Y-27.772727 Z0
G01 X0.5 Y-28.037511 Z0
G01 X299.705649 Y-28.037511 Z0
G01 X299.705649 Y-28.302295 Z0
G01 X299.705649 Y-28.567079 Z0
G01 X0.5 Y-28.567079 Z0
G01 X0.5 Y-28.831862 Z0
G01 X0.5 Y-29.096646 Z0
G01 X299.705649 Y-29.096646 Z0
G01 X299.705649 Y-29.36143 Z0
G01 X299.705649 Y-29.626214 Z0
G01 X0.5 Y-29.626214 Z0
G01 X0.5 Y-29.890997 Z0
G01 X0.5 Y-30.155781 Z0
G01 X299.705649 Y-30.155781 Z0
G01 X299.705649 Y-30.420565 Z0
G01 X299.705649 Y-30.685349 Z0
G01 X0.5 Y-30.685349 Z0
G01 X0.5 Y-30.950132 Z0
G01 X0.5 Y-31.214916 Z0
G01 X299.705649 Y-31.214916 Z0
G01 X299.705649 Y-31.4797 Z0
G01 X299.705649 Y-31.744484 Z0
G01 X0.5 Y-31.744484 Z0
G01 X0.5 Y-32.009267 Z0
G01 X0.5 Y-32.274051 Z0
G01 X299.705649 Y-32.274051 Z0
G01 X299.705649 Y-32.538835 Z0
G01 X299.705649 Y-32.803619 Z0
G01 X0.5 Y-32.803619 Z0
G01 X0.5 Y-33.068402 Z0
G01 X0.5 Y-33.333186 Z0
G01 X299.705649 Y-33.333186 Z0
G01 X299.705649 Y-33.59797 Z0
G01 X299.705649 Y-33.862754 Z0
G01 X0.5 Y-33.862754 Z0
G01 X0.5 Y-34.127538 Z0
G01 X0.5 Y-34.392321 Z0
G01 X299.705649 Y-34.392321 Z0
G01 X299.705649 Y-34.657105 Z0
G01 X299.705649 Y-34.921889 Z0
G01 X0.5 Y-34.921889 Z0
G01 X0.5 Y-35.186673 Z0
G01 X0.5 Y-35.451456 Z0
G01 X299.705649 Y-35.451456 Z0
G01 X299.705649 Y-35.71624 Z0
G01 X299.705649 Y-35.981024 Z0
G01 X0.5 Y-35.981024 Z0
G01 X0.5 Y-36.245808 Z0
G01 X0.5 Y-36.510591 Z0
G01 X299.705649 Y-36.510591 Z0
G01 X299.705649 Y-36.775375 Z0
G01 X299.705649 Y-37.040159 Z0
G01 X0.5 Y-37.040159 Z0
G01 X0.5 Y-37.304943 Z0
G01 X0.5 Y-37.569726 Z0
G01 X299.705649 Y-37.569726 Z0
G01 X299.705649 Y-37.83451 Z0
G01 X299.705649 Y-38.099294 Z0
G01 X0.5 Y-38.099294 Z0
G01 X0.5 Y-38.364078 Z0
G01 X0.5 Y-38.628861 Z0
G01 X299.705649 Y-38.628861 Z0
G01 X299.705649 Y-38.893645 Z0
G01 X299.705649 Y-39.158429 Z0
G01 X0.5 Y-39.158429 Z0
G01 X0.5 Y-39.423213 Z0
G01 X0.5 Y-39.687996 Z0
G01 X299.705649 Y-39.687996 Z0
G01 X299.705649 Y-39.95278 Z0
G01 X299.705649 Y-40.217564 Z0
G01 X0.5 Y-40.217564 Z0
G01 X0.5 Y-40.482348 Z0
G01 X0.5 Y-40.747132 Z0
G01 X299.705649 Y-40.747132 Z0
G01 X299.705649 Y-41.011915 Z0
G01 X299.705649 Y-41.276699 Z0
G01 X0.5 Y-41.276699 Z0
G01 X0.5 Y-41.541483 Z0
G01 X0.5 Y-41.806267 Z0
G01 X299.705649 Y-41.806267 Z0
G01 X299.705649 Y-42.07105 Z0
G01 X299.705649 Y-42.335834 Z0
G01 X0.5 Y-42.335834 Z0
G01 X0.5 Y-42.600618 Z0
G01 X0.5 Y-42.865402 Z0
G01 X299.705649 Y-42.865402 Z0
G01 X299.705649 Y-43.130185 Z0
G01 X299.705649 Y-43.394969 Z0
G01 X0.5 Y-43.394969 Z0
G01 X0.5 Y-43.659753 Z0
G01 X0.5 Y-43.924537 Z0
G01 X299.705649 Y-43.924537 Z0
G01 X299.705649 Y-44.18932 Z0
G01 X299.705649 Y-44.454104 Z0
G01 X0.5 Y-44.454104 Z0
G01 X0.5 Y-44.718888 Z0
G01 X0.5 Y-44.983672 Z0
G01 X299.705649 Y-44.983672 Z0
G01 X299.705649 Y-45.248455 Z0
G01 X299.705649 Y-45.513239 Z0
G01 X0.5 Y-45.513239 Z0
G01 X0.5 Y-45.778023 Z0
G01 X0.5 Y-46.042807 Z0
G01 X299.705649 Y-46.042807 Z0
G01 X299.705649 Y-46.30759 Z0
G01 X299.705649 Y-46.572374 Z0
G01 X0.5 Y-46.572374 Z0
G01 X0.5 Y-46.837158 Z0
G01 X0.5 Y-47.101942 Z0
G01 X299.705649 Y-47.101942 Z0
G01 X299.705649 Y-47.366726 Z0
G01 X299.705649 Y-47.631509 Z0
G01 X0.5 Y-47.631509 Z0
G01 X0.5 Y-47.896293 Z0
G01 X0.5 Y-48.161077 Z0
G01 X299.705649 Y-48.161077 Z0
G01 X299.705649 Y-48.425861 Z0
G01 X299.705649 Y-48.690644 Z0
G01 X0.5 Y-48.690644 Z0
G01 X0.5 Y-48.955428 Z0
G01 X0.5 Y-49.220212 Z0
G01 X299.705649 Y-49.220212 Z0
G01 X299.705649 Y-49.484996 Z0
G01 X299.705649 Y-49.749779 Z0
G01 X0.5 Y-49.749779 Z0
G01 X0.5 Y-50.014563 Z0
G01 X0.5 Y-50.279347 Z0
G01 X299.705649 Y-50.279347 Z0
G01 X299.705649 Y-50.544131 Z0
G01 X299.705649 Y-50.808914 Z0
G01 X0.5 Y-50.808914 Z0
G01 X0.5 Y-51.073698 Z0
G01 X0.5 Y-51.338482 Z0
G01 X299.705649 Y-51.338482 Z0
G01 X299.705649 Y-51.603266 Z0
G01 X299.705649 Y-51.868049 Z0
G01 X0.5 Y-51.868049 Z0
G01 X0.5 Y-52.132833 Z0
G01 X0.5 Y-52.397617 Z0
G01 X299.705649 Y-52.397617 Z0
G01 X299.705649 Y-52.662401 Z0
G01 X299.705649 Y-52.927184 Z0
G01 X0.5 Y-52.927184 Z0
G01 X0.5 Y-53.191968 Z0
G01 X0.5 Y-53.456752 Z0
G01 X299.705649 Y-53.456752 Z0
G01 X299.705649 Y-53.721536 Z0
G01 X299.705649 Y-53.98632 Z0
G01 X0.5 Y-53.98632 Z0
G01 X0.5 Y-54.251103 Z0
G01 X0.5 Y-54.515887 Z0
G01 X299.705649 Y-54.515887 Z0
G01 X299.705649 Y-54.780671 Z0
G01 X299.705649 Y-55.045455 Z0
G01 X0.5 Y-55.045455 Z0
G01 X0.5 Y-55.310238 Z0
G01 X0.5 Y-55.575022 Z0
G01 X299.705649 Y-55.575022 Z0
G01 X299.705649 Y-55.839806 Z0
G01 X299.705649 Y-56.10459 Z0
G01 X0.5 Y-56.10459 Z0
G01 X0.5 Y-56.369373 Z0
G01 X0.5 Y-56.634157 Z0
G01 X299.705649 Y-56.634157 Z0
G01 X299.705649 Y-56.898941 Z0
G01 X299.705649 Y-57.163725 Z0
G01 X0.5 Y-57.163725 Z0
G01 X0.5 Y-57.428508 Z0
G01 X0.5 Y-57.693292 Z0
G01 X299.705649 Y-57.693292 Z0
G01 X299.705649 Y-57.958076 Z0
G01 X299.705649 Y-58.22286 Z0
G01 X0.5 Y-58.22286 Z0
G01 X0.5 Y-58.487643 Z0
G01 X0.5 Y-58.752427 Z0
G01 X299.705649 Y-58.752427 Z0
G01 X299.705649 Y-59.017211 Z0
G01 X299.705649 Y-59.281995 Z0
G01 X0.5 Y-59.281995 Z0
G01 X0.5 Y-59.546778 Z0
G01 X0.5 Y-59.811562 Z0
G01 X299.705649 Y-59.811562 Z0
G01 X299.705649 Y-60.076346 Z0
G01 X299.705649 Y-60.34113 Z0
G01 X0.5 Y-60.34113 Z0
G01 X0.5 Y-60.605914 Z0
G01 X0.5 Y-60.870697 Z0
G01 X299.705649 Y-60.870697 Z0
G01 X299.705649 Y-61.135481 Z0
G01 X299.705649 Y-61.400265 Z0
G01 X0.5 Y-61.400265 Z0
G01 X0.5 Y-61.665049 Z0
G01 X0.5 Y-61.929832 Z0
G01 X299.705649 Y-61.929832 Z0
G01 X299.705649 Y-62.194616 Z0
G01 X299.705649 Y-62.4594 Z0
G01 X0.5 Y-62.4594 Z0
G01 X0.5 Y-62.724184 Z0
G01 X0.5 Y-62.988967 Z0
G01 X299.705649 Y-62.988967 Z0
G01 X299.705649 Y-63.253751 Z0
G01 X299.705649 Y-63.518535 Z0
G01 X0.5 Y-63.518535 Z0
G01 X0.5 Y-63.783319 Z0
G01 X0.5 Y-64.048102 Z0
G01 X299.705649 Y-64.048102 Z0
G01 X299.705649 Y-64.312886 Z0
G01 X299.705649 Y-64.57767 Z0
G01 X0.5 Y-64.57767 Z0
G01 X0.5 Y-64.842454 Z0
G01 X0.5 Y-65.107237 Z0
G01 X299.705649 Y-65.107237 Z0
G01 X299.705649 Y-65.372021 Z0
G01 X299.705649 Y-65.636805 Z0
G01 X0.5 Y-65.636805 Z0
G01 X0.5 Y-65.901589 Z0
G01 X0.5 Y-66.166372 Z0
G01 X299.705649 Y-66.166372 Z0
G01 X299.705649 Y-66.431156 Z0
G01 X299.705649 Y-66.69594 Z0
G01 X0.5 Y-66.69594 Z0
G01 X0.5 Y-66.960724 Z0
G01 X0.5 Y-67.225508 Z0
G01 X299.705649 Y-67.225508 Z0
G01 X299.705649 Y-67.490291 Z0
G01 X299.705649 Y-67.755075 Z0
G01 X0.5 Y-67.755075 Z0
G01 X0.5 Y-68.019859 Z0
G01 X0.5 Y-68.284643 Z0
G01 X299.705649 Y-68.284643 Z0
G01 X299.705649 Y-68.549426 Z0
G01 X299.705649 Y-68.81421 Z0
G01 X0.5 Y-68.81421 Z0
G01 X0.5 Y-69.078994 Z0
G01 X0.5 Y-69.343778 Z0
G01 X299.705649 Y-69.343778 Z0
G01 X299.705649 Y-69.608561 Z0
G01 X299.705649 Y-69.873345 Z0
G01 X0.5 Y-69.873345 Z0
G01 X0.5 Y-70.138129 Z0
G01 X0.5 Y-70.402913 Z0
G01 X299.705649 Y-70.402913 Z0
G01 X299.705649 Y-70.667696 Z0
G01 X299.705649 Y-70.93248 Z0
G01 X0.5 Y-70.93248 Z0
G01 X0.5 Y-71.197264 Z0
G01 X0.5 Y-71.462048 Z0
G01 X299.705649 Y-71.462048 Z0
G01 X299.705649 Y-71.726831 Z0
G01 X299.705649 Y-71.991615 Z0
G01 X0.5 Y-71.991615 Z0
G01 X0.5 Y-72.256399 Z0
G01 X0.5 Y-72.521183 Z0
G01 X299.705649 Y-72.521183 Z0
G01 X299.705649 Y-72.785966 Z0
G01 X299.705649 Y-73.05075 Z0
G01 X0.5 Y-73.05075 Z0
G01 X0.5 Y-73.315534 Z0
G01 X0.5 Y-73.580318 Z0
G01 X299.705649 Y-73.580318 Z0
G01 X299.705649 Y-73.845102 Z0
G01 X299.705649 Y-74.109885 Z0
G01 X0.5 Y-74.109885 Z0
G01 X0.5 Y-74.374669 Z0
G01 X0.5 Y-74.639453 Z0
G01 X299.705649 Y-74.639453 Z0
G01 X299.705649 Y-74.904237 Z0
G01 X299.705649 Y-75.16902 Z0
G01 X0.5 Y-75.16902 Z0
G01 X0.5 Y-75.433804 Z0
G01 X0.5 Y-75.698588 Z0
G01 X299.705649 Y-75.698588 Z0
G01 X299.705649 Y-75.963372 Z0
G01 X299.705649 Y-76.228155 Z0
G01 X0.5 Y-76.228155 Z0
G01 X0.5 Y-76.492939 Z0
G01 X0.5 Y-76.757723 Z0
G01 X299.705649 Y-76.757723 Z0
G01 X299.705649 Y-77.022507 Z0
G01 X299.705649 Y-77.28729 Z0
G01 X0.5 Y-77.28729 Z0
G01 X0.5 Y-77.552074 Z0
G01 X0.5 Y-77.816858 Z0
G01 X299.705649 Y-77.816858 Z0
G01 X299.705649 Y-78.081642 Z0
G01 X299.705649 Y-78.346425 Z0
G01 X0.5 Y-78.346425 Z0
G01 X0.5 Y-78.611209 Z0
G01 X0.5 Y-78.875993 Z0
G01 X299.705649 Y-78.875993 Z0
G01 X299.705649 Y-79.140777 Z0
G01 X299.705649 Y-79.40556 Z0
G01 X0.5 Y-79.40556 Z0
G01 X0.5 Y-79.670344 Z0
G01 X0.5 Y-79.935128 Z0
G01 X299.705649 Y-79.935128 Z0
G01 X299.705649 Y-80.199912 Z0
G01 X299.705649 Y-80.464695 Z0
G01 X0.5 Y-80.464695 Z0
G01 X0.5 Y-80.729479 Z0
G01 X0.5 Y-80.994263 Z0
G01 X299.705649 Y-80.994263 Z0
G01 X299.705649 Y-81.259047 Z0
G01 X299.705649 Y-81.523831 Z0
G01 X0.5 Y-81.523831 Z0
G01 X0.5 Y-81.788614 Z0
G01 X0.5 Y-82.053398 Z0
G01 X299.705649 Y-82.053398 Z0
G01 X299.705649 Y-82.318182 Z0
G01 X299.705649 Y-82.582966 Z0
G01 X0.5 Y-82.582966 Z0
G01 X0.5 Y-82.847749 Z0
G01 X0.5 Y-83.112533 Z0
G01 X299.705649 Y-83.112533 Z0
G01 X299.705649 Y-83.377317 Z0
G01 X299.705649 Y-83.642101 Z0
G01 X0.5 Y-83.642101 Z0
G01 X0.5 Y-83.906884 Z0
G01 X0.5 Y-84.171668 Z0
G01 X299.705649 Y-84.171668 Z0
G01 X299.705649 Y-84.436452 Z0
G01 X299.705649 Y-84.701236 Z0
G01 X0.5 Y-84.701236 Z0
G01 X0.5 Y-84.966019 Z0
G01 X0.5 Y-85.230803 Z0
G01 X299.705649 Y-85.230803 Z0
G01 X299.705649 Y-85.495587 Z0
G01 X299.705649 Y-85.760371 Z0
G01 X0.5 Y-85.760371 Z0
G01 X0.5 Y-86.025154 Z0
G01 X0.5 Y-86.289938 Z0
G01 X299.705649 Y-86.289938 Z0
G01 X299.705649 Y-86.554722 Z0
G01 X299.705649 Y-86.819506 Z0
G01 X0.5 Y-86.819506 Z0
G01 X0.5 Y-87.084289 Z0
G01 X0.5 Y-87.349073 Z0
G01 X299.705649 Y-87.349073 Z0
G01 X299.705649 Y-87.613857 Z0
G01 X299.705649 Y-87.878641 Z0
G01 X0.5 Y-87.878641 Z0
G01 X0.5 Y-88.143425 Z0
G01 X0.5 Y-88.408208 Z0
G01 X299.705649 Y-88.408208 Z0
G01 X299.705649 Y-88.672992 Z0
G01 X299.705649 Y-88.937776 Z0
G01 X0.5 Y-88.937776 Z0
G01 X0.5 Y-89.20256 Z0
G01 X0.5 Y-89.467343 Z0
G01 X299.705649 Y-89.467343 Z0
G01 X299.705649 Y-89.732127 Z0
G01 X299.705649 Y-89.996911 Z0
G01 X0.5 Y-89.996911 Z0
G01 X0.5 Y-90.261695 Z0
G01 X0.5 Y-90.526478 Z0
G01 X299.705649 Y-90.526478 Z0
G01 X299.705649 Y-90.791262 Z0
G01 X299.705649 Y-91.056046 Z0
G01 X0.5 Y-91.056046 Z0
G01 X0.5 Y-91.32083 Z0
G01 X0.5 Y-91.585613 Z0
G01 X299.705649 Y-91.585613 Z0
G01 X299.705649 Y-91.850397 Z0
G01 X299.705649 Y-92.115181 Z0
G01 X0.5 Y-92.115181 Z0
G01 X0.5 Y-92.379965 Z0
G01 X0.5 Y-92.644748 Z0
G01 X299.705649 Y-92.644748 Z0
G01 X299.705649 Y-92.909532 Z0
G01 X299.705649 Y-93.174316 Z0
G01 X0.5 Y-93.174316 Z0
G01 X0.5 Y-93.4391 Z0
G01 X0.5 Y-93.703883 Z0
G01 X299.705649 Y-93.703883 Z0
G01 X299.705649 Y-93.968667 Z0
G01 X299.705649 Y-94.233451 Z0
G01 X0.5 Y-94.233451 Z0
G01 X0.5 Y-94.498235 Z0
G01 X0.5 Y-94.763019 Z0
G01 X299.705649 Y-94.763019 Z0
G01 X299.705649 Y-95.027802 Z0
G01 X299.705649 Y-95.292586 Z0
G01 X0.5 Y-95.292586 Z0
G01 X0.5 Y-95.55737 Z0
G01 X0.5 Y-95.822154 Z0
G01 X299.705649 Y-95.822154 Z0
G01 X299.705649 Y-96.086937 Z0
G01 X299.705649 Y-96.351721 Z0
G01 X0.5 Y-96.351721 Z0
G01 X0.5 Y-96.616505 Z0
G01 X0.5 Y-96.881289 Z0
G01 X299.705649 Y-96.881289 Z0
G01 X299.705649 Y-97.146072 Z0
G01 X299.705649 Y-97.410856 Z0
G01 X0.5 Y-97.410856 Z0
G01 X0.5 Y-97.67564 Z0
G01 X0.5 Y-97.940424 Z0
G01 X299.705649 Y-97.940424 Z0
G01 X299.705649 Y-98.205207 Z0
G01 X299.705649 Y-98.469991 Z0
G01 X0.5 Y-98.469991 Z0
G01 X0.5 Y-98.734775 Z0
G01 X0.5 Y-98.999559 Z0
G01 X299.705649 Y-98.999559 Z0
G01 X299.705649 Y-99.264342 Z0
G01 X299.705649 Y-99.529126 Z0
G01 X0.5 Y-99.529126 Z0
G01 X0.5 Y-99.79391 Z0
G01 X0.5 Y-100.058694 Z0
G01 X299.705649 Y-100.058694 Z0
G01 X299.705649 Y-100.323477 Z0
G01 X299.705649 Y-100.588261 Z0
G01 X0.5 Y-100.588261 Z0
G01 X0.5 Y-100.853045 Z0
G01 X0.5 Y-101.117829 Z0
G01 X299.705649 Y-101.117829 Z0
G01 X299.705649 Y-101.382613 Z0
G01 X299.705649 Y-101.647396 Z0
G01 X0.5 Y-101.647396 Z0
G01 X0.5 Y-101.91218 Z0
G01 X0.5 Y-102.176964 Z0
G01 X299.705649 Y-102.176964 Z0
G01 X299.705649 Y-102.441748 Z0
G01 X299.705649 Y-102.706531 Z0
G01 X0.5 Y-102.706531 Z0
G01 X0.5 Y-102.971315 Z0
G01 X0.5 Y-103.236099 Z0
G01 X299.705649 Y-103.236099 Z0
G01 X299.705649 Y-103.500883 Z0
G01 X299.705649 Y-103.765666 Z0
G01 X0.5 Y-103.765666 Z0
G01 X0.5 Y-104.03045 Z0
G01 X0.5 Y-104.295234 Z0
G01 X299.705649 Y-104.295234 Z0
G01 X299.705649 Y-104.560018 Z0
G01 X299.705649 Y-104.824801 Z0
G01 X0.5 Y-104.824801 Z0
G01 X0.5 Y-105.089585 Z0
G01 X0.5 Y-105.354369 Z0
G01 X299.705649 Y-105.354369 Z0
G01 X299.705649 Y-105.619153 Z0
G01 X299.705649 Y-105.883936 Z0
G01 X0.5 Y-105.883936 Z0
G01 X0.5 Y-106.14872 Z0
G01 X0.5 Y-106.413504 Z0
G01 X299.705649 Y-106.413504 Z0
G01 X299.705649 Y-106.678288 Z0
G01 X299.705649 Y-106.943071 Z0
G01 X0.5 Y-106.943071 Z0
G01 X0.5 Y-107.207855 Z0
G01 X0.5 Y-107.472639 Z0
G01 X299.705649 Y-107.472639 Z0
G01 X299.705649 Y-107.737423 Z0
G01 X299.705649 Y-108.002207 Z0
G01 X0.5 Y-108.002207 Z0
G01 X0.5 Y-108.26699 Z0
G01 X0.5 Y-108.531774 Z0
G01 X299.705649 Y-108.531774 Z0
G01 X299.705649 Y-108.796558 Z0
G01 X299.705649 Y-109.061342 Z0
G01 X0.5 Y-109.061342 Z0
G01 X0.5 Y-109.326125 Z0
G01 X0.5 Y-109.590909 Z0
G01 X299.705649 Y-109.590909 Z0
G01 X299.705649 Y-109.855693 Z0
G01 X299.705649 Y-110.120477 Z0
G01 X0.5 Y-110.120477 Z0
G01 X0.5 Y-110.38526 Z0
G01 X0.5 Y-110.650044 Z0
G01 X299.705649 Y-110.650044 Z0
G01 X299.705649 Y-110.914828 Z0
G01 X299.705649 Y-111.179612 Z0
G01 X0.5 Y-111.179612 Z0
G01 X0.5 Y-111.444395 Z0
G01 X0.5 Y-111.709179 Z0
G01 X299.705649 Y-111.709179 Z0
G01 X299.705649 Y-111.973963 Z0
G01 X299.705649 Y-112.238747 Z0
G01 X0.5 Y-112.238747 Z0
G01 X0.5 Y-112.50353 Z0
G01 X0.5 Y-112.768314 Z0
G01 X299.705649 Y-112.768314 Z0
G01 X299.705649 Y-113.033098 Z0
G01 X299.705649 Y-113.297882 Z0
G01 X0.5 Y-113.297882 Z0
G01 X0.5 Y-113.562665 Z0
G01 X0.5 Y-113.827449 Z0
G01 X299.705649 Y-113.827449 Z0
G01 X299.705649 Y-114.092233 Z0
G01 X299.705649 Y-114.357017 Z0
G01 X0.5 Y-114.357017 Z0
G01 X0.5 Y-114.621801 Z0
G01 X0.5 Y-114.886584 Z0
G01 X299.705649 Y-114.886584 Z0
G01 X299.705649 Y-115.151368 Z0
G01 X299.705649 Y-115.416152 Z0
G01 X0.5 Y-115.416152 Z0
G01 X0.5 Y-115.680936 Z0
G01 X0.5 Y-115.945719 Z0
G01 X299.705649 Y-115.945719 Z0
G01 X299.705649 Y-116.210503 Z0
G01 X299.705649 Y-116.475287 Z0
G01 X0.5 Y-116.475287 Z0
G01 X0.5 Y-116.740071 Z0
G01 X0.5 Y-117.004854 Z0
G01 X299.705649 Y-117.004854 Z0
G01 X299.705649 Y-117.269638 Z0
G01 X299.705649 Y-117.534422 Z0
G01 X0.5 Y-117.534422 Z0
G01 X0.5 Y-117.799206 Z0
G01 X0.5 Y-118.063989 Z0
G01 X299.705649 Y-118.063989 Z0
G01 X299.705649 Y-118.328773 Z0
G01 X299.705649 Y-118.593557 Z0
G01 X0.5 Y-118.593557 Z0
G01 X0.5 Y-118.858341 Z0
G01 X0.5 Y-119.123124 Z0
G01 X299.705649 Y-119.123124 Z0
G01 X299.705649 Y-119.387908 Z0
G01 X299.705649 Y-119.652692 Z0
G01 X0.5 Y-119.652692 Z0
G01 X0.5 Y-119.917476 Z0
G01 X0.5 Y-120.182259 Z0
G01 X299.705649 Y-120.182259 Z0
G01 X299.705649 Y-120.447043 Z0
G01 X299.705649 Y-120.711827 Z0
G01 X0.5 Y-120.711827 Z0
G01 X0.5 Y-120.976611 Z0
G01 X0.5 Y-121.241395 Z0
G01 X299.705649 Y-121.241395 Z0
G01 X299.705649 Y-121.506178 Z0
G01 X299.705649 Y-121.770962 Z0
G01 X0.5 Y-121.770962 Z0
G01 X0.5 Y-122.035746 Z0
G01 X0.5 Y-122.30053 Z0
G01 X299.705649 Y-122.30053 Z0
G01 X299.705649 Y-122.565313 Z0
G01 X299.705649 Y-122.830097 Z0
G01 X0.5 Y-122.830097 Z0
G01 X0.5 Y-123.094881 Z0
G01 X0.5 Y-123.359665 Z0
G01 X299.705649 Y-123.359665 Z0
G01 X299.705649 Y-123.624448 Z0
G01 X299.705649 Y-123.889232 Z0
G01 X0.5 Y-123.889232 Z0
G01 X0.5 Y-124.154016 Z0
G01 X0.5 Y-124.4188 Z0
G01 X299.705649 Y-124.4188 Z0
G01 X299.705649 Y-124.683583 Z0
G01 X299.705649 Y-124.948367 Z0
G01 X0.5 Y-124.948367 Z0
G01 X0.5 Y-125.213151 Z0
G01 X0.5 Y-125.477935 Z0
G01 X299.705649 Y-125.477935 Z0
G01 X299.705649 Y-125.742718 Z0
G01 X299.705649 Y-126.007502 Z0
G01 X0.5 Y-126.007502 Z0
G01 X0.5 Y-126.272286 Z0
G01 X0.5 Y-126.53707 Z0
G01 X299.705649 Y-126.53707 Z0
G01 X299.705649 Y-126.801853 Z0
G01 X299.705649 Y-127.066637 Z0
G01 X0.5 Y-127.066637 Z0
G01 X0.5 Y-127.331421 Z0
G01 X0.5 Y-127.596205 Z0
G01 X299.705649 Y-127.596205 Z0
G01 X299.705649 Y-127.860989 Z0
G01 X299.705649 Y-128.125772 Z0
G01 X0.5 Y-128.125772 Z0
G01 X0.5 Y-128.390556 Z0
G01 X0.5 Y-128.65534 Z0
G01 X299.705649 Y-128.65534 Z0
G01 X299.705649 Y-128.920124 Z0
G01 X299.705649 Y-129.184907 Z0
G01 X0.5 Y-129.184907 Z0
G01 X0.5 Y-129.449691 Z0
G01 X0.5 Y-129.714475 Z0
G01 X299.705649 Y-129.714475 Z0
G01 X299.705649 Y-129.979259 Z0
G01 X299.705649 Y-130.244042 Z0
G01 X0.5 Y-130.244042 Z0
G01 X0.5 Y-130.508826 Z0
G01 X0.5 Y-130.77361 Z0
G01 X299.705649 Y-130.77361 Z0
G01 X299.705649 Y-131.038394 Z0
G01 X299.705649 Y-131.303177 Z0
G01 X0.5 Y-131.303177 Z0
G01 X0.5 Y-131.567961 Z0
G01 X0.5 Y-131.832745 Z0
G01 X299.705649 Y-131.832745 Z0
G01 X299.705649 Y-132.097529 Z0
G01 X299.705649 Y-132.362312 Z0
G01 X0.5 Y-132.362312 Z0
G01 X0.5 Y-132.627096 Z0
G01 X0.5 Y-132.89188 Z0
G01 X299.705649 Y-132.89188 Z0
G01 X299.705649 Y-133.156664 Z0
G01 X299.705649 Y-133.421447 Z0
G01 X0.5 Y-133.421447 Z0
G01 X0.5 Y-133.686231 Z0
G01 X0.5 Y-133.951015 Z0
G01 X299.705649 Y-133.951015 Z0
G01 X299.705649 Y-134.215799 Z0
G01 X299.705649 Y-134.480583 Z0
G01 X0.5 Y-134.480583 Z0
G01 X0.5 Y-134.745366 Z0
G01 X0.5 Y-135.01015 Z0
G01 X299.705649 Y-135.01015 Z0
G01 X299.705649 Y-135.274934 Z0
G01 X299.705649 Y-135.539718 Z0
G01 X0.5 Y-135.539718 Z0
G01 X0.5 Y-135.804501 Z0
G01 X0.5 Y-136.069285 Z0
G01 X299.705649 Y-136.069285 Z0
G01 X299.705649 Y-136.334069 Z0
G01 X299.705649 Y-136.598853 Z0
G01 X0.5 Y-136.598853 Z0
G01 X0.5 Y-136.863636 Z0
G01 X0.5 Y-137.12842 Z0
G01 X299.705649 Y-137.12842 Z0
G01 X299.705649 Y-137.393204 Z0
G01 X299.705649 Y-137.657988 Z0
G01 X0.5 Y-137.657988 Z0
G01 X0.5 Y-137.922771 Z0
G01 X0.5 Y-138.187555 Z0
G01 X299.705649 Y-138.187555 Z0
G01 X299.705649 Y-138.452339 Z0
G01 X299.705649 Y-138.717123 Z0
G01 X0.5 Y-138.717123 Z0
G01 X0.5 Y-138.981906 Z0
G01 X0.5 Y-139.24669 Z0
G01 X299.705649 Y-139.24669 Z0
G01 X299.705649 Y-139.511474 Z0
G01 X299.705649 Y-139.776258 Z0
G01 X0.5 Y-139.776258 Z0
G01 X0.5 Y-140.041041 Z0
G01 X0.5 Y-140.305825 Z0
G01 X299.705649 Y-140.305825 Z0
G01 X299.705649 Y-140.570609 Z0
G01 X299.705649 Y-140.835393 Z0
G01 X0.5 Y-140.835393 Z0
G01 X0.5 Y-141.100177 Z0
G01 X0.5 Y-141.36496 Z0
G01 X299.705649 Y-141.36496 Z0
G01 X299.705649 Y-141.629744 Z0
G01 X299.705649 Y-141.894528 Z0
G01 X0.5 Y-141.894528 Z0
G01 X0.5 Y-142.159312 Z0
G01 X0.5 Y-142.424095 Z0
G01 X299.705649 Y-142.424095 Z0
G01 X299.705649 Y-142.688879 Z0
G01 X299.705649 Y-142.953663 Z0
G01 X0.5 Y-142.953663 Z0
G01 X0.5 Y-143.218447 Z0
G01 X0.5 Y-143.48323 Z0
G01 X299.705649 Y-143.48323 Z0
G01 X299.705649 Y-143.748014 Z0
G01 X299.705649 Y-144.012798 Z0
G01 X0.5 Y-144.012798 Z0
G01 X0.5 Y-144.277582 Z0
G01 X0.5 Y-144.542365 Z0
G01 X299.705649 Y-144.542365 Z0
G01 X299.705649 Y-144.807149 Z0
G01 X299.705649 Y-145.071933 Z0
G01 X0.5 Y-145.071933 Z0
G01 X0.5 Y-145.336717 Z0
G01 X0.5 Y-145.6015 Z0
G01 X299.705649 Y-145.6015 Z0
G01 X299.705649 Y-145.866284 Z0
G01 X299.705649 Y-146.131068 Z0
G01 X0.5 Y-146.131068 Z0
G01 X0.5 Y-146.395852 Z0
G01 X0.5 Y-146.660635 Z0
G01 X299.705649 Y-146.660635 Z0
G01 X299.705649 Y-146.925419 Z0
G01 X299.705649 Y-147.190203 Z0
G01 X0.5 Y-147.190203 Z0
G01 X0.5 Y-147.454987 Z0
G01 X0.5 Y-147.719771 Z0
G01 X299.705649 Y-147.719771 Z0
G01 X299.705649 Y-147.984554 Z0
G01 X299.705649 Y-148.249338 Z0
G01 X0.5 Y-148.249338 Z0
G01 X0.5 Y-148.514122 Z0
G01 X0.5 Y-148.778906 Z0
G01 X299.705649 Y-148.778906 Z0
G01 X299.705649 Y-149.043689 Z0
G01 X299.705649 Y-149.308473 Z0
G01 X0.5 Y-149.308473 Z0
G01 X0.5 Y-149.573257 Z0
G01 X0.5 Y-149.838041 Z0
G01 X299.705649 Y-149.838041 Z0
G01 X299.705649 Y-150.102824 Z0
G01 X299.705649 Y-150.367608 Z0
G01 X0.5 Y-150.367608 Z0
G01 X0.5 Y-150.632392 Z0
G01 X0.5 Y-150.897176 Z0
G01 X299.705649 Y-150.897176 Z0
G01 X299.705649 Y-151.161959 Z0
G01 X299.705649 Y-151.426743 Z0
G01 X0.5 Y-151.426743 Z0
G01 X0.5 Y-151.691527 Z0
G01 X0.5 Y-151.956311 Z0
G01 X299.705649 Y-151.956311 Z0
G01 X299.705649 Y-152.221094 Z0
G01 X299.705649 Y-152.485878 Z0
G01 X0.5 Y-152.485878 Z0
G01 X0.5 Y-152.750662 Z0
G01 X0.5 Y-153.015446 Z0
G01 X299.705649 Y-153.015446 Z0
G01 X299.705649 Y-153.280229 Z0
G01 X299.705649 Y-153.545013 Z0
G01 X0.5 Y-153.545013 Z0
G01 X0.5 Y-153.809797 Z0
G01 X0.5 Y-154.074581 Z0
G01 X299.705649 Y-154.074581 Z0
G01 X299.705649 Y-154.339365 Z0
G01 X299.705649 Y-154.604148 Z0
G01 X0.5 Y-154.604148 Z0
G01 X0.5 Y-154.868932 Z0
G01 X0.5 Y-155.133716 Z0
G01 X299.705649 Y-155.133716 Z0
G01 X299.705649 Y-155.3985 Z0
G01 X299.705649 Y-155.663283 Z0
G01 X0.5 Y-155.663283 Z0
G01 X0.5 Y-155.928067 Z0
G01 X0.5 Y-156.192851 Z0
G01 X299.705649 Y-156.192851 Z0
G01 X299.705649 Y-156.457635 Z0
G01 X299.705649 Y-156.722418 Z0
G01 X0.5 Y-156.722418 Z0
G01 X0.5 Y-156.987202 Z0
G01 X0.5 Y-157.251986 Z0
G01 X299.705649 Y-157.251986 Z0
G01 X299.705649 Y-157.51677 Z0
G01 X299.705649 Y-157.781553 Z0
G01 X0.5 Y-157.781553 Z0
G01 X0.5 Y-158.046337 Z0
G01 X0.5 Y-158.311121 Z0
G01 X299.705649 Y-158.311121 Z0
G01 X299.705649 Y-158.575905 Z0
G01 X299.705649 Y-158.840688 Z0
G01 X0.5 Y-158.840688 Z0
G01 X0.5 Y-159.105472 Z0
G01 X0.5 Y-159.370256 Z0
G01 X299.705649 Y-159.370256 Z0
G01 X299.705649 Y-159.63504 Z0
G01 X299.705649 Y-159.899823 Z0
G01 X0.5 Y-159.899823 Z0
G01 X0.5 Y-160.164607 Z0
G01 X0.5 Y-160.429391 Z0
G01 X299.705649 Y-160.429391 Z0
G01 X299.705649 Y-160.694175 Z0
G01 X299.705649 Y-160.958959 Z0
G01 X0.5 Y-160.958959 Z0
G01 X0.5 Y-161.223742 Z0
G01 X0.5 Y-161.488526 Z0
G01 X299.705649 Y-161.488526 Z0
G01 X299.705649 Y-161.75331 Z0
G01 X299.705649 Y-162.018094 Z0
G01 X0.5 Y-162.018094 Z0
G01 X0.5 Y-162.282877 Z0
G01 X0.5 Y-162.547661 Z0
G01 X299.705649 Y-162.547661 Z0
G01 X299.705649 Y-162.812445 Z0
G01 X299.705649 Y-163.077229 Z0
G01 X0.5 Y-163.077229 Z0
G01 X0.5 Y-163.342012 Z0
G01 X0.5 Y-163.606796 Z0
G01 X299.705649 Y-163.606796 Z0
G01 X299.705649 Y-163.87158 Z0
G01 X299.705649 Y-164.136364 Z0
G01 X0.5 Y-164.136364 Z0
G01 X0.5 Y-164.401147 Z0
G01 X0.5 Y-164.665931 Z0
G01 X299.705649 Y-164.665931 Z0
G01 X299.705649 Y-164.930715 Z0
G01 X299.705649 Y-165.195499 Z0
G01 X0.5 Y-165.195499 Z0
G01 X0.5 Y-165.460282 Z0
G01 X0.5 Y-165.725066 Z0
G01 X299.705649 Y-165.725066 Z0
G01 X299.705649 Y-165.98985 Z0
G01 X299.705649 Y-166.254634 Z0
G01 X0.5 Y-166.254634 Z0
G01 X0.5 Y-166.519417 Z0
G01 X0.5 Y-166.784201 Z0
G01 X299.705649 Y-166.784201 Z0
G01 X299.705649 Y-167.048985 Z0
G01 X299.705649 Y-167.313769 Z0
G01 X0.5 Y-167.313769 Z0
G01 X0.5 Y-167.578553 Z0
G01 X0.5 Y-167.843336 Z0
G01 X299.705649 Y-167.843336 Z0
G01 X299.705649 Y-168.10812 Z0
G01 X299.705649 Y-168.372904 Z0
G01 X0.5 Y-168.372904 Z0
G01 X0.5 Y-168.637688 Z0
G01 X0.5 Y-168.902471 Z0
G01 X299.705649 Y-168.902471 Z0
G01 X299.705649 Y-169.167255 Z0
G01 X299.705649 Y-169.432039 Z0
G01 X0.5 Y-169.432039 Z0
G01 X0.5 Y-169.696823 Z0
G01 X0.5 Y-169.961606 Z0
G01 X299.705649 Y-169.961606 Z0
G01 X299.705649 Y-170.22639 Z0
G01 X299.705649 Y-170.491174 Z0
G01 X0.5 Y-170.491174 Z0
G01 X0.5 Y-170.755958 Z0
G01 X0.5 Y-171.020741 Z0
G01 X299.705649 Y-171.020741 Z0
G01 X299.705649 Y-171.285525 Z0
G01 X299.705649 Y-171.550309 Z0
G01 X0.5 Y-171.550309 Z0
G01 X0.5 Y-171.815093 Z0
G01 X0.5 Y-172.079876 Z0
G01 X299.705649 Y-172.079876 Z0
G01 X299.705649 Y-172.34466 Z0
G01 X299.705649 Y-172.609444 Z0
G01 X0.5 Y-172.609444 Z0
G01 X0.5 Y-172.874228 Z0
G01 X0.5 Y-173.139011 Z0
G01 X299.705649 Y-173.139011 Z0
G01 X299.705649 Y-173.403795 Z0
G01 X299.705649 Y-173.668579 Z0
G01 X0.5 Y-173.668579 Z0
G01 X0.5 Y-173.933363 Z0
G01 X0.5 Y-174.198147 Z0
G01 X299.705649 Y-174.198147 Z0
G01 X299.705649 Y-174.46293 Z0
G01 X299.705649 Y-174.727714 Z0
G01 X0.5 Y-174.727714 Z0
G01 X0.5 Y-174.992498 Z0
G01 X0.5 Y-175.257282 Z0
G01 X299.705649 Y-175.257282 Z0
G01 X299.705649 Y-175.522065 Z0
G01 X299.705649 Y-175.786849 Z0
G01 X0.5 Y-175.786849 Z0
G01 X0.5 Y-176.051633 Z0
G01 X0.5 Y-176.316417 Z0
G01 X299.705649 Y-176.316417 Z0
G01 X299.705649 Y-176.5812 Z0
G01 X299.705649 Y-176.845984 Z0
G01 X0.5 Y-176.845984 Z0
G01 X0.5 Y-177.110768 Z0
G01 X0.5 Y-177.375552 Z0
G01 X299.705649 Y-177.375552 Z0
G01 X299.705649 Y-177.640335 Z0
G01 X299.705649 Y-177.905119 Z0
G01 X0.5 Y-177.905119 Z0
G01 X0.5 Y-178.169903 Z0
G01 X0.5 Y-178.434687 Z0
G01 X299.705649 Y-178.434687 Z0
G01 X299.705649 Y-178.69947 Z0
G01 X299.705649 Y-178.964254 Z0
G01 X0.5 Y-178.964254 Z0
G01 X0.5 Y-179.229038 Z0
G01 X0.5 Y-179.493822 Z0
G01 X299.705649 Y-179.493822 Z0
G01 X299.705649 Y-179.758605 Z0
G01 X299.705649 Y-180.023389 Z0

G00 Z180 (EOP take Z up)
G00 X0 Y0 (Move to home)
(Generated in 5.77 sec.)
