( PCB Contour )
( Generated by Rapid-PCB.com )
( Material Size)
( X= 100.000, Y= 70.000, Z= 1.580)
()
G00
G17
G21
G40
G49
G54
G80
G90
G94
G00 F3000 Z3.000
M03 S9000
G00 F3000 X40.444 Y69.030
G00 F1500 Z0
G01 F600 Z-0.200
G01 F600 X40.444 Y69.004
G01 F600 X40.419 Y69.004
G01 F600 X40.419 Y68.979
G01 F600 X40.394 Y68.979
G01 F600 X40.394 Y68.054
G01 F600 X40.419 Y68.054
G01 F600 X40.419 Y67.978
G01 F600 X40.444 Y67.978
G01 F600 X40.444 Y67.927
G01 F600 X40.470 Y67.927
G01 F600 X40.470 Y67.851
G01 F600 X40.495 Y67.851
G01 F600 X40.495 Y67.800
G01 F600 X40.520 Y67.800
G01 F600 X40.520 Y67.724
G01 F600 X40.546 Y67.724
G01 F600 X40.546 Y67.648
G01 F600 X40.571 Y67.648
G01 F600 X40.571 Y67.597
G01 F600 X40.597 Y67.597
G01 F600 X40.597 Y67.521
G01 F600 X40.622 Y67.521
G01 F600 X40.622 Y67.470
G01 F600 X40.648 Y67.470
G01 F600 X40.648 Y67.394
G01 F600 X40.673 Y67.394
G01 F600 X40.673 Y67.343
G01 F600 X40.698 Y67.343
G01 F600 X40.698 Y67.267
G01 F600 X40.724 Y67.267
G01 F600 X40.724 Y67.191
G01 F600 X40.749 Y67.191
G01 F600 X40.749 Y67.140
G01 F600 X40.775 Y67.140
G01 F600 X40.775 Y67.064
G01 F600 X40.800 Y67.064
G01 F600 X40.800 Y67.013
G01 F600 X40.825 Y67.013
G01 F600 X40.825 Y66.937
G01 F600 X40.851 Y66.937
G01 F600 X40.851 Y66.886
G01 F600 X40.876 Y66.886
G01 F600 X40.876 Y66.809
G01 F600 X40.901 Y66.809
G01 F600 X40.901 Y66.759
G01 F600 X40.927 Y66.759
G01 F600 X40.927 Y66.733
G01 F600 X40.952 Y66.733
G01 F600 X40.952 Y66.708
G01 F600 X41.471 Y66.708
G01 F600 X41.471 Y66.733
G01 F600 X41.496 Y66.733
G01 F600 X41.496 Y66.784
G01 F600 X41.522 Y66.784
G01 F600 X41.522 Y66.835
G01 F600 X41.547 Y66.835
G01 F600 X41.547 Y66.911
G01 F600 X41.572 Y66.911
G01 F600 X41.572 Y66.962
G01 F600 X41.598 Y66.962
G01 F600 X41.598 Y67.038
G01 F600 X41.623 Y67.038
G01 F600 X41.623 Y67.114
G01 F600 X41.648 Y67.114
G01 F600 X41.648 Y67.165
G01 F600 X41.674 Y67.165
G01 F600 X41.674 Y67.241
G01 F600 X41.699 Y67.241
G01 F600 X41.699 Y67.292
G01 F600 X41.725 Y67.292
G01 F600 X41.725 Y67.368
G01 F600 X41.750 Y67.368
G01 F600 X41.750 Y67.419
G01 F600 X41.776 Y67.419
G01 F600 X41.776 Y67.495
G01 F600 X41.801 Y67.495
G01 F600 X41.801 Y67.546
G01 F600 X41.826 Y67.546
G01 F600 X41.826 Y67.622
G01 F600 X41.852 Y67.622
G01 F600 X41.852 Y67.699
G01 F600 X41.877 Y67.699
G01 F600 X41.877 Y67.749
G01 F600 X41.903 Y67.749
G01 F600 X41.903 Y67.826
G01 F600 X41.928 Y67.826
G01 F600 X41.928 Y67.876
G01 F600 X41.953 Y67.876
G01 F600 X41.953 Y67.953
G01 F600 X41.979 Y67.953
G01 F600 X41.979 Y68.003
G01 F600 X42.004 Y68.003
G01 F600 X42.004 Y68.080
G01 F600 X42.029 Y68.080
G01 F600 X42.029 Y68.928
G01 F600 X42.004 Y68.928
G01 F600 X42.004 Y69.004
G01 F600 X41.953 Y69.004
G01 F600 X41.953 Y69.030
G01 F600 X41.460 Y69.030
G01 F600 X41.460 Y69.004
G01 F600 X41.435 Y69.004
G01 F600 X41.435 Y68.979
G01 F600 X41.410 Y68.979
G01 F600 X41.410 Y68.496
G01 F600 X41.384 Y68.496
G01 F600 X41.384 Y68.446
G01 F600 X41.359 Y68.446
G01 F600 X41.359 Y68.369
G01 F600 X41.333 Y68.369
G01 F600 X41.333 Y68.293
G01 F600 X41.308 Y68.293
G01 F600 X41.308 Y68.242
G01 F600 X41.282 Y68.242
G01 F600 X41.282 Y68.166
G01 F600 X41.257 Y68.166
G01 F600 X41.257 Y68.115
G01 F600 X41.232 Y68.115
G01 F600 X41.232 Y68.039
G01 F600 X41.206 Y68.039
G01 F600 X41.206 Y68.014
G01 F600 X41.191 Y68.014
G01 F600 X41.191 Y68.090
G01 F600 X41.166 Y68.090
G01 F600 X41.166 Y68.141
G01 F600 X41.141 Y68.141
G01 F600 X41.141 Y68.217
G01 F600 X41.115 Y68.217
G01 F600 X41.115 Y68.268
G01 F600 X41.090 Y68.268
G01 F600 X41.090 Y68.344
G01 F600 X41.064 Y68.344
G01 F600 X41.064 Y68.395
G01 F600 X41.039 Y68.395
G01 F600 X41.039 Y68.471
G01 F600 X41.014 Y68.471
G01 F600 X41.014 Y68.954
G01 F600 X40.988 Y68.954
G01 F600 X40.988 Y69.004
G01 F600 X40.963 Y69.004
G01 F600 X40.963 Y69.030
G01 F600 X40.444 Y69.030
G00 F3000 Z3.000
G00 F3000 X36.711 Y69.030
G00 F1500 Z0
G01 F600 Z-0.200
G01 F600 X36.711 Y66.784
G01 F600 X36.736 Y66.784
G01 F600 X36.736 Y66.733
G01 F600 X36.761 Y66.733
G01 F600 X36.761 Y66.708
G01 F600 X37.280 Y66.708
G01 F600 X37.280 Y66.733
G01 F600 X37.305 Y66.733
G01 F600 X37.305 Y66.759
G01 F600 X37.331 Y66.759
G01 F600 X37.331 Y67.470
G01 F600 X37.346 Y67.470
G01 F600 X37.346 Y67.419
G01 F600 X37.371 Y67.419
G01 F600 X37.371 Y67.368
G01 F600 X37.396 Y67.368
G01 F600 X37.396 Y67.318
G01 F600 X37.422 Y67.318
G01 F600 X37.422 Y67.292
G01 F600 X37.447 Y67.292
G01 F600 X37.447 Y67.241
G01 F600 X37.473 Y67.241
G01 F600 X37.473 Y67.191
G01 F600 X37.498 Y67.191
G01 F600 X37.498 Y67.165
G01 F600 X37.523 Y67.165
G01 F600 X37.523 Y67.114
G01 F600 X37.549 Y67.114
G01 F600 X37.549 Y67.064
G01 F600 X37.574 Y67.064
G01 F600 X37.574 Y67.013
G01 F600 X37.599 Y67.013
G01 F600 X37.599 Y66.987
G01 F600 X37.625 Y66.987
G01 F600 X37.625 Y66.937
G01 F600 X37.650 Y66.937
G01 F600 X37.650 Y66.886
G01 F600 X37.676 Y66.886
G01 F600 X37.676 Y66.860
G01 F600 X37.701 Y66.860
G01 F600 X37.701 Y66.809
G01 F600 X37.727 Y66.809
G01 F600 X37.727 Y66.759
G01 F600 X37.752 Y66.759
G01 F600 X37.752 Y66.733
G01 F600 X37.777 Y66.733
G01 F600 X37.777 Y66.708
G01 F600 X38.296 Y66.708
G01 F600 X38.296 Y66.733
G01 F600 X38.321 Y66.733
G01 F600 X38.321 Y66.759
G01 F600 X38.346 Y66.759
G01 F600 X38.346 Y67.252
G01 F600 X38.321 Y67.252
G01 F600 X38.321 Y67.303
G01 F600 X38.296 Y67.303
G01 F600 X38.296 Y67.328
G01 F600 X38.270 Y67.328
G01 F600 X38.270 Y67.379
G01 F600 X38.245 Y67.379
G01 F600 X38.245 Y67.430
G01 F600 X38.220 Y67.430
G01 F600 X38.220 Y67.455
G01 F600 X38.194 Y67.455
G01 F600 X38.194 Y67.506
G01 F600 X38.169 Y67.506
G01 F600 X38.169 Y67.556
G01 F600 X38.143 Y67.556
G01 F600 X38.143 Y67.607
G01 F600 X38.118 Y67.607
G01 F600 X38.118 Y67.633
G01 F600 X38.093 Y67.633
G01 F600 X38.093 Y67.684
G01 F600 X38.067 Y67.684
G01 F600 X38.067 Y67.734
G01 F600 X38.042 Y67.734
G01 F600 X38.042 Y67.760
G01 F600 X38.016 Y67.760
G01 F600 X38.016 Y67.775
G01 F600 X38.067 Y67.775
G01 F600 X38.067 Y67.800
G01 F600 X38.143 Y67.800
G01 F600 X38.143 Y67.826
G01 F600 X38.169 Y67.826
G01 F600 X38.169 Y67.851
G01 F600 X38.194 Y67.851
G01 F600 X38.194 Y67.876
G01 F600 X38.245 Y67.876
G01 F600 X38.245 Y67.902
G01 F600 X38.270 Y67.902
G01 F600 X38.270 Y67.953
G01 F600 X38.296 Y67.953
G01 F600 X38.296 Y67.978
G01 F600 X38.321 Y67.978
G01 F600 X38.321 Y68.054
G01 F600 X38.346 Y68.054
G01 F600 X38.346 Y68.750
G01 F600 X38.321 Y68.750
G01 F600 X38.321 Y68.827
G01 F600 X38.296 Y68.827
G01 F600 X38.296 Y68.877
G01 F600 X38.270 Y68.877
G01 F600 X38.270 Y68.903
G01 F600 X38.245 Y68.903
G01 F600 X38.245 Y68.928
G01 F600 X38.220 Y68.928
G01 F600 X38.220 Y68.954
G01 F600 X38.194 Y68.954
G01 F600 X38.194 Y68.979
G01 F600 X38.143 Y68.979
G01 F600 X38.143 Y69.004
G01 F600 X38.093 Y69.004
G01 F600 X38.093 Y69.030
G01 F600 X36.711 Y69.030
G00 F3000 Z3.000
G00 F3000 X38.616 Y69.030
G00 F1500 Z0
G01 F600 Z-0.200
G01 F600 X38.616 Y69.004
G01 F600 X38.590 Y69.004
G01 F600 X38.590 Y68.979
G01 F600 X38.565 Y68.979
G01 F600 X38.565 Y68.486
G01 F600 X38.590 Y68.486
G01 F600 X38.590 Y68.461
G01 F600 X38.616 Y68.461
G01 F600 X38.616 Y68.435
G01 F600 X38.666 Y68.435
G01 F600 X38.666 Y68.410
G01 F600 X39.047 Y68.410
G01 F600 X39.047 Y67.328
G01 F600 X38.666 Y67.328
G01 F600 X38.666 Y67.303
G01 F600 X38.616 Y67.303
G01 F600 X38.616 Y67.277
G01 F600 X38.590 Y67.277
G01 F600 X38.590 Y67.252
G01 F600 X38.565 Y67.252
G01 F600 X38.565 Y66.759
G01 F600 X38.590 Y66.759
G01 F600 X38.590 Y66.733
G01 F600 X38.616 Y66.733
G01 F600 X38.616 Y66.708
G01 F600 X38.692 Y66.708
G01 F600 X38.692 Y66.683
G01 F600 X40.048 Y66.683
G01 F600 X40.048 Y66.708
G01 F600 X40.125 Y66.708
G01 F600 X40.125 Y66.733
G01 F600 X40.150 Y66.733
G01 F600 X40.150 Y66.759
G01 F600 X40.175 Y66.759
G01 F600 X40.175 Y67.252
G01 F600 X40.150 Y67.252
G01 F600 X40.150 Y67.277
G01 F600 X40.125 Y67.277
G01 F600 X40.125 Y67.303
G01 F600 X40.074 Y67.303
G01 F600 X40.074 Y67.328
G01 F600 X39.667 Y67.328
G01 F600 X39.667 Y68.410
G01 F600 X40.074 Y68.410
G01 F600 X40.074 Y68.435
G01 F600 X40.125 Y68.435
G01 F600 X40.125 Y68.461
G01 F600 X40.150 Y68.461
G01 F600 X40.150 Y68.486
G01 F600 X40.175 Y68.486
G01 F600 X40.175 Y68.979
G01 F600 X40.150 Y68.979
G01 F600 X40.150 Y69.004
G01 F600 X40.125 Y69.004
G01 F600 X40.125 Y69.030
G01 F600 X38.616 Y69.030
G00 F3000 Z3.000
G00 F3000 X45.956 Y69.030
G00 F1500 Z0
G01 F600 Z-0.200
G01 F600 X45.956 Y69.004
G01 F600 X45.931 Y69.004
G01 F600 X45.931 Y68.979
G01 F600 X45.905 Y68.979
G01 F600 X45.905 Y68.054
G01 F600 X45.931 Y68.054
G01 F600 X45.931 Y67.978
G01 F600 X45.956 Y67.978
G01 F600 X45.956 Y67.902
G01 F600 X45.982 Y67.902
G01 F600 X45.982 Y67.851
G01 F600 X46.007 Y67.851
G01 F600 X46.007 Y67.775
G01 F600 X46.032 Y67.775
G01 F600 X46.032 Y67.724
G01 F600 X46.058 Y67.724
G01 F600 X46.058 Y67.648
G01 F600 X46.083 Y67.648
G01 F600 X46.083 Y67.597
G01 F600 X46.108 Y67.597
G01 F600 X46.108 Y67.521
G01 F600 X46.134 Y67.521
G01 F600 X46.134 Y67.445
G01 F600 X46.159 Y67.445
G01 F600 X46.159 Y67.394
G01 F600 X46.185 Y67.394
G01 F600 X46.185 Y67.318
G01 F600 X46.210 Y67.318
G01 F600 X46.210 Y67.267
G01 F600 X46.236 Y67.267
G01 F600 X46.236 Y67.191
G01 F600 X46.261 Y67.191
G01 F600 X46.261 Y67.140
G01 F600 X46.286 Y67.140
G01 F600 X46.286 Y67.064
G01 F600 X46.312 Y67.064
G01 F600 X46.312 Y66.987
G01 F600 X46.337 Y66.987
G01 F600 X46.337 Y66.937
G01 F600 X46.363 Y66.937
G01 F600 X46.363 Y66.860
G01 F600 X46.388 Y66.860
G01 F600 X46.388 Y66.809
G01 F600 X46.413 Y66.809
G01 F600 X46.413 Y66.759
G01 F600 X46.439 Y66.759
G01 F600 X46.439 Y66.733
G01 F600 X46.464 Y66.733
G01 F600 X46.464 Y66.708
G01 F600 X46.983 Y66.708
G01 F600 X46.983 Y66.733
G01 F600 X47.008 Y66.733
G01 F600 X47.008 Y66.784
G01 F600 X47.033 Y66.784
G01 F600 X47.033 Y66.860
G01 F600 X47.059 Y66.860
G01 F600 X47.059 Y66.911
G01 F600 X47.084 Y66.911
G01 F600 X47.084 Y66.987
G01 F600 X47.110 Y66.987
G01 F600 X47.110 Y67.038
G01 F600 X47.135 Y67.038
G01 F600 X47.135 Y67.114
G01 F600 X47.160 Y67.114
G01 F600 X47.160 Y67.165
G01 F600 X47.186 Y67.165
G01 F600 X47.186 Y67.241
G01 F600 X47.211 Y67.241
G01 F600 X47.211 Y67.318
G01 F600 X47.236 Y67.318
G01 F600 X47.236 Y67.368
G01 F600 X47.262 Y67.368
G01 F600 X47.262 Y67.445
G01 F600 X47.287 Y67.445
G01 F600 X47.287 Y67.495
G01 F600 X47.313 Y67.495
G01 F600 X47.313 Y67.572
G01 F600 X47.338 Y67.572
G01 F600 X47.338 Y67.622
G01 F600 X47.364 Y67.622
G01 F600 X47.364 Y67.699
G01 F600 X47.389 Y67.699
G01 F600 X47.389 Y67.749
G01 F600 X47.414 Y67.749
G01 F600 X47.414 Y67.826
G01 F600 X47.440 Y67.826
G01 F600 X47.440 Y67.902
G01 F600 X47.465 Y67.902
G01 F600 X47.465 Y67.953
G01 F600 X47.491 Y67.953
G01 F600 X47.491 Y68.029
G01 F600 X47.516 Y68.029
G01 F600 X47.516 Y68.080
G01 F600 X47.541 Y68.080
G01 F600 X47.541 Y68.928
G01 F600 X47.516 Y68.928
G01 F600 X47.516 Y68.979
G01 F600 X47.491 Y68.979
G01 F600 X47.491 Y69.004
G01 F600 X47.465 Y69.004
G01 F600 X47.465 Y69.030
G01 F600 X46.972 Y69.030
G01 F600 X46.972 Y69.004
G01 F600 X46.947 Y69.004
G01 F600 X46.947 Y68.979
G01 F600 X46.921 Y68.979
G01 F600 X46.921 Y68.928
G01 F600 X46.896 Y68.928
G01 F600 X46.896 Y68.446
G01 F600 X46.870 Y68.446
G01 F600 X46.870 Y68.369
G01 F600 X46.845 Y68.369
G01 F600 X46.845 Y68.319
G01 F600 X46.820 Y68.319
G01 F600 X46.820 Y68.242
G01 F600 X46.794 Y68.242
G01 F600 X46.794 Y68.192
G01 F600 X46.769 Y68.192
G01 F600 X46.769 Y68.115
G01 F600 X46.744 Y68.115
G01 F600 X46.744 Y68.065
G01 F600 X46.718 Y68.065
G01 F600 X46.718 Y68.014
G01 F600 X46.703 Y68.014
G01 F600 X46.703 Y68.065
G01 F600 X46.678 Y68.065
G01 F600 X46.678 Y68.141
G01 F600 X46.652 Y68.141
G01 F600 X46.652 Y68.217
G01 F600 X46.627 Y68.217
G01 F600 X46.627 Y68.268
G01 F600 X46.602 Y68.268
G01 F600 X46.602 Y68.344
G01 F600 X46.576 Y68.344
G01 F600 X46.576 Y68.395
G01 F600 X46.551 Y68.395
G01 F600 X46.551 Y68.471
G01 F600 X46.525 Y68.471
G01 F600 X46.525 Y68.954
G01 F600 X46.500 Y68.954
G01 F600 X46.500 Y69.004
G01 F600 X46.474 Y69.004
G01 F600 X46.474 Y69.030
G01 F600 X45.956 Y69.030
G00 F3000 Z3.000
G00 F3000 X47.785 Y69.030
G00 F1500 Z0
G01 F600 Z-0.200
G01 F600 X47.785 Y69.004
G01 F600 X47.760 Y69.004
G01 F600 X47.760 Y68.954
G01 F600 X47.734 Y68.954
G01 F600 X47.734 Y68.511
G01 F600 X47.760 Y68.511
G01 F600 X47.760 Y68.461
G01 F600 X47.785 Y68.461
G01 F600 X47.785 Y68.435
G01 F600 X47.836 Y68.435
G01 F600 X47.836 Y68.410
G01 F600 X48.242 Y68.410
G01 F600 X48.242 Y67.328
G01 F600 X47.861 Y67.328
G01 F600 X47.861 Y67.303
G01 F600 X47.785 Y67.303
G01 F600 X47.785 Y67.277
G01 F600 X47.760 Y67.277
G01 F600 X47.760 Y67.226
G01 F600 X47.734 Y67.226
G01 F600 X47.734 Y66.784
G01 F600 X47.760 Y66.784
G01 F600 X47.760 Y66.733
G01 F600 X47.785 Y66.733
G01 F600 X47.785 Y66.708
G01 F600 X47.861 Y66.708
G01 F600 X47.861 Y66.683
G01 F600 X49.243 Y66.683
G01 F600 X49.243 Y66.708
G01 F600 X49.319 Y66.708
G01 F600 X49.319 Y66.733
G01 F600 X49.345 Y66.733
G01 F600 X49.345 Y66.784
G01 F600 X49.370 Y66.784
G01 F600 X49.370 Y67.887
G01 F600 X49.345 Y67.887
G01 F600 X49.345 Y67.912
G01 F600 X49.319 Y67.912
G01 F600 X49.319 Y67.938
G01 F600 X49.294 Y67.938
G01 F600 X49.294 Y67.963
G01 F600 X48.862 Y67.963
G01 F600 X48.862 Y69.030
G01 F600 X47.785 Y69.030
G00 F3000 Z3.000
G00 F3000 X42.222 Y69.030
G00 F1500 Z0
G01 F600 Z-0.200
G01 F600 X42.222 Y66.708
G01 F600 X42.248 Y66.708
G01 F600 X42.248 Y66.683
G01 F600 X43.731 Y66.683
G01 F600 X43.731 Y66.708
G01 F600 X43.808 Y66.708
G01 F600 X43.808 Y66.733
G01 F600 X43.833 Y66.733
G01 F600 X43.833 Y66.784
G01 F600 X43.858 Y66.784
G01 F600 X43.858 Y67.252
G01 F600 X43.833 Y67.252
G01 F600 X43.833 Y67.277
G01 F600 X43.808 Y67.277
G01 F600 X43.808 Y67.303
G01 F600 X43.731 Y67.303
G01 F600 X43.731 Y67.328
G01 F600 X42.842 Y67.328
G01 F600 X42.842 Y67.546
G01 F600 X43.223 Y67.546
G01 F600 X43.223 Y67.572
G01 F600 X43.300 Y67.572
G01 F600 X43.300 Y67.597
G01 F600 X43.325 Y67.597
G01 F600 X43.325 Y67.622
G01 F600 X43.350 Y67.622
G01 F600 X43.350 Y68.115
G01 F600 X43.325 Y68.115
G01 F600 X43.325 Y68.141
G01 F600 X43.300 Y68.141
G01 F600 X43.300 Y68.166
G01 F600 X43.223 Y68.166
G01 F600 X43.223 Y68.192
G01 F600 X42.842 Y68.192
G01 F600 X42.842 Y68.410
G01 F600 X43.757 Y68.410
G01 F600 X43.757 Y68.435
G01 F600 X43.808 Y68.435
G01 F600 X43.808 Y68.461
G01 F600 X43.833 Y68.461
G01 F600 X43.833 Y68.486
G01 F600 X43.858 Y68.486
G01 F600 X43.858 Y68.954
G01 F600 X43.833 Y68.954
G01 F600 X43.833 Y69.004
G01 F600 X43.808 Y69.004
G01 F600 X43.808 Y69.030
G01 F600 X42.222 Y69.030
G00 F3000 Z3.000
G00 F3000 X25.763 Y69.030
G00 F1500 Z0
G01 F600 Z-0.200
G01 F600 X25.763 Y69.004
G01 F600 X25.738 Y69.004
G01 F600 X25.738 Y68.979
G01 F600 X25.712 Y68.979
G01 F600 X25.712 Y66.759
G01 F600 X25.738 Y66.759
G01 F600 X25.738 Y66.733
G01 F600 X25.763 Y66.733
G01 F600 X25.763 Y66.708
G01 F600 X26.256 Y66.708
G01 F600 X26.256 Y66.733
G01 F600 X26.282 Y66.733
G01 F600 X26.282 Y66.759
G01 F600 X26.307 Y66.759
G01 F600 X26.307 Y66.809
G01 F600 X26.332 Y66.809
G01 F600 X26.332 Y67.546
G01 F600 X26.703 Y67.546
G01 F600 X26.703 Y66.784
G01 F600 X26.728 Y66.784
G01 F600 X26.728 Y66.733
G01 F600 X26.754 Y66.733
G01 F600 X26.754 Y66.708
G01 F600 X27.272 Y66.708
G01 F600 X27.272 Y66.733
G01 F600 X27.298 Y66.733
G01 F600 X27.298 Y66.759
G01 F600 X27.323 Y66.759
G01 F600 X27.323 Y68.979
G01 F600 X27.298 Y68.979
G01 F600 X27.298 Y69.004
G01 F600 X27.272 Y69.004
G01 F600 X27.272 Y69.030
G01 F600 X26.754 Y69.030
G01 F600 X26.754 Y69.004
G01 F600 X26.728 Y69.004
G01 F600 X26.728 Y68.954
G01 F600 X26.703 Y68.954
G01 F600 X26.703 Y68.192
G01 F600 X26.332 Y68.192
G01 F600 X26.332 Y68.928
G01 F600 X26.307 Y68.928
G01 F600 X26.307 Y68.979
G01 F600 X26.282 Y68.979
G01 F600 X26.282 Y69.004
G01 F600 X26.256 Y69.004
G01 F600 X26.256 Y69.030
G01 F600 X25.763 Y69.030
G00 F3000 Z3.000
G00 F3000 X18.346 Y69.030
G00 F1500 Z0
G01 F600 Z-0.200
G01 F600 X18.346 Y66.708
G01 F600 X18.372 Y66.708
G01 F600 X18.372 Y66.683
G01 F600 X19.474 Y66.683
G01 F600 X19.474 Y66.708
G01 F600 X19.627 Y66.708
G01 F600 X19.627 Y66.733
G01 F600 X19.703 Y66.733
G01 F600 X19.703 Y66.759
G01 F600 X19.728 Y66.759
G01 F600 X19.728 Y66.784
G01 F600 X19.779 Y66.784
G01 F600 X19.779 Y66.809
G01 F600 X19.805 Y66.809
G01 F600 X19.805 Y66.835
G01 F600 X19.830 Y66.835
G01 F600 X19.830 Y66.860
G01 F600 X19.855 Y66.860
G01 F600 X19.855 Y66.886
G01 F600 X19.881 Y66.886
G01 F600 X19.881 Y66.911
G01 F600 X19.906 Y66.911
G01 F600 X19.906 Y66.962
G01 F600 X19.931 Y66.962
G01 F600 X19.931 Y67.013
G01 F600 X19.957 Y67.013
G01 F600 X19.957 Y67.089
G01 F600 X19.982 Y67.089
G01 F600 X19.982 Y67.785
G01 F600 X19.957 Y67.785
G01 F600 X19.957 Y67.861
G01 F600 X19.931 Y67.861
G01 F600 X19.931 Y67.876
G01 F600 X19.957 Y67.876
G01 F600 X19.957 Y67.953
G01 F600 X19.982 Y67.953
G01 F600 X19.982 Y68.649
G01 F600 X19.957 Y68.649
G01 F600 X19.957 Y68.725
G01 F600 X19.931 Y68.725
G01 F600 X19.931 Y68.776
G01 F600 X19.906 Y68.776
G01 F600 X19.906 Y68.827
G01 F600 X19.881 Y68.827
G01 F600 X19.881 Y68.852
G01 F600 X19.855 Y68.852
G01 F600 X19.855 Y68.877
G01 F600 X19.830 Y68.877
G01 F600 X19.830 Y68.903
G01 F600 X19.805 Y68.903
G01 F600 X19.805 Y68.928
G01 F600 X19.779 Y68.928
G01 F600 X19.779 Y68.954
G01 F600 X19.728 Y68.954
G01 F600 X19.728 Y68.979
G01 F600 X19.678 Y68.979
G01 F600 X19.678 Y69.004
G01 F600 X19.627 Y69.004
G01 F600 X19.627 Y69.030
G01 F600 X18.346 Y69.030
G00 F3000 Z3.000
G00 F3000 X22.334 Y69.030
G00 F1500 Z0
G01 F600 Z-0.200
G01 F600 X22.334 Y69.004
G01 F600 X22.309 Y69.004
G01 F600 X22.309 Y68.979
G01 F600 X22.283 Y68.979
G01 F600 X22.283 Y68.192
G01 F600 X22.258 Y68.192
G01 F600 X22.258 Y68.166
G01 F600 X22.182 Y68.166
G01 F600 X22.182 Y68.141
G01 F600 X22.131 Y68.141
G01 F600 X22.131 Y68.115
G01 F600 X22.106 Y68.115
G01 F600 X22.106 Y68.090
G01 F600 X22.080 Y68.090
G01 F600 X22.080 Y68.065
G01 F600 X22.055 Y68.065
G01 F600 X22.055 Y68.014
G01 F600 X22.029 Y68.014
G01 F600 X22.029 Y66.860
G01 F600 X22.055 Y66.860
G01 F600 X22.055 Y66.809
G01 F600 X22.080 Y66.809
G01 F600 X22.080 Y66.784
G01 F600 X22.106 Y66.784
G01 F600 X22.106 Y66.759
G01 F600 X22.131 Y66.759
G01 F600 X22.131 Y66.733
G01 F600 X22.182 Y66.733
G01 F600 X22.182 Y66.708
G01 F600 X22.283 Y66.708
G01 F600 X22.283 Y66.683
G01 F600 X23.411 Y66.683
G01 F600 X23.411 Y66.708
G01 F600 X23.513 Y66.708
G01 F600 X23.513 Y66.733
G01 F600 X23.538 Y66.733
G01 F600 X23.538 Y66.759
G01 F600 X23.589 Y66.759
G01 F600 X23.589 Y66.784
G01 F600 X23.614 Y66.784
G01 F600 X23.614 Y66.835
G01 F600 X23.640 Y66.835
G01 F600 X23.640 Y66.911
G01 F600 X23.665 Y66.911
G01 F600 X23.665 Y67.963
G01 F600 X23.640 Y67.963
G01 F600 X23.640 Y68.039
G01 F600 X23.614 Y68.039
G01 F600 X23.614 Y68.090
G01 F600 X23.589 Y68.090
G01 F600 X23.589 Y68.115
G01 F600 X23.564 Y68.115
G01 F600 X23.564 Y68.141
G01 F600 X23.513 Y68.141
G01 F600 X23.513 Y68.166
G01 F600 X23.411 Y68.166
G01 F600 X23.411 Y68.928
G01 F600 X23.386 Y68.928
G01 F600 X23.386 Y69.004
G01 F600 X23.361 Y69.004
G01 F600 X23.361 Y69.030
G01 F600 X22.334 Y69.030
G00 F3000 Z3.000
G00 F3000 X31.275 Y69.030
G00 F1500 Z0
G01 F600 Z-0.200
G01 F600 X31.275 Y69.004
G01 F600 X31.250 Y69.004
G01 F600 X31.250 Y68.979
G01 F600 X31.224 Y68.979
G01 F600 X31.224 Y68.928
G01 F600 X31.199 Y68.928
G01 F600 X31.199 Y68.537
G01 F600 X31.224 Y68.537
G01 F600 X31.224 Y68.461
G01 F600 X31.250 Y68.461
G01 F600 X31.250 Y68.435
G01 F600 X31.326 Y68.435
G01 F600 X31.326 Y68.410
G01 F600 X31.453 Y68.410
G01 F600 X31.453 Y67.328
G01 F600 X31.326 Y67.328
G01 F600 X31.326 Y67.303
G01 F600 X31.250 Y67.303
G01 F600 X31.250 Y67.277
G01 F600 X31.224 Y67.277
G01 F600 X31.224 Y67.201
G01 F600 X31.199 Y67.201
G01 F600 X31.199 Y66.809
G01 F600 X31.224 Y66.809
G01 F600 X31.224 Y66.759
G01 F600 X31.250 Y66.759
G01 F600 X31.250 Y66.733
G01 F600 X31.275 Y66.733
G01 F600 X31.275 Y66.708
G01 F600 X31.351 Y66.708
G01 F600 X31.351 Y66.683
G01 F600 X32.174 Y66.683
G01 F600 X32.174 Y66.708
G01 F600 X32.327 Y66.708
G01 F600 X32.327 Y66.733
G01 F600 X32.378 Y66.733
G01 F600 X32.378 Y66.759
G01 F600 X32.403 Y66.759
G01 F600 X32.403 Y66.784
G01 F600 X32.428 Y66.784
G01 F600 X32.428 Y66.809
G01 F600 X32.454 Y66.809
G01 F600 X32.454 Y66.835
G01 F600 X32.479 Y66.835
G01 F600 X32.479 Y66.860
G01 F600 X32.505 Y66.860
G01 F600 X32.505 Y66.911
G01 F600 X32.530 Y66.911
G01 F600 X32.530 Y66.962
G01 F600 X32.555 Y66.962
G01 F600 X32.555 Y67.013
G01 F600 X32.581 Y67.013
G01 F600 X32.581 Y67.064
G01 F600 X32.606 Y67.064
G01 F600 X32.606 Y67.114
G01 F600 X32.632 Y67.114
G01 F600 X32.632 Y67.165
G01 F600 X32.657 Y67.165
G01 F600 X32.657 Y67.216
G01 F600 X32.682 Y67.216
G01 F600 X32.682 Y67.267
G01 F600 X32.708 Y67.267
G01 F600 X32.708 Y67.318
G01 F600 X32.733 Y67.318
G01 F600 X32.733 Y67.368
G01 F600 X32.759 Y67.368
G01 F600 X32.759 Y67.419
G01 F600 X32.784 Y67.419
G01 F600 X32.784 Y67.470
G01 F600 X32.809 Y67.470
G01 F600 X32.809 Y67.546
G01 F600 X32.835 Y67.546
G01 F600 X32.835 Y68.192
G01 F600 X32.809 Y68.192
G01 F600 X32.809 Y68.268
G01 F600 X32.784 Y68.268
G01 F600 X32.784 Y68.319
G01 F600 X32.759 Y68.319
G01 F600 X32.759 Y68.369
G01 F600 X32.733 Y68.369
G01 F600 X32.733 Y68.420
G01 F600 X32.708 Y68.420
G01 F600 X32.708 Y68.471
G01 F600 X32.682 Y68.471
G01 F600 X32.682 Y68.522
G01 F600 X32.657 Y68.522
G01 F600 X32.657 Y68.573
G01 F600 X32.632 Y68.573
G01 F600 X32.632 Y68.623
G01 F600 X32.606 Y68.623
G01 F600 X32.606 Y68.674
G01 F600 X32.581 Y68.674
G01 F600 X32.581 Y68.725
G01 F600 X32.555 Y68.725
G01 F600 X32.555 Y68.776
G01 F600 X32.530 Y68.776
G01 F600 X32.530 Y68.827
G01 F600 X32.505 Y68.827
G01 F600 X32.505 Y68.877
G01 F600 X32.479 Y68.877
G01 F600 X32.479 Y68.903
G01 F600 X32.454 Y68.903
G01 F600 X32.454 Y68.928
G01 F600 X32.428 Y68.928
G01 F600 X32.428 Y68.954
G01 F600 X32.403 Y68.954
G01 F600 X32.403 Y68.979
G01 F600 X32.352 Y68.979
G01 F600 X32.352 Y69.004
G01 F600 X32.301 Y69.004
G01 F600 X32.301 Y69.030
G01 F600 X31.275 Y69.030
G00 F3000 Z3.000
G00 F3000 X34.933 Y69.030
G00 F1500 Z0
G01 F600 Z-0.200
G01 F600 X34.933 Y69.004
G01 F600 X34.907 Y69.004
G01 F600 X34.907 Y68.954
G01 F600 X34.882 Y68.954
G01 F600 X34.882 Y68.486
G01 F600 X34.907 Y68.486
G01 F600 X34.907 Y68.461
G01 F600 X34.933 Y68.461
G01 F600 X34.933 Y68.435
G01 F600 X34.983 Y68.435
G01 F600 X34.983 Y68.410
G01 F600 X35.136 Y68.410
G01 F600 X35.136 Y67.328
G01 F600 X35.009 Y67.328
G01 F600 X35.009 Y67.303
G01 F600 X34.933 Y67.303
G01 F600 X34.933 Y67.277
G01 F600 X34.907 Y67.277
G01 F600 X34.907 Y67.252
G01 F600 X34.882 Y67.252
G01 F600 X34.882 Y66.759
G01 F600 X34.907 Y66.759
G01 F600 X34.907 Y66.733
G01 F600 X34.933 Y66.733
G01 F600 X34.933 Y66.708
G01 F600 X35.009 Y66.708
G01 F600 X35.009 Y66.683
G01 F600 X35.857 Y66.683
G01 F600 X35.857 Y66.708
G01 F600 X35.984 Y66.708
G01 F600 X35.984 Y66.733
G01 F600 X36.035 Y66.733
G01 F600 X36.035 Y66.759
G01 F600 X36.086 Y66.759
G01 F600 X36.086 Y66.784
G01 F600 X36.111 Y66.784
G01 F600 X36.111 Y66.809
G01 F600 X36.137 Y66.809
G01 F600 X36.137 Y66.835
G01 F600 X36.162 Y66.835
G01 F600 X36.162 Y66.860
G01 F600 X36.188 Y66.860
G01 F600 X36.188 Y66.911
G01 F600 X36.213 Y66.911
G01 F600 X36.213 Y66.962
G01 F600 X36.238 Y66.962
G01 F600 X36.238 Y67.013
G01 F600 X36.264 Y67.013
G01 F600 X36.264 Y67.064
G01 F600 X36.289 Y67.064
G01 F600 X36.289 Y67.114
G01 F600 X36.315 Y67.114
G01 F600 X36.315 Y67.165
G01 F600 X36.340 Y67.165
G01 F600 X36.340 Y67.241
G01 F600 X36.365 Y67.241
G01 F600 X36.365 Y67.292
G01 F600 X36.391 Y67.292
G01 F600 X36.391 Y67.343
G01 F600 X36.416 Y67.343
G01 F600 X36.416 Y67.394
G01 F600 X36.442 Y67.394
G01 F600 X36.442 Y67.445
G01 F600 X36.467 Y67.445
G01 F600 X36.467 Y67.495
G01 F600 X36.492 Y67.495
G01 F600 X36.492 Y67.597
G01 F600 X36.518 Y67.597
G01 F600 X36.518 Y68.141
G01 F600 X36.492 Y68.141
G01 F600 X36.492 Y68.242
G01 F600 X36.467 Y68.242
G01 F600 X36.467 Y68.293
G01 F600 X36.442 Y68.293
G01 F600 X36.442 Y68.344
G01 F600 X36.416 Y68.344
G01 F600 X36.416 Y68.395
G01 F600 X36.391 Y68.395
G01 F600 X36.391 Y68.446
G01 F600 X36.365 Y68.446
G01 F600 X36.365 Y68.496
G01 F600 X36.340 Y68.496
G01 F600 X36.340 Y68.547
G01 F600 X36.315 Y68.547
G01 F600 X36.315 Y68.598
G01 F600 X36.289 Y68.598
G01 F600 X36.289 Y68.649
G01 F600 X36.264 Y68.649
G01 F600 X36.264 Y68.700
G01 F600 X36.238 Y68.700
G01 F600 X36.238 Y68.750
G01 F600 X36.213 Y68.750
G01 F600 X36.213 Y68.801
G01 F600 X36.188 Y68.801
G01 F600 X36.188 Y68.852
G01 F600 X36.162 Y68.852
G01 F600 X36.162 Y68.903
G01 F600 X36.137 Y68.903
G01 F600 X36.137 Y68.928
G01 F600 X36.086 Y68.928
G01 F600 X36.086 Y68.954
G01 F600 X36.061 Y68.954
G01 F600 X36.061 Y68.979
G01 F600 X36.035 Y68.979
G01 F600 X36.035 Y69.004
G01 F600 X35.984 Y69.004
G01 F600 X35.984 Y69.030
G01 F600 X34.933 Y69.030
G00 F3000 Z3.000
G00 F3000 X27.541 Y69.030
G00 F1500 Z0
G01 F600 Z-0.200
G01 F600 X27.541 Y66.683
G01 F600 X29.025 Y66.683
G01 F600 X29.025 Y66.708
G01 F600 X29.101 Y66.708
G01 F600 X29.101 Y66.733
G01 F600 X29.126 Y66.733
G01 F600 X29.126 Y66.759
G01 F600 X29.152 Y66.759
G01 F600 X29.152 Y66.809
G01 F600 X29.177 Y66.809
G01 F600 X29.177 Y67.201
G01 F600 X29.152 Y67.201
G01 F600 X29.152 Y67.277
G01 F600 X29.101 Y67.277
G01 F600 X29.101 Y67.303
G01 F600 X29.050 Y67.303
G01 F600 X29.050 Y67.328
G01 F600 X28.161 Y67.328
G01 F600 X28.161 Y67.546
G01 F600 X28.542 Y67.546
G01 F600 X28.542 Y67.572
G01 F600 X28.618 Y67.572
G01 F600 X28.618 Y67.597
G01 F600 X28.644 Y67.597
G01 F600 X28.644 Y67.648
G01 F600 X28.669 Y67.648
G01 F600 X28.669 Y68.090
G01 F600 X28.644 Y68.090
G01 F600 X28.644 Y68.141
G01 F600 X28.618 Y68.141
G01 F600 X28.618 Y68.166
G01 F600 X28.542 Y68.166
G01 F600 X28.542 Y68.192
G01 F600 X28.161 Y68.192
G01 F600 X28.161 Y68.410
G01 F600 X29.050 Y68.410
G01 F600 X29.050 Y68.435
G01 F600 X29.126 Y68.435
G01 F600 X29.126 Y68.461
G01 F600 X29.152 Y68.461
G01 F600 X29.152 Y68.537
G01 F600 X29.177 Y68.537
G01 F600 X29.177 Y68.928
G01 F600 X29.152 Y68.928
G01 F600 X29.152 Y68.979
G01 F600 X29.126 Y68.979
G01 F600 X29.126 Y69.004
G01 F600 X29.101 Y69.004
G01 F600 X29.101 Y69.030
G01 F600 X27.541 Y69.030
G00 F3000 Z3.000
G00 F3000 X29.929 Y69.030
G00 F1500 Z0
G01 F600 Z-0.200
G01 F600 X29.929 Y69.004
G01 F600 X29.903 Y69.004
G01 F600 X29.903 Y68.979
G01 F600 X29.878 Y68.979
G01 F600 X29.878 Y68.903
G01 F600 X29.853 Y68.903
G01 F600 X29.853 Y68.801
G01 F600 X29.827 Y68.801
G01 F600 X29.827 Y68.725
G01 F600 X29.802 Y68.725
G01 F600 X29.802 Y68.649
G01 F600 X29.776 Y68.649
G01 F600 X29.776 Y68.547
G01 F600 X29.751 Y68.547
G01 F600 X29.751 Y68.471
G01 F600 X29.726 Y68.471
G01 F600 X29.726 Y68.369
G01 F600 X29.700 Y68.369
G01 F600 X29.700 Y68.293
G01 F600 X29.675 Y68.293
G01 F600 X29.675 Y68.192
G01 F600 X29.649 Y68.192
G01 F600 X29.649 Y68.115
G01 F600 X29.624 Y68.115
G01 F600 X29.624 Y68.039
G01 F600 X29.599 Y68.039
G01 F600 X29.599 Y67.938
G01 F600 X29.573 Y67.938
G01 F600 X29.573 Y67.861
G01 F600 X29.548 Y67.861
G01 F600 X29.548 Y67.760
G01 F600 X29.522 Y67.760
G01 F600 X29.522 Y67.684
G01 F600 X29.497 Y67.684
G01 F600 X29.497 Y67.607
G01 F600 X29.472 Y67.607
G01 F600 X29.472 Y67.506
G01 F600 X29.446 Y67.506
G01 F600 X29.446 Y67.430
G01 F600 X29.421 Y67.430
G01 F600 X29.421 Y67.328
G01 F600 X29.395 Y67.328
G01 F600 X29.395 Y67.252
G01 F600 X29.370 Y67.252
G01 F600 X29.370 Y66.759
G01 F600 X29.395 Y66.759
G01 F600 X29.395 Y66.733
G01 F600 X29.421 Y66.733
G01 F600 X29.421 Y66.708
G01 F600 X29.939 Y66.708
G01 F600 X29.939 Y66.733
G01 F600 X29.965 Y66.733
G01 F600 X29.965 Y66.759
G01 F600 X29.990 Y66.759
G01 F600 X29.990 Y66.835
G01 F600 X30.015 Y66.835
G01 F600 X30.015 Y66.937
G01 F600 X30.041 Y66.937
G01 F600 X30.041 Y67.013
G01 F600 X30.066 Y67.013
G01 F600 X30.066 Y67.089
G01 F600 X30.091 Y67.089
G01 F600 X30.091 Y67.114
G01 F600 X30.284 Y67.114
G01 F600 X30.284 Y67.089
G01 F600 X30.310 Y67.089
G01 F600 X30.310 Y67.013
G01 F600 X30.335 Y67.013
G01 F600 X30.335 Y66.911
G01 F600 X30.361 Y66.911
G01 F600 X30.361 Y66.835
G01 F600 X30.386 Y66.835
G01 F600 X30.386 Y66.759
G01 F600 X30.411 Y66.759
G01 F600 X30.411 Y66.733
G01 F600 X30.437 Y66.733
G01 F600 X30.437 Y66.708
G01 F600 X30.955 Y66.708
G01 F600 X30.955 Y66.733
G01 F600 X30.981 Y66.733
G01 F600 X30.981 Y66.784
G01 F600 X31.006 Y66.784
G01 F600 X31.006 Y67.226
G01 F600 X30.981 Y67.226
G01 F600 X30.981 Y67.328
G01 F600 X30.955 Y67.328
G01 F600 X30.955 Y67.404
G01 F600 X30.930 Y67.404
G01 F600 X30.930 Y67.506
G01 F600 X30.904 Y67.506
G01 F600 X30.904 Y67.582
G01 F600 X30.879 Y67.582
G01 F600 X30.879 Y67.658
G01 F600 X30.854 Y67.658
G01 F600 X30.854 Y67.760
G01 F600 X30.828 Y67.760
G01 F600 X30.828 Y67.836
G01 F600 X30.803 Y67.836
G01 F600 X30.803 Y67.938
G01 F600 X30.777 Y67.938
G01 F600 X30.777 Y68.014
G01 F600 X30.752 Y68.014
G01 F600 X30.752 Y68.115
G01 F600 X30.727 Y68.115
G01 F600 X30.727 Y68.192
G01 F600 X30.701 Y68.192
G01 F600 X30.701 Y68.268
G01 F600 X30.676 Y68.268
G01 F600 X30.676 Y68.369
G01 F600 X30.650 Y68.369
G01 F600 X30.650 Y68.446
G01 F600 X30.625 Y68.446
G01 F600 X30.625 Y68.547
G01 F600 X30.600 Y68.547
G01 F600 X30.600 Y68.623
G01 F600 X30.574 Y68.623
G01 F600 X30.574 Y68.725
G01 F600 X30.549 Y68.725
G01 F600 X30.549 Y68.801
G01 F600 X30.523 Y68.801
G01 F600 X30.523 Y68.877
G01 F600 X30.498 Y68.877
G01 F600 X30.498 Y68.979
G01 F600 X30.473 Y68.979
G01 F600 X30.473 Y69.004
G01 F600 X30.447 Y69.004
G01 F600 X30.447 Y69.030
G01 F600 X29.929 Y69.030
G00 F3000 Z3.000
G00 F3000 X16.518 Y69.030
G00 F1500 Z0
G01 F600 Z-0.200
G01 F600 X16.518 Y66.708
G01 F600 X16.543 Y66.708
G01 F600 X16.543 Y66.683
G01 F600 X17.646 Y66.683
G01 F600 X17.646 Y66.708
G01 F600 X17.798 Y66.708
G01 F600 X17.798 Y66.733
G01 F600 X17.849 Y66.733
G01 F600 X17.849 Y66.759
G01 F600 X17.899 Y66.759
G01 F600 X17.899 Y66.784
G01 F600 X17.925 Y66.784
G01 F600 X17.925 Y66.809
G01 F600 X17.976 Y66.809
G01 F600 X17.976 Y66.835
G01 F600 X18.001 Y66.835
G01 F600 X18.001 Y66.860
G01 F600 X18.027 Y66.860
G01 F600 X18.027 Y66.886
G01 F600 X18.052 Y66.886
G01 F600 X18.052 Y66.937
G01 F600 X18.077 Y66.937
G01 F600 X18.077 Y66.987
G01 F600 X18.103 Y66.987
G01 F600 X18.103 Y67.038
G01 F600 X18.128 Y67.038
G01 F600 X18.128 Y67.114
G01 F600 X18.154 Y67.114
G01 F600 X18.154 Y67.760
G01 F600 X18.128 Y67.760
G01 F600 X18.128 Y67.836
G01 F600 X18.103 Y67.836
G01 F600 X18.103 Y67.902
G01 F600 X18.128 Y67.902
G01 F600 X18.128 Y67.978
G01 F600 X18.154 Y67.978
G01 F600 X18.154 Y68.623
G01 F600 X18.128 Y68.623
G01 F600 X18.128 Y68.700
G01 F600 X18.103 Y68.700
G01 F600 X18.103 Y68.750
G01 F600 X18.077 Y68.750
G01 F600 X18.077 Y68.801
G01 F600 X18.052 Y68.801
G01 F600 X18.052 Y68.827
G01 F600 X18.027 Y68.827
G01 F600 X18.027 Y68.877
G01 F600 X18.001 Y68.877
G01 F600 X18.001 Y68.903
G01 F600 X17.976 Y68.903
G01 F600 X17.976 Y68.928
G01 F600 X17.925 Y68.928
G01 F600 X17.925 Y68.954
G01 F600 X17.899 Y68.954
G01 F600 X17.899 Y68.979
G01 F600 X17.849 Y68.979
G01 F600 X17.849 Y69.004
G01 F600 X17.798 Y69.004
G01 F600 X17.798 Y69.030
G01 F600 X16.518 Y69.030
G00 F3000 Z3.000
G00 F3000 X80.882 Y68.923
G00 F1500 Z0
G01 F600 Z-0.200
G01 F600 X80.649 Y68.874
G01 F600 X80.432 Y68.777
G01 F600 X80.240 Y68.637
G01 F600 X80.081 Y68.461
G01 F600 X79.976 Y68.279
G01 F600 X50.444 Y68.279
G01 F600 X50.344 Y68.258
G01 F600 X50.251 Y68.216
G01 F600 X50.168 Y68.156
G01 F600 X50.100 Y68.080
G01 F600 X50.049 Y67.991
G01 F600 X50.017 Y67.894
G01 F600 X50.007 Y67.802
G01 F600 X50.019 Y65.739
G01 F600 X17.450 Y65.739
G01 F600 X17.350 Y65.718
G01 F600 X17.256 Y65.676
G01 F600 X17.174 Y65.616
G01 F600 X17.105 Y65.540
G01 F600 X17.054 Y65.451
G01 F600 X17.023 Y65.354
G01 F600 X17.013 Y65.263
G01 F600 X16.991 Y63.665
G01 F600 X16.939 Y63.642
G01 F600 X16.757 Y63.510
G01 F600 X16.607 Y63.343
G01 F600 X16.524 Y63.199
G01 F600 X13.445 Y63.199
G01 F600 X13.340 Y63.381
G01 F600 X13.181 Y63.557
G01 F600 X12.989 Y63.697
G01 F600 X12.772 Y63.794
G01 F600 X12.539 Y63.843
G01 F600 X12.302 Y63.843
G01 F600 X12.069 Y63.794
G01 F600 X11.852 Y63.697
G01 F600 X11.660 Y63.557
G01 F600 X11.501 Y63.381
G01 F600 X11.382 Y63.175
G01 F600 X11.309 Y62.949
G01 F600 X11.284 Y62.713
G01 F600 X11.309 Y62.476
G01 F600 X11.382 Y62.250
G01 F600 X11.501 Y62.045
G01 F600 X11.660 Y61.868
G01 F600 X11.852 Y61.728
G01 F600 X12.069 Y61.632
G01 F600 X12.302 Y61.582
G01 F600 X12.539 Y61.582
G01 F600 X12.772 Y61.632
G01 F600 X12.989 Y61.728
G01 F600 X13.181 Y61.868
G01 F600 X13.340 Y62.045
G01 F600 X13.445 Y62.227
G01 F600 X16.524 Y62.227
G01 F600 X16.607 Y62.082
G01 F600 X16.757 Y61.915
G01 F600 X16.939 Y61.783
G01 F600 X17.144 Y61.692
G01 F600 X17.363 Y61.646
G01 F600 X17.587 Y61.646
G01 F600 X17.807 Y61.692
G01 F600 X18.012 Y61.783
G01 F600 X18.193 Y61.915
G01 F600 X18.343 Y62.082
G01 F600 X18.455 Y62.276
G01 F600 X18.525 Y62.489
G01 F600 X18.548 Y62.713
G01 F600 X18.525 Y62.936
G01 F600 X18.455 Y63.149
G01 F600 X18.343 Y63.343
G01 F600 X18.193 Y63.510
G01 F600 X18.012 Y63.642
G01 F600 X17.967 Y63.662
G01 F600 X17.982 Y64.767
G01 F600 X27.173 Y64.767
G01 F600 X27.173 Y34.788
G01 F600 X27.183 Y34.696
G01 F600 X27.214 Y34.599
G01 F600 X27.265 Y34.511
G01 F600 X27.334 Y34.435
G01 F600 X27.416 Y34.375
G01 F600 X27.510 Y34.333
G01 F600 X27.610 Y34.312
G01 F600 X37.619 Y34.312
G01 F600 X40.038 Y31.917
G01 F600 X40.116 Y31.860
G01 F600 X40.210 Y31.819
G01 F600 X40.309 Y31.797
G01 F600 X44.400 Y31.777
G01 F600 X44.402 Y31.770
G01 F600 X44.521 Y31.565
G01 F600 X44.680 Y31.388
G01 F600 X44.872 Y31.248
G01 F600 X45.089 Y31.152
G01 F600 X45.322 Y31.102
G01 F600 X45.559 Y31.102
G01 F600 X45.792 Y31.152
G01 F600 X46.009 Y31.248
G01 F600 X46.201 Y31.388
G01 F600 X46.360 Y31.565
G01 F600 X46.465 Y31.747
G01 F600 X49.569 Y31.747
G01 F600 X49.653 Y31.602
G01 F600 X49.803 Y31.435
G01 F600 X49.984 Y31.303
G01 F600 X50.189 Y31.212
G01 F600 X50.408 Y31.166
G01 F600 X50.633 Y31.166
G01 F600 X50.852 Y31.212
G01 F600 X51.057 Y31.303
G01 F600 X51.239 Y31.435
G01 F600 X51.389 Y31.602
G01 F600 X51.501 Y31.796
G01 F600 X51.570 Y32.010
G01 F600 X51.594 Y32.233
G01 F600 X51.570 Y32.456
G01 F600 X51.501 Y32.669
G01 F600 X51.389 Y32.863
G01 F600 X51.239 Y33.030
G01 F600 X51.057 Y33.162
G01 F600 X50.852 Y33.253
G01 F600 X50.633 Y33.300
G01 F600 X50.408 Y33.300
G01 F600 X50.189 Y33.253
G01 F600 X49.984 Y33.162
G01 F600 X49.803 Y33.030
G01 F600 X49.653 Y32.863
G01 F600 X49.572 Y32.724
G01 F600 X46.453 Y32.739
G01 F600 X46.360 Y32.901
G01 F600 X46.201 Y33.077
G01 F600 X46.009 Y33.217
G01 F600 X45.792 Y33.314
G01 F600 X45.559 Y33.363
G01 F600 X45.322 Y33.363
G01 F600 X45.089 Y33.314
G01 F600 X44.872 Y33.217
G01 F600 X44.680 Y33.077
G01 F600 X44.521 Y32.901
G01 F600 X44.434 Y32.749
G01 F600 X40.563 Y32.769
G01 F600 X38.143 Y35.164
G01 F600 X38.065 Y35.221
G01 F600 X37.972 Y35.263
G01 F600 X37.872 Y35.284
G01 F600 X28.148 Y35.284
G01 F600 X28.148 Y64.767
G01 F600 X50.014 Y64.767
G01 F600 X50.029 Y63.662
G01 F600 X49.984 Y63.642
G01 F600 X49.803 Y63.510
G01 F600 X49.653 Y63.343
G01 F600 X49.569 Y63.199
G01 F600 X46.465 Y63.199
G01 F600 X46.360 Y63.381
G01 F600 X46.201 Y63.557
G01 F600 X46.009 Y63.697
G01 F600 X45.792 Y63.794
G01 F600 X45.559 Y63.843
G01 F600 X45.322 Y63.843
G01 F600 X45.089 Y63.794
G01 F600 X44.872 Y63.697
G01 F600 X44.680 Y63.557
G01 F600 X44.521 Y63.381
G01 F600 X44.402 Y63.175
G01 F600 X44.329 Y62.949
G01 F600 X44.304 Y62.713
G01 F600 X44.329 Y62.476
G01 F600 X44.402 Y62.250
G01 F600 X44.521 Y62.045
G01 F600 X44.680 Y61.868
G01 F600 X44.872 Y61.728
G01 F600 X45.089 Y61.632
G01 F600 X45.322 Y61.582
G01 F600 X45.559 Y61.582
G01 F600 X45.792 Y61.632
G01 F600 X46.009 Y61.728
G01 F600 X46.201 Y61.868
G01 F600 X46.360 Y62.045
G01 F600 X46.465 Y62.227
G01 F600 X49.569 Y62.227
G01 F600 X49.653 Y62.082
G01 F600 X49.803 Y61.915
G01 F600 X49.984 Y61.783
G01 F600 X50.189 Y61.692
G01 F600 X50.408 Y61.646
G01 F600 X50.633 Y61.646
G01 F600 X50.852 Y61.692
G01 F600 X51.057 Y61.783
G01 F600 X51.239 Y61.915
G01 F600 X51.389 Y62.082
G01 F600 X51.501 Y62.276
G01 F600 X51.570 Y62.489
G01 F600 X51.594 Y62.713
G01 F600 X51.570 Y62.936
G01 F600 X51.501 Y63.149
G01 F600 X51.389 Y63.343
G01 F600 X51.239 Y63.510
G01 F600 X51.057 Y63.642
G01 F600 X51.007 Y63.664
G01 F600 X50.986 Y67.306
G01 F600 X79.976 Y67.306
G01 F600 X80.081 Y67.125
G01 F600 X80.240 Y66.948
G01 F600 X80.432 Y66.808
G01 F600 X80.649 Y66.712
G01 F600 X80.882 Y66.662
G01 F600 X81.119 Y66.662
G01 F600 X81.352 Y66.712
G01 F600 X81.569 Y66.808
G01 F600 X81.761 Y66.948
G01 F600 X81.920 Y67.125
G01 F600 X82.025 Y67.306
G01 F600 X88.133 Y67.306
G01 F600 X88.133 Y60.163
G01 F600 X88.142 Y60.071
G01 F600 X88.174 Y59.974
G01 F600 X88.225 Y59.885
G01 F600 X88.294 Y59.809
G01 F600 X88.376 Y59.749
G01 F600 X88.470 Y59.708
G01 F600 X88.570 Y59.687
G01 F600 X95.042 Y59.687
G01 F600 X95.042 Y58.974
G01 F600 X97.440 Y58.974
G01 F600 X97.440 Y61.372
G01 F600 X95.042 Y61.372
G01 F600 X95.042 Y60.659
G01 F600 X89.108 Y60.659
G01 F600 X89.108 Y67.802
G01 F600 X89.099 Y67.894
G01 F600 X89.067 Y67.991
G01 F600 X89.016 Y68.080
G01 F600 X88.948 Y68.156
G01 F600 X88.865 Y68.216
G01 F600 X88.772 Y68.258
G01 F600 X88.672 Y68.279
G01 F600 X82.025 Y68.279
G01 F600 X81.920 Y68.461
G01 F600 X81.761 Y68.637
G01 F600 X81.569 Y68.777
G01 F600 X81.352 Y68.874
G01 F600 X81.119 Y68.923
G01 F600 X80.882 Y68.923
G00 F3000 Z3.000
G00 F3000 X93.357 Y68.519
G00 F1500 Z0
G01 F600 Z-0.200
G01 F600 X92.686 Y68.376
G01 F600 X92.059 Y68.097
G01 F600 X91.503 Y67.693
G01 F600 X91.044 Y67.183
G01 F600 X90.701 Y66.588
G01 F600 X90.488 Y65.935
G01 F600 X90.417 Y65.253
G01 F600 X90.488 Y64.570
G01 F600 X90.701 Y63.917
G01 F600 X91.044 Y63.322
G01 F600 X91.503 Y62.812
G01 F600 X92.059 Y62.409
G01 F600 X92.686 Y62.129
G01 F600 X93.357 Y61.987
G01 F600 X94.044 Y61.987
G01 F600 X94.715 Y62.129
G01 F600 X95.343 Y62.409
G01 F600 X95.898 Y62.812
G01 F600 X96.357 Y63.322
G01 F600 X96.701 Y63.917
G01 F600 X96.913 Y64.570
G01 F600 X96.985 Y65.253
G01 F600 X96.913 Y65.935
G01 F600 X96.701 Y66.588
G01 F600 X96.357 Y67.183
G01 F600 X95.898 Y67.693
G01 F600 X95.343 Y68.097
G01 F600 X94.715 Y68.376
G01 F600 X94.044 Y68.519
G01 F600 X93.357 Y68.519
G00 F3000 Z3.000
G00 F3000 X6.997 Y68.519
G00 F1500 Z0
G01 F600 Z-0.200
G01 F600 X6.326 Y68.376
G01 F600 X5.699 Y68.097
G01 F600 X5.143 Y67.693
G01 F600 X4.684 Y67.183
G01 F600 X4.341 Y66.588
G01 F600 X4.128 Y65.935
G01 F600 X4.057 Y65.253
G01 F600 X4.128 Y64.570
G01 F600 X4.341 Y63.917
G01 F600 X4.684 Y63.322
G01 F600 X5.143 Y62.812
G01 F600 X5.699 Y62.409
G01 F600 X6.326 Y62.129
G01 F600 X6.997 Y61.987
G01 F600 X7.684 Y61.987
G01 F600 X8.355 Y62.129
G01 F600 X8.983 Y62.409
G01 F600 X9.538 Y62.812
G01 F600 X9.997 Y63.322
G01 F600 X10.341 Y63.917
G01 F600 X10.553 Y64.570
G01 F600 X10.625 Y65.253
G01 F600 X10.553 Y65.935
G01 F600 X10.341 Y66.588
G01 F600 X9.997 Y67.183
G01 F600 X9.538 Y67.693
G01 F600 X8.983 Y68.097
G01 F600 X8.355 Y68.376
G01 F600 X7.684 Y68.519
G01 F600 X6.997 Y68.519
G00 F3000 Z3.000
G00 F3000 X37.331 Y68.410
G00 F1500 Z0
G01 F600 Z-0.200
G01 F600 X37.650 Y68.410
G01 F600 X37.650 Y68.395
G01 F600 X37.331 Y68.395
G01 F600 X37.331 Y68.410
G00 F3000 Z3.000
G00 F3000 X18.966 Y68.410
G00 F1500 Z0
G01 F600 Z-0.200
G01 F600 X19.210 Y68.410
G01 F600 X19.210 Y68.384
G01 F600 X19.261 Y68.384
G01 F600 X19.261 Y68.359
G01 F600 X19.286 Y68.359
G01 F600 X19.286 Y68.334
G01 F600 X19.312 Y68.334
G01 F600 X19.312 Y68.268
G01 F600 X19.286 Y68.268
G01 F600 X19.286 Y68.242
G01 F600 X19.261 Y68.242
G01 F600 X19.261 Y68.217
G01 F600 X19.210 Y68.217
G01 F600 X19.210 Y68.192
G01 F600 X18.966 Y68.192
G01 F600 X18.966 Y68.410
G00 F3000 Z3.000
G00 F3000 X17.137 Y68.410
G00 F1500 Z0
G01 F600 Z-0.200
G01 F600 X17.381 Y68.410
G01 F600 X17.381 Y68.384
G01 F600 X17.407 Y68.384
G01 F600 X17.407 Y68.359
G01 F600 X17.432 Y68.359
G01 F600 X17.432 Y68.334
G01 F600 X17.457 Y68.334
G01 F600 X17.457 Y68.308
G01 F600 X17.483 Y68.308
G01 F600 X17.483 Y68.268
G01 F600 X17.457 Y68.268
G01 F600 X17.457 Y68.242
G01 F600 X17.407 Y68.242
G01 F600 X17.407 Y68.217
G01 F600 X17.381 Y68.217
G01 F600 X17.381 Y68.192
G01 F600 X17.137 Y68.192
G01 F600 X17.137 Y68.410
G00 F3000 Z3.000
G00 F3000 X20.302 Y68.192
G00 F1500 Z0
G01 F600 Z-0.200
G01 F600 X20.302 Y68.166
G01 F600 X20.251 Y68.166
G01 F600 X20.251 Y68.141
G01 F600 X20.226 Y68.141
G01 F600 X20.226 Y68.115
G01 F600 X20.201 Y68.115
G01 F600 X20.201 Y67.521
G01 F600 X20.226 Y67.521
G01 F600 X20.226 Y67.470
G01 F600 X20.277 Y67.470
G01 F600 X20.277 Y67.445
G01 F600 X21.735 Y67.445
G01 F600 X21.735 Y67.470
G01 F600 X21.786 Y67.470
G01 F600 X21.786 Y67.521
G01 F600 X21.811 Y67.521
G01 F600 X21.811 Y68.115
G01 F600 X21.786 Y68.115
G01 F600 X21.786 Y68.141
G01 F600 X21.760 Y68.141
G01 F600 X21.760 Y68.166
G01 F600 X21.710 Y68.166
G01 F600 X21.710 Y68.192
G01 F600 X20.302 Y68.192
G00 F3000 Z3.000
G00 F3000 X32.073 Y68.054
G00 F1500 Z0
G01 F600 Z-0.200
G01 F600 X32.088 Y68.054
G01 F600 X32.088 Y68.003
G01 F600 X32.113 Y68.003
G01 F600 X32.113 Y67.953
G01 F600 X32.139 Y67.953
G01 F600 X32.139 Y67.902
G01 F600 X32.164 Y67.902
G01 F600 X32.164 Y67.836
G01 F600 X32.139 Y67.836
G01 F600 X32.139 Y67.785
G01 F600 X32.113 Y67.785
G01 F600 X32.113 Y67.734
G01 F600 X32.088 Y67.734
G01 F600 X32.088 Y67.684
G01 F600 X32.073 Y67.684
G01 F600 X32.073 Y68.054
G00 F3000 Z3.000
G00 F3000 X35.756 Y68.029
G00 F1500 Z0
G01 F600 Z-0.200
G01 F600 X35.771 Y68.029
G01 F600 X35.771 Y67.978
G01 F600 X35.796 Y67.978
G01 F600 X35.796 Y67.927
G01 F600 X35.822 Y67.927
G01 F600 X35.822 Y67.876
G01 F600 X35.847 Y67.876
G01 F600 X35.847 Y67.861
G01 F600 X35.822 Y67.861
G01 F600 X35.822 Y67.811
G01 F600 X35.796 Y67.811
G01 F600 X35.796 Y67.760
G01 F600 X35.771 Y67.760
G01 F600 X35.771 Y67.709
G01 F600 X35.756 Y67.709
G01 F600 X35.756 Y68.029
G00 F3000 Z3.000
G00 F3000 X22.649 Y67.546
G00 F1500 Z0
G01 F600 Z-0.200
G01 F600 X23.045 Y67.546
G01 F600 X23.045 Y67.328
G01 F600 X22.649 Y67.328
G01 F600 X22.649 Y67.546
G00 F3000 Z3.000
G00 F3000 X18.966 Y67.546
G00 F1500 Z0
G01 F600 Z-0.200
G01 F600 X19.210 Y67.546
G01 F600 X19.210 Y67.521
G01 F600 X19.261 Y67.521
G01 F600 X19.261 Y67.495
G01 F600 X19.286 Y67.495
G01 F600 X19.286 Y67.470
G01 F600 X19.312 Y67.470
G01 F600 X19.312 Y67.404
G01 F600 X19.286 Y67.404
G01 F600 X19.286 Y67.379
G01 F600 X19.261 Y67.379
G01 F600 X19.261 Y67.353
G01 F600 X19.210 Y67.353
G01 F600 X19.210 Y67.328
G01 F600 X18.966 Y67.328
G01 F600 X18.966 Y67.546
G00 F3000 Z3.000
G00 F3000 X17.137 Y67.546
G00 F1500 Z0
G01 F600 Z-0.200
G01 F600 X17.381 Y67.546
G01 F600 X17.381 Y67.521
G01 F600 X17.407 Y67.521
G01 F600 X17.407 Y67.495
G01 F600 X17.457 Y67.495
G01 F600 X17.457 Y67.470
G01 F600 X17.483 Y67.470
G01 F600 X17.483 Y67.430
G01 F600 X17.457 Y67.430
G01 F600 X17.457 Y67.379
G01 F600 X17.407 Y67.379
G01 F600 X17.407 Y67.353
G01 F600 X17.381 Y67.353
G01 F600 X17.381 Y67.328
G01 F600 X17.137 Y67.328
G01 F600 X17.137 Y67.546
G00 F3000 Z3.000
G00 F3000 X68.198 Y66.231
G00 F1500 Z0
G01 F600 Z-0.200
G01 F600 X67.996 Y66.188
G01 F600 X67.809 Y66.105
G01 F600 X67.642 Y65.984
G01 F600 X67.503 Y65.829
G01 F600 X67.454 Y65.739
G01 F600 X58.064 Y65.739
G01 F600 X57.964 Y65.718
G01 F600 X57.871 Y65.676
G01 F600 X57.788 Y65.616
G01 F600 X57.720 Y65.540
G01 F600 X57.669 Y65.451
G01 F600 X57.637 Y65.354
G01 F600 X57.627 Y65.262
G01 F600 X57.627 Y60.682
G01 F600 X51.593 Y60.660
G01 F600 X51.593 Y61.245
G01 F600 X49.449 Y61.245
G01 F600 X49.449 Y60.659
G01 F600 X46.576 Y60.659
G01 F600 X46.576 Y61.308
G01 F600 X44.305 Y61.308
G01 F600 X44.305 Y59.037
G01 F600 X46.576 Y59.037
G01 F600 X46.576 Y59.687
G01 F600 X49.449 Y59.687
G01 F600 X49.449 Y59.101
G01 F600 X51.593 Y59.101
G01 F600 X51.593 Y59.688
G01 F600 X57.627 Y59.710
G01 F600 X57.627 Y45.419
G01 F600 X51.593 Y45.419
G01 F600 X51.593 Y46.005
G01 F600 X49.449 Y46.005
G01 F600 X49.449 Y43.861
G01 F600 X51.593 Y43.861
G01 F600 X51.593 Y44.447
G01 F600 X58.166 Y44.447
G01 F600 X58.266 Y44.468
G01 F600 X58.360 Y44.509
G01 F600 X58.442 Y44.569
G01 F600 X58.511 Y44.645
G01 F600 X58.562 Y44.734
G01 F600 X58.593 Y44.831
G01 F600 X58.603 Y44.923
G01 F600 X58.603 Y64.766
G01 F600 X67.464 Y64.745
G01 F600 X67.505 Y64.674
G01 F600 X67.642 Y64.521
G01 F600 X67.809 Y64.400
G01 F600 X67.996 Y64.317
G01 F600 X68.198 Y64.274
G01 F600 X68.404 Y64.274
G01 F600 X68.605 Y64.317
G01 F600 X68.793 Y64.400
G01 F600 X68.959 Y64.521
G01 F600 X69.098 Y64.676
G01 F600 X69.147 Y64.766
G01 F600 X72.544 Y64.745
G01 F600 X72.585 Y64.674
G01 F600 X72.722 Y64.521
G01 F600 X72.889 Y64.400
G01 F600 X73.077 Y64.317
G01 F600 X73.278 Y64.274
G01 F600 X73.484 Y64.274
G01 F600 X73.685 Y64.317
G01 F600 X73.873 Y64.400
G01 F600 X74.039 Y64.521
G01 F600 X74.178 Y64.676
G01 F600 X74.228 Y64.767
G01 F600 X77.947 Y64.767
G01 F600 X77.947 Y27.661
G01 F600 X74.331 Y27.640
G01 F600 X74.249 Y27.783
G01 F600 X74.099 Y27.950
G01 F600 X73.917 Y28.082
G01 F600 X73.712 Y28.173
G01 F600 X73.493 Y28.220
G01 F600 X73.268 Y28.220
G01 F600 X73.049 Y28.173
G01 F600 X72.844 Y28.082
G01 F600 X72.663 Y27.950
G01 F600 X72.513 Y27.783
G01 F600 X72.400 Y27.589
G01 F600 X72.331 Y27.376
G01 F600 X72.308 Y27.153
G01 F600 X72.331 Y26.930
G01 F600 X72.400 Y26.716
G01 F600 X72.513 Y26.522
G01 F600 X72.663 Y26.355
G01 F600 X72.844 Y26.223
G01 F600 X73.049 Y26.132
G01 F600 X73.268 Y26.085
G01 F600 X73.493 Y26.085
G01 F600 X73.712 Y26.132
G01 F600 X73.917 Y26.223
G01 F600 X74.099 Y26.355
G01 F600 X74.249 Y26.522
G01 F600 X74.333 Y26.668
G01 F600 X77.948 Y26.689
G01 F600 X77.972 Y12.399
G01 F600 X61.168 Y12.399
G01 F600 X61.168 Y29.702
G01 F600 X61.159 Y29.794
G01 F600 X61.127 Y29.891
G01 F600 X61.076 Y29.980
G01 F600 X61.008 Y30.056
G01 F600 X60.925 Y30.116
G01 F600 X60.832 Y30.158
G01 F600 X60.732 Y30.179
G01 F600 X51.593 Y30.179
G01 F600 X51.593 Y30.765
G01 F600 X49.449 Y30.765
G01 F600 X49.449 Y30.177
G01 F600 X46.576 Y30.172
G01 F600 X46.576 Y30.828
G01 F600 X44.305 Y30.828
G01 F600 X44.305 Y30.168
G01 F600 X35.255 Y30.153
G01 F600 X35.155 Y30.132
G01 F600 X35.062 Y30.091
G01 F600 X34.979 Y30.030
G01 F600 X34.910 Y29.955
G01 F600 X34.860 Y29.866
G01 F600 X34.828 Y29.769
G01 F600 X34.818 Y29.677
G01 F600 X34.818 Y25.099
G01 F600 X27.864 Y25.099
G01 F600 X20.528 Y32.434
G01 F600 X20.528 Y33.919
G01 F600 X20.533 Y33.920
G01 F600 X20.699 Y34.041
G01 F600 X20.837 Y34.194
G01 F600 X20.940 Y34.372
G01 F600 X21.003 Y34.568
G01 F600 X21.025 Y34.773
G01 F600 X21.003 Y34.977
G01 F600 X20.940 Y35.173
G01 F600 X20.837 Y35.351
G01 F600 X20.699 Y35.504
G01 F600 X20.533 Y35.625
G01 F600 X20.528 Y35.627
G01 F600 X20.528 Y38.998
G01 F600 X20.533 Y39.000
G01 F600 X20.699 Y39.121
G01 F600 X20.837 Y39.274
G01 F600 X20.940 Y39.452
G01 F600 X21.003 Y39.648
G01 F600 X21.025 Y39.853
G01 F600 X21.003 Y40.057
G01 F600 X20.940 Y40.253
G01 F600 X20.837 Y40.431
G01 F600 X20.699 Y40.584
G01 F600 X20.533 Y40.705
G01 F600 X20.528 Y40.707
G01 F600 X20.528 Y60.182
G01 F600 X20.519 Y60.274
G01 F600 X20.487 Y60.371
G01 F600 X20.436 Y60.460
G01 F600 X20.368 Y60.536
G01 F600 X20.285 Y60.596
G01 F600 X20.192 Y60.638
G01 F600 X20.092 Y60.659
G01 F600 X18.547 Y60.659
G01 F600 X18.547 Y61.245
G01 F600 X16.403 Y61.245
G01 F600 X16.403 Y60.659
G01 F600 X13.556 Y60.659
G01 F600 X13.556 Y61.308
G01 F600 X11.285 Y61.308
G01 F600 X11.285 Y59.037
G01 F600 X13.556 Y59.037
G01 F600 X13.556 Y59.687
G01 F600 X16.403 Y59.687
G01 F600 X16.403 Y59.101
G01 F600 X18.547 Y59.101
G01 F600 X18.547 Y59.687
G01 F600 X19.553 Y59.687
G01 F600 X19.553 Y45.393
G01 F600 X18.547 Y45.393
G01 F600 X18.547 Y46.005
G01 F600 X16.403 Y46.005
G01 F600 X16.403 Y43.861
G01 F600 X18.547 Y43.861
G01 F600 X18.547 Y44.421
G01 F600 X19.505 Y44.421
G01 F600 X19.525 Y40.687
G01 F600 X19.382 Y40.584
G01 F600 X19.245 Y40.431
G01 F600 X19.142 Y40.253
G01 F600 X19.078 Y40.057
G01 F600 X19.057 Y39.853
G01 F600 X19.078 Y39.648
G01 F600 X19.142 Y39.452
G01 F600 X19.245 Y39.274
G01 F600 X19.382 Y39.121
G01 F600 X19.534 Y39.011
G01 F600 X19.552 Y35.626
G01 F600 X19.549 Y35.625
G01 F600 X19.382 Y35.504
G01 F600 X19.245 Y35.351
G01 F600 X19.142 Y35.173
G01 F600 X19.078 Y34.977
G01 F600 X19.057 Y34.773
G01 F600 X19.078 Y34.568
G01 F600 X19.142 Y34.372
G01 F600 X19.245 Y34.194
G01 F600 X19.382 Y34.041
G01 F600 X19.549 Y33.920
G01 F600 X19.553 Y33.919
G01 F600 X19.553 Y32.223
G01 F600 X19.563 Y32.131
G01 F600 X19.594 Y32.034
G01 F600 X19.645 Y31.945
G01 F600 X19.704 Y31.880
G01 F600 X27.337 Y24.247
G01 F600 X27.416 Y24.189
G01 F600 X27.510 Y24.148
G01 F600 X27.610 Y24.127
G01 F600 X35.357 Y24.127
G01 F600 X35.457 Y24.148
G01 F600 X35.550 Y24.189
G01 F600 X35.633 Y24.249
G01 F600 X35.702 Y24.325
G01 F600 X35.753 Y24.414
G01 F600 X35.784 Y24.511
G01 F600 X35.794 Y24.603
G01 F600 X35.794 Y29.182
G01 F600 X44.305 Y29.196
G01 F600 X44.305 Y28.557
G01 F600 X46.576 Y28.557
G01 F600 X46.576 Y29.200
G01 F600 X49.449 Y29.205
G01 F600 X49.449 Y28.621
G01 F600 X51.593 Y28.621
G01 F600 X51.593 Y29.207
G01 F600 X60.193 Y29.207
G01 F600 X60.193 Y14.939
G01 F600 X51.593 Y14.939
G01 F600 X51.593 Y15.525
G01 F600 X49.449 Y15.525
G01 F600 X49.449 Y13.381
G01 F600 X50.033 Y13.381
G01 F600 X50.033 Y12.767
G01 F600 X50.029 Y12.765
G01 F600 X49.862 Y12.644
G01 F600 X49.723 Y12.489
G01 F600 X49.674 Y12.399
G01 F600 X47.955 Y12.399
G01 F600 X47.855 Y12.378
G01 F600 X47.762 Y12.336
G01 F600 X47.679 Y12.276
G01 F600 X47.611 Y12.200
G01 F600 X47.559 Y12.111
G01 F600 X47.528 Y12.014
G01 F600 X47.518 Y11.922
G01 F600 X47.518 Y6.848
G01 F600 X47.528 Y6.756
G01 F600 X47.559 Y6.659
G01 F600 X47.611 Y6.571
G01 F600 X47.679 Y6.495
G01 F600 X47.762 Y6.435
G01 F600 X47.855 Y6.393
G01 F600 X47.955 Y6.372
G01 F600 X49.657 Y6.372
G01 F600 X49.724 Y6.254
G01 F600 X49.862 Y6.101
G01 F600 X50.029 Y5.980
G01 F600 X50.217 Y5.897
G01 F600 X50.418 Y5.854
G01 F600 X50.623 Y5.854
G01 F600 X50.825 Y5.897
G01 F600 X51.013 Y5.980
G01 F600 X51.179 Y6.101
G01 F600 X51.317 Y6.254
G01 F600 X51.419 Y6.432
G01 F600 X51.483 Y6.628
G01 F600 X51.505 Y6.833
G01 F600 X51.483 Y7.037
G01 F600 X51.419 Y7.233
G01 F600 X51.317 Y7.411
G01 F600 X51.179 Y7.564
G01 F600 X51.013 Y7.685
G01 F600 X50.825 Y7.768
G01 F600 X50.623 Y7.811
G01 F600 X50.418 Y7.811
G01 F600 X50.217 Y7.768
G01 F600 X50.029 Y7.685
G01 F600 X49.862 Y7.564
G01 F600 X49.724 Y7.411
G01 F600 X49.686 Y7.344
G01 F600 X48.494 Y7.344
G01 F600 X48.494 Y11.424
G01 F600 X49.683 Y11.406
G01 F600 X49.724 Y11.334
G01 F600 X49.862 Y11.181
G01 F600 X50.029 Y11.060
G01 F600 X50.217 Y10.977
G01 F600 X50.418 Y10.934
G01 F600 X50.623 Y10.934
G01 F600 X50.825 Y10.977
G01 F600 X51.013 Y11.060
G01 F600 X51.179 Y11.181
G01 F600 X51.317 Y11.334
G01 F600 X51.419 Y11.512
G01 F600 X51.483 Y11.708
G01 F600 X51.505 Y11.913
G01 F600 X51.483 Y12.117
G01 F600 X51.419 Y12.313
G01 F600 X51.317 Y12.491
G01 F600 X51.179 Y12.644
G01 F600 X51.013 Y12.765
G01 F600 X51.008 Y12.767
G01 F600 X51.008 Y13.381
G01 F600 X51.593 Y13.381
G01 F600 X51.593 Y13.966
G01 F600 X60.193 Y13.966
G01 F600 X60.193 Y11.903
G01 F600 X60.203 Y11.811
G01 F600 X60.234 Y11.714
G01 F600 X60.285 Y11.625
G01 F600 X60.354 Y11.549
G01 F600 X60.436 Y11.489
G01 F600 X60.530 Y11.448
G01 F600 X60.630 Y11.427
G01 F600 X78.512 Y11.427
G01 F600 X78.612 Y11.448
G01 F600 X78.705 Y11.489
G01 F600 X78.788 Y11.549
G01 F600 X78.856 Y11.625
G01 F600 X78.907 Y11.714
G01 F600 X78.939 Y11.811
G01 F600 X78.948 Y11.903
G01 F600 X78.948 Y13.966
G01 F600 X87.596 Y13.966
G01 F600 X87.701 Y13.785
G01 F600 X87.860 Y13.608
G01 F600 X88.052 Y13.468
G01 F600 X88.269 Y13.372
G01 F600 X88.502 Y13.322
G01 F600 X88.739 Y13.322
G01 F600 X88.972 Y13.372
G01 F600 X89.189 Y13.468
G01 F600 X89.381 Y13.608
G01 F600 X89.540 Y13.785
G01 F600 X89.659 Y13.990
G01 F600 X89.732 Y14.216
G01 F600 X89.757 Y14.453
G01 F600 X89.732 Y14.689
G01 F600 X89.659 Y14.915
G01 F600 X89.540 Y15.121
G01 F600 X89.381 Y15.297
G01 F600 X89.189 Y15.437
G01 F600 X88.972 Y15.534
G01 F600 X88.739 Y15.583
G01 F600 X88.502 Y15.583
G01 F600 X88.269 Y15.534
G01 F600 X88.052 Y15.437
G01 F600 X87.860 Y15.297
G01 F600 X87.701 Y15.121
G01 F600 X87.596 Y14.939
G01 F600 X78.948 Y14.939
G01 F600 X78.948 Y27.162
G01 F600 X78.939 Y27.254
G01 F600 X78.923 Y27.303
G01 F600 X78.923 Y64.767
G01 F600 X85.593 Y64.767
G01 F600 X85.593 Y57.623
G01 F600 X85.603 Y57.531
G01 F600 X85.634 Y57.434
G01 F600 X85.685 Y57.345
G01 F600 X85.754 Y57.269
G01 F600 X85.836 Y57.209
G01 F600 X85.930 Y57.168
G01 F600 X86.029 Y57.147
G01 F600 X95.144 Y57.147
G01 F600 X95.144 Y57.145
G01 F600 X95.270 Y56.927
G01 F600 X95.438 Y56.741
G01 F600 X95.641 Y56.593
G01 F600 X95.755 Y56.544
G01 F600 X95.775 Y53.058
G01 F600 X94.766 Y53.044
G01 F600 X94.651 Y53.243
G01 F600 X94.487 Y53.425
G01 F600 X94.288 Y53.570
G01 F600 X94.064 Y53.670
G01 F600 X93.823 Y53.721
G01 F600 X93.578 Y53.721
G01 F600 X93.338 Y53.670
G01 F600 X93.113 Y53.570
G01 F600 X92.915 Y53.425
G01 F600 X92.750 Y53.243
G01 F600 X92.627 Y53.030
G01 F600 X92.552 Y52.797
G01 F600 X92.526 Y52.553
G01 F600 X92.552 Y52.308
G01 F600 X92.627 Y52.075
G01 F600 X92.750 Y51.862
G01 F600 X92.915 Y51.680
G01 F600 X93.113 Y51.535
G01 F600 X93.338 Y51.436
G01 F600 X93.578 Y51.384
G01 F600 X93.823 Y51.384
G01 F600 X94.064 Y51.436
G01 F600 X94.288 Y51.535
G01 F600 X94.487 Y51.680
G01 F600 X94.651 Y51.862
G01 F600 X94.771 Y52.070
G01 F600 X96.318 Y52.092
G01 F600 X96.417 Y52.113
G01 F600 X96.510 Y52.155
G01 F600 X96.593 Y52.215
G01 F600 X96.662 Y52.291
G01 F600 X96.713 Y52.379
G01 F600 X96.744 Y52.476
G01 F600 X96.754 Y52.569
G01 F600 X96.738 Y56.548
G01 F600 X96.841 Y56.593
G01 F600 X97.044 Y56.741
G01 F600 X97.211 Y56.927
G01 F600 X97.337 Y57.145
G01 F600 X97.414 Y57.383
G01 F600 X97.441 Y57.633
G01 F600 X97.414 Y57.882
G01 F600 X97.337 Y58.121
G01 F600 X97.211 Y58.338
G01 F600 X97.044 Y58.524
G01 F600 X96.841 Y58.672
G01 F600 X96.611 Y58.774
G01 F600 X96.366 Y58.826
G01 F600 X96.115 Y58.826
G01 F600 X95.870 Y58.774
G01 F600 X95.641 Y58.672
G01 F600 X95.438 Y58.524
G01 F600 X95.270 Y58.338
G01 F600 X95.144 Y58.121
G01 F600 X95.144 Y58.119
G01 F600 X86.568 Y58.119
G01 F600 X86.568 Y65.262
G01 F600 X86.559 Y65.354
G01 F600 X86.527 Y65.451
G01 F600 X86.476 Y65.540
G01 F600 X86.408 Y65.616
G01 F600 X86.325 Y65.676
G01 F600 X86.232 Y65.718
G01 F600 X86.132 Y65.739
G01 F600 X74.217 Y65.761
G01 F600 X74.177 Y65.831
G01 F600 X74.039 Y65.984
G01 F600 X73.873 Y66.105
G01 F600 X73.685 Y66.188
G01 F600 X73.484 Y66.231
G01 F600 X73.278 Y66.231
G01 F600 X73.077 Y66.188
G01 F600 X72.889 Y66.105
G01 F600 X72.722 Y65.984
G01 F600 X72.583 Y65.829
G01 F600 X72.534 Y65.739
G01 F600 X69.138 Y65.760
G01 F600 X69.097 Y65.831
G01 F600 X68.959 Y65.984
G01 F600 X68.793 Y66.105
G01 F600 X68.605 Y66.188
G01 F600 X68.404 Y66.231
G01 F600 X68.198 Y66.231
G00 F3000 Z3.000
G00 F3000 X80.882 Y63.843
G00 F1500 Z0
G01 F600 Z-0.200
G01 F600 X80.649 Y63.794
G01 F600 X80.432 Y63.697
G01 F600 X80.240 Y63.557
G01 F600 X80.081 Y63.381
G01 F600 X79.962 Y63.175
G01 F600 X79.889 Y62.949
G01 F600 X79.864 Y62.713
G01 F600 X79.889 Y62.476
G01 F600 X79.962 Y62.250
G01 F600 X80.081 Y62.045
G01 F600 X80.240 Y61.868
G01 F600 X80.432 Y61.728
G01 F600 X80.513 Y61.693
G01 F600 X80.513 Y19.523
G01 F600 X80.523 Y19.431
G01 F600 X80.554 Y19.334
G01 F600 X80.605 Y19.245
G01 F600 X80.674 Y19.169
G01 F600 X80.756 Y19.109
G01 F600 X80.850 Y19.068
G01 F600 X80.950 Y19.047
G01 F600 X87.669 Y19.047
G01 F600 X87.752 Y18.902
G01 F600 X87.903 Y18.735
G01 F600 X88.084 Y18.603
G01 F600 X88.289 Y18.512
G01 F600 X88.508 Y18.466
G01 F600 X88.733 Y18.466
G01 F600 X88.952 Y18.512
G01 F600 X89.157 Y18.603
G01 F600 X89.339 Y18.735
G01 F600 X89.489 Y18.902
G01 F600 X89.601 Y19.096
G01 F600 X89.670 Y19.309
G01 F600 X89.694 Y19.533
G01 F600 X89.670 Y19.756
G01 F600 X89.601 Y19.969
G01 F600 X89.489 Y20.163
G01 F600 X89.339 Y20.330
G01 F600 X89.157 Y20.462
G01 F600 X88.952 Y20.553
G01 F600 X88.733 Y20.600
G01 F600 X88.508 Y20.600
G01 F600 X88.289 Y20.553
G01 F600 X88.084 Y20.462
G01 F600 X87.903 Y20.330
G01 F600 X87.752 Y20.163
G01 F600 X87.669 Y20.019
G01 F600 X81.488 Y20.019
G01 F600 X81.488 Y61.693
G01 F600 X81.569 Y61.728
G01 F600 X81.761 Y61.868
G01 F600 X81.920 Y62.045
G01 F600 X82.039 Y62.250
G01 F600 X82.112 Y62.476
G01 F600 X82.137 Y62.713
G01 F600 X82.112 Y62.949
G01 F600 X82.039 Y63.175
G01 F600 X81.920 Y63.381
G01 F600 X81.761 Y63.557
G01 F600 X81.569 Y63.697
G01 F600 X81.352 Y63.794
G01 F600 X81.119 Y63.843
G01 F600 X80.882 Y63.843
G00 F3000 Z3.000
G00 F3000 X63.108 Y63.780
G00 F1500 Z0
G01 F600 Z-0.200
G01 F600 X62.889 Y63.733
G01 F600 X62.684 Y63.642
G01 F600 X62.503 Y63.510
G01 F600 X62.353 Y63.343
G01 F600 X62.240 Y63.149
G01 F600 X62.171 Y62.936
G01 F600 X62.148 Y62.713
G01 F600 X62.171 Y62.489
G01 F600 X62.240 Y62.276
G01 F600 X62.353 Y62.082
G01 F600 X62.503 Y61.915
G01 F600 X62.684 Y61.783
G01 F600 X62.889 Y61.692
G01 F600 X63.108 Y61.646
G01 F600 X63.333 Y61.646
G01 F600 X63.552 Y61.692
G01 F600 X63.757 Y61.783
G01 F600 X63.939 Y61.915
G01 F600 X64.089 Y62.082
G01 F600 X64.174 Y62.230
G01 F600 X65.273 Y62.245
G01 F600 X65.273 Y49.978
G01 F600 X65.282 Y49.886
G01 F600 X65.314 Y49.788
G01 F600 X65.365 Y49.700
G01 F600 X65.434 Y49.624
G01 F600 X65.516 Y49.564
G01 F600 X65.610 Y49.522
G01 F600 X65.710 Y49.501
G01 F600 X65.793 Y49.501
G01 F600 X72.430 Y49.526
G01 F600 X72.513 Y49.382
G01 F600 X72.663 Y49.215
G01 F600 X72.844 Y49.083
G01 F600 X73.049 Y48.992
G01 F600 X73.268 Y48.946
G01 F600 X73.493 Y48.946
G01 F600 X73.712 Y48.992
G01 F600 X73.917 Y49.083
G01 F600 X74.099 Y49.215
G01 F600 X74.249 Y49.382
G01 F600 X74.361 Y49.576
G01 F600 X74.430 Y49.790
G01 F600 X74.454 Y50.013
G01 F600 X74.430 Y50.236
G01 F600 X74.361 Y50.449
G01 F600 X74.249 Y50.643
G01 F600 X74.099 Y50.810
G01 F600 X73.917 Y50.942
G01 F600 X73.712 Y51.033
G01 F600 X73.493 Y51.080
G01 F600 X73.268 Y51.080
G01 F600 X73.049 Y51.033
G01 F600 X72.844 Y50.942
G01 F600 X72.663 Y50.810
G01 F600 X72.513 Y50.643
G01 F600 X72.429 Y50.498
G01 F600 X66.248 Y50.475
G01 F600 X66.248 Y62.748
G01 F600 X66.239 Y62.840
G01 F600 X66.207 Y62.937
G01 F600 X66.156 Y63.025
G01 F600 X66.088 Y63.101
G01 F600 X66.005 Y63.161
G01 F600 X65.912 Y63.203
G01 F600 X65.812 Y63.224
G01 F600 X65.727 Y63.224
G01 F600 X64.170 Y63.203
G01 F600 X64.089 Y63.343
G01 F600 X63.939 Y63.510
G01 F600 X63.757 Y63.642
G01 F600 X63.552 Y63.733
G01 F600 X63.333 Y63.780
G01 F600 X63.108 Y63.780
G00 F3000 Z3.000
G00 F3000 X30.063 Y63.780
G00 F1500 Z0
G01 F600 Z-0.200
G01 F600 X29.844 Y63.733
G01 F600 X29.639 Y63.642
G01 F600 X29.457 Y63.510
G01 F600 X29.307 Y63.343
G01 F600 X29.195 Y63.149
G01 F600 X29.126 Y62.936
G01 F600 X29.102 Y62.713
G01 F600 X29.126 Y62.489
G01 F600 X29.195 Y62.276
G01 F600 X29.307 Y62.082
G01 F600 X29.457 Y61.915
G01 F600 X29.639 Y61.783
G01 F600 X29.844 Y61.692
G01 F600 X30.063 Y61.646
G01 F600 X30.287 Y61.646
G01 F600 X30.507 Y61.692
G01 F600 X30.712 Y61.783
G01 F600 X30.893 Y61.915
G01 F600 X31.043 Y62.082
G01 F600 X31.128 Y62.228
G01 F600 X34.818 Y62.249
G01 F600 X34.818 Y42.383
G01 F600 X34.828 Y42.291
G01 F600 X34.860 Y42.194
G01 F600 X34.910 Y42.105
G01 F600 X34.979 Y42.029
G01 F600 X35.062 Y41.969
G01 F600 X35.155 Y41.928
G01 F600 X35.255 Y41.907
G01 F600 X72.429 Y41.907
G01 F600 X72.513 Y41.762
G01 F600 X72.663 Y41.595
G01 F600 X72.844 Y41.463
G01 F600 X73.049 Y41.372
G01 F600 X73.268 Y41.326
G01 F600 X73.493 Y41.326
G01 F600 X73.712 Y41.372
G01 F600 X73.917 Y41.463
G01 F600 X74.099 Y41.595
G01 F600 X74.249 Y41.762
G01 F600 X74.361 Y41.956
G01 F600 X74.430 Y42.169
G01 F600 X74.454 Y42.393
G01 F600 X74.430 Y42.616
G01 F600 X74.361 Y42.829
G01 F600 X74.249 Y43.023
G01 F600 X74.099 Y43.190
G01 F600 X73.917 Y43.322
G01 F600 X73.712 Y43.413
G01 F600 X73.493 Y43.460
G01 F600 X73.268 Y43.460
G01 F600 X73.049 Y43.413
G01 F600 X72.844 Y43.322
G01 F600 X72.663 Y43.190
G01 F600 X72.513 Y43.023
G01 F600 X72.429 Y42.879
G01 F600 X35.794 Y42.879
G01 F600 X35.794 Y62.748
G01 F600 X35.784 Y62.840
G01 F600 X35.753 Y62.937
G01 F600 X35.702 Y63.025
G01 F600 X35.633 Y63.101
G01 F600 X35.550 Y63.161
G01 F600 X35.457 Y63.203
G01 F600 X35.357 Y63.224
G01 F600 X35.274 Y63.224
G01 F600 X31.126 Y63.200
G01 F600 X31.043 Y63.343
G01 F600 X30.893 Y63.510
G01 F600 X30.712 Y63.642
G01 F600 X30.507 Y63.733
G01 F600 X30.287 Y63.780
G01 F600 X30.063 Y63.780
G00 F3000 Z3.000
G00 F3000 X72.398 Y63.746
G00 F1500 Z0
G01 F600 Z-0.200
G01 F600 X72.398 Y63.246
G01 F600 X70.763 Y63.224
G01 F600 X70.664 Y63.203
G01 F600 X70.571 Y63.161
G01 F600 X70.488 Y63.101
G01 F600 X70.420 Y63.025
G01 F600 X70.369 Y62.937
G01 F600 X70.337 Y62.840
G01 F600 X70.327 Y62.747
G01 F600 X70.352 Y56.112
G01 F600 X70.272 Y56.077
G01 F600 X70.080 Y55.937
G01 F600 X69.921 Y55.761
G01 F600 X69.802 Y55.555
G01 F600 X69.729 Y55.329
G01 F600 X69.704 Y55.093
G01 F600 X69.729 Y54.856
G01 F600 X69.802 Y54.630
G01 F600 X69.921 Y54.425
G01 F600 X70.080 Y54.248
G01 F600 X70.272 Y54.108
G01 F600 X70.489 Y54.012
G01 F600 X70.722 Y53.962
G01 F600 X70.959 Y53.962
G01 F600 X71.192 Y54.012
G01 F600 X71.409 Y54.108
G01 F600 X71.601 Y54.248
G01 F600 X71.760 Y54.425
G01 F600 X71.879 Y54.630
G01 F600 X71.952 Y54.856
G01 F600 X71.977 Y55.093
G01 F600 X71.952 Y55.329
G01 F600 X71.879 Y55.555
G01 F600 X71.760 Y55.761
G01 F600 X71.601 Y55.937
G01 F600 X71.409 Y56.077
G01 F600 X71.327 Y56.113
G01 F600 X71.305 Y62.258
G01 F600 X72.398 Y62.273
G01 F600 X72.398 Y61.780
G01 F600 X74.364 Y61.780
G01 F600 X74.364 Y63.746
G01 F600 X72.398 Y63.746
G00 F3000 Z3.000
G00 F3000 X67.318 Y63.746
G00 F1500 Z0
G01 F600 Z-0.200
G01 F600 X67.318 Y61.780
G01 F600 X67.813 Y61.780
G01 F600 X67.813 Y58.653
G01 F600 X67.732 Y58.617
G01 F600 X67.540 Y58.477
G01 F600 X67.381 Y58.301
G01 F600 X67.262 Y58.095
G01 F600 X67.189 Y57.869
G01 F600 X67.164 Y57.633
G01 F600 X67.189 Y57.396
G01 F600 X67.262 Y57.170
G01 F600 X67.381 Y56.965
G01 F600 X67.540 Y56.788
G01 F600 X67.732 Y56.648
G01 F600 X67.949 Y56.552
G01 F600 X68.182 Y56.502
G01 F600 X68.419 Y56.502
G01 F600 X68.652 Y56.552
G01 F600 X68.869 Y56.648
G01 F600 X69.061 Y56.788
G01 F600 X69.220 Y56.965
G01 F600 X69.339 Y57.170
G01 F600 X69.412 Y57.396
G01 F600 X69.437 Y57.633
G01 F600 X69.412 Y57.869
G01 F600 X69.339 Y58.095
G01 F600 X69.220 Y58.301
G01 F600 X69.061 Y58.477
G01 F600 X68.869 Y58.617
G01 F600 X68.788 Y58.653
G01 F600 X68.788 Y61.780
G01 F600 X69.284 Y61.780
G01 F600 X69.284 Y63.746
G01 F600 X67.318 Y63.746
G00 F3000 Z3.000
G00 F3000 X39.162 Y61.372
G00 F1500 Z0
G01 F600 Z-0.200
G01 F600 X39.162 Y58.974
G01 F600 X40.870 Y58.974
G01 F600 X42.577 Y57.267
G01 F600 X42.656 Y57.209
G01 F600 X42.750 Y57.168
G01 F600 X42.849 Y57.147
G01 F600 X49.569 Y57.147
G01 F600 X49.653 Y57.002
G01 F600 X49.803 Y56.835
G01 F600 X49.984 Y56.703
G01 F600 X50.189 Y56.612
G01 F600 X50.408 Y56.566
G01 F600 X50.633 Y56.566
G01 F600 X50.852 Y56.612
G01 F600 X51.057 Y56.703
G01 F600 X51.239 Y56.835
G01 F600 X51.389 Y57.002
G01 F600 X51.501 Y57.196
G01 F600 X51.570 Y57.410
G01 F600 X51.594 Y57.633
G01 F600 X51.570 Y57.856
G01 F600 X51.501 Y58.069
G01 F600 X51.389 Y58.263
G01 F600 X51.239 Y58.430
G01 F600 X51.057 Y58.562
G01 F600 X50.852 Y58.653
G01 F600 X50.633 Y58.700
G01 F600 X50.408 Y58.700
G01 F600 X50.189 Y58.653
G01 F600 X49.984 Y58.562
G01 F600 X49.803 Y58.430
G01 F600 X49.653 Y58.263
G01 F600 X49.569 Y58.119
G01 F600 X43.104 Y58.119
G01 F600 X41.560 Y59.663
G01 F600 X41.560 Y61.372
G01 F600 X39.162 Y61.372
G00 F3000 Z3.000
G00 F3000 X63.108 Y61.240
G00 F1500 Z0
G01 F600 Z-0.200
G01 F600 X62.889 Y61.193
G01 F600 X62.684 Y61.102
G01 F600 X62.503 Y60.970
G01 F600 X62.353 Y60.803
G01 F600 X62.240 Y60.609
G01 F600 X62.171 Y60.396
G01 F600 X62.148 Y60.173
G01 F600 X62.171 Y59.950
G01 F600 X62.240 Y59.736
G01 F600 X62.353 Y59.542
G01 F600 X62.503 Y59.375
G01 F600 X62.684 Y59.243
G01 F600 X62.889 Y59.152
G01 F600 X63.108 Y59.106
G01 F600 X63.333 Y59.106
G01 F600 X63.552 Y59.152
G01 F600 X63.757 Y59.243
G01 F600 X63.939 Y59.375
G01 F600 X64.089 Y59.542
G01 F600 X64.201 Y59.736
G01 F600 X64.270 Y59.950
G01 F600 X64.294 Y60.173
G01 F600 X64.270 Y60.396
G01 F600 X64.201 Y60.609
G01 F600 X64.089 Y60.803
G01 F600 X63.939 Y60.970
G01 F600 X63.757 Y61.102
G01 F600 X63.552 Y61.193
G01 F600 X63.333 Y61.240
G01 F600 X63.108 Y61.240
G00 F3000 Z3.000
G00 F3000 X30.063 Y61.240
G00 F1500 Z0
G01 F600 Z-0.200
G01 F600 X29.844 Y61.193
G01 F600 X29.639 Y61.102
G01 F600 X29.457 Y60.970
G01 F600 X29.307 Y60.803
G01 F600 X29.195 Y60.609
G01 F600 X29.126 Y60.396
G01 F600 X29.102 Y60.173
G01 F600 X29.126 Y59.950
G01 F600 X29.195 Y59.736
G01 F600 X29.307 Y59.542
G01 F600 X29.457 Y59.375
G01 F600 X29.639 Y59.243
G01 F600 X29.844 Y59.152
G01 F600 X30.063 Y59.106
G01 F600 X30.287 Y59.106
G01 F600 X30.507 Y59.152
G01 F600 X30.712 Y59.243
G01 F600 X30.893 Y59.375
G01 F600 X31.043 Y59.542
G01 F600 X31.155 Y59.736
G01 F600 X31.225 Y59.950
G01 F600 X31.248 Y60.173
G01 F600 X31.225 Y60.396
G01 F600 X31.155 Y60.609
G01 F600 X31.043 Y60.803
G01 F600 X30.893 Y60.970
G01 F600 X30.712 Y61.102
G01 F600 X30.507 Y61.193
G01 F600 X30.287 Y61.240
G01 F600 X30.063 Y61.240
G00 F3000 Z3.000
G00 F3000 X6.142 Y58.832
G00 F1500 Z0
G01 F600 Z-0.200
G01 F600 X6.142 Y56.434
G01 F600 X8.540 Y56.434
G01 F600 X8.540 Y57.147
G01 F600 X16.524 Y57.147
G01 F600 X16.607 Y57.002
G01 F600 X16.757 Y56.835
G01 F600 X16.939 Y56.703
G01 F600 X17.144 Y56.612
G01 F600 X17.363 Y56.566
G01 F600 X17.587 Y56.566
G01 F600 X17.807 Y56.612
G01 F600 X18.012 Y56.703
G01 F600 X18.193 Y56.835
G01 F600 X18.343 Y57.002
G01 F600 X18.455 Y57.196
G01 F600 X18.525 Y57.410
G01 F600 X18.548 Y57.633
G01 F600 X18.525 Y57.856
G01 F600 X18.455 Y58.069
G01 F600 X18.343 Y58.263
G01 F600 X18.193 Y58.430
G01 F600 X18.012 Y58.562
G01 F600 X17.807 Y58.653
G01 F600 X17.587 Y58.700
G01 F600 X17.363 Y58.700
G01 F600 X17.144 Y58.653
G01 F600 X16.939 Y58.562
G01 F600 X16.757 Y58.430
G01 F600 X16.607 Y58.263
G01 F600 X16.524 Y58.119
G01 F600 X8.540 Y58.119
G01 F600 X8.540 Y58.832
G01 F600 X6.142 Y58.832
G00 F3000 Z3.000
G00 F3000 X63.108 Y58.700
G00 F1500 Z0
G01 F600 Z-0.200
G01 F600 X62.889 Y58.653
G01 F600 X62.684 Y58.562
G01 F600 X62.503 Y58.430
G01 F600 X62.353 Y58.263
G01 F600 X62.240 Y58.069
G01 F600 X62.171 Y57.856
G01 F600 X62.148 Y57.633
G01 F600 X62.171 Y57.410
G01 F600 X62.240 Y57.196
G01 F600 X62.353 Y57.002
G01 F600 X62.503 Y56.835
G01 F600 X62.684 Y56.703
G01 F600 X62.889 Y56.612
G01 F600 X63.108 Y56.566
G01 F600 X63.333 Y56.566
G01 F600 X63.552 Y56.612
G01 F600 X63.757 Y56.703
G01 F600 X63.939 Y56.835
G01 F600 X64.089 Y57.002
G01 F600 X64.201 Y57.196
G01 F600 X64.270 Y57.410
G01 F600 X64.294 Y57.633
G01 F600 X64.270 Y57.856
G01 F600 X64.201 Y58.069
G01 F600 X64.089 Y58.263
G01 F600 X63.939 Y58.430
G01 F600 X63.757 Y58.562
G01 F600 X63.552 Y58.653
G01 F600 X63.333 Y58.700
G01 F600 X63.108 Y58.700
G00 F3000 Z3.000
G00 F3000 X30.063 Y58.700
G00 F1500 Z0
G01 F600 Z-0.200
G01 F600 X29.844 Y58.653
G01 F600 X29.639 Y58.562
G01 F600 X29.457 Y58.430
G01 F600 X29.307 Y58.263
G01 F600 X29.195 Y58.069
G01 F600 X29.126 Y57.856
G01 F600 X29.102 Y57.633
G01 F600 X29.126 Y57.410
G01 F600 X29.195 Y57.196
G01 F600 X29.307 Y57.002
G01 F600 X29.457 Y56.835
G01 F600 X29.639 Y56.703
G01 F600 X29.844 Y56.612
G01 F600 X30.063 Y56.566
G01 F600 X30.287 Y56.566
G01 F600 X30.507 Y56.612
G01 F600 X30.712 Y56.703
G01 F600 X30.893 Y56.835
G01 F600 X31.043 Y57.002
G01 F600 X31.155 Y57.196
G01 F600 X31.225 Y57.410
G01 F600 X31.248 Y57.633
G01 F600 X31.225 Y57.856
G01 F600 X31.155 Y58.069
G01 F600 X31.043 Y58.263
G01 F600 X30.893 Y58.430
G01 F600 X30.712 Y58.562
G01 F600 X30.507 Y58.653
G01 F600 X30.287 Y58.700
G01 F600 X30.063 Y58.700
G00 F3000 Z3.000
G00 F3000 X40.235 Y57.886
G00 F1500 Z0
G01 F600 Z-0.200
G01 F600 X39.990 Y57.834
G01 F600 X39.761 Y57.732
G01 F600 X39.558 Y57.585
G01 F600 X39.390 Y57.398
G01 F600 X39.264 Y57.181
G01 F600 X39.187 Y56.942
G01 F600 X39.161 Y56.693
G01 F600 X39.187 Y56.443
G01 F600 X39.264 Y56.205
G01 F600 X39.390 Y55.988
G01 F600 X39.558 Y55.801
G01 F600 X39.761 Y55.654
G01 F600 X39.990 Y55.552
G01 F600 X40.235 Y55.499
G01 F600 X40.486 Y55.499
G01 F600 X40.731 Y55.552
G01 F600 X40.961 Y55.654
G01 F600 X41.013 Y55.692
G01 F600 X42.662 Y54.667
G01 F600 X42.750 Y54.628
G01 F600 X42.849 Y54.607
G01 F600 X49.569 Y54.607
G01 F600 X49.653 Y54.462
G01 F600 X49.803 Y54.295
G01 F600 X49.984 Y54.163
G01 F600 X50.189 Y54.072
G01 F600 X50.408 Y54.026
G01 F600 X50.633 Y54.026
G01 F600 X50.852 Y54.072
G01 F600 X51.057 Y54.163
G01 F600 X51.239 Y54.295
G01 F600 X51.389 Y54.462
G01 F600 X51.501 Y54.656
G01 F600 X51.570 Y54.870
G01 F600 X51.594 Y55.093
G01 F600 X51.570 Y55.316
G01 F600 X51.501 Y55.529
G01 F600 X51.389 Y55.723
G01 F600 X51.239 Y55.890
G01 F600 X51.057 Y56.022
G01 F600 X50.852 Y56.113
G01 F600 X50.633 Y56.160
G01 F600 X50.408 Y56.160
G01 F600 X50.189 Y56.113
G01 F600 X49.984 Y56.022
G01 F600 X49.803 Y55.890
G01 F600 X49.653 Y55.723
G01 F600 X49.569 Y55.579
G01 F600 X43.042 Y55.579
G01 F600 X41.542 Y56.512
G01 F600 X41.561 Y56.693
G01 F600 X41.534 Y56.942
G01 F600 X41.457 Y57.181
G01 F600 X41.331 Y57.398
G01 F600 X41.164 Y57.585
G01 F600 X40.961 Y57.732
G01 F600 X40.731 Y57.834
G01 F600 X40.486 Y57.886
G01 F600 X40.235 Y57.886
G00 F3000 Z3.000
G00 F3000 X88.508 Y56.160
G00 F1500 Z0
G01 F600 Z-0.200
G01 F600 X88.289 Y56.113
G01 F600 X88.084 Y56.022
G01 F600 X87.903 Y55.890
G01 F600 X87.752 Y55.723
G01 F600 X87.640 Y55.529
G01 F600 X87.571 Y55.316
G01 F600 X87.548 Y55.093
G01 F600 X87.571 Y54.870
G01 F600 X87.640 Y54.656
G01 F600 X87.752 Y54.462
G01 F600 X87.903 Y54.295
G01 F600 X88.084 Y54.163
G01 F600 X88.289 Y54.072
G01 F600 X88.508 Y54.026
G01 F600 X88.733 Y54.026
G01 F600 X88.952 Y54.072
G01 F600 X89.157 Y54.163
G01 F600 X89.339 Y54.295
G01 F600 X89.489 Y54.462
G01 F600 X89.601 Y54.656
G01 F600 X89.670 Y54.870
G01 F600 X89.694 Y55.093
G01 F600 X89.670 Y55.316
G01 F600 X89.601 Y55.529
G01 F600 X89.489 Y55.723
G01 F600 X89.339 Y55.890
G01 F600 X89.157 Y56.022
G01 F600 X88.952 Y56.113
G01 F600 X88.733 Y56.160
G01 F600 X88.508 Y56.160
G00 F3000 Z3.000
G00 F3000 X63.108 Y56.160
G00 F1500 Z0
G01 F600 Z-0.200
G01 F600 X62.889 Y56.113
G01 F600 X62.684 Y56.022
G01 F600 X62.503 Y55.890
G01 F600 X62.353 Y55.723
G01 F600 X62.240 Y55.529
G01 F600 X62.171 Y55.316
G01 F600 X62.148 Y55.093
G01 F600 X62.171 Y54.870
G01 F600 X62.240 Y54.656
G01 F600 X62.353 Y54.462
G01 F600 X62.503 Y54.295
G01 F600 X62.684 Y54.163
G01 F600 X62.889 Y54.072
G01 F600 X63.108 Y54.026
G01 F600 X63.333 Y54.026
G01 F600 X63.552 Y54.072
G01 F600 X63.757 Y54.163
G01 F600 X63.939 Y54.295
G01 F600 X64.089 Y54.462
G01 F600 X64.201 Y54.656
G01 F600 X64.270 Y54.870
G01 F600 X64.294 Y55.093
G01 F600 X64.270 Y55.316
G01 F600 X64.201 Y55.529
G01 F600 X64.089 Y55.723
G01 F600 X63.939 Y55.890
G01 F600 X63.757 Y56.022
G01 F600 X63.552 Y56.113
G01 F600 X63.333 Y56.160
G01 F600 X63.108 Y56.160
G00 F3000 Z3.000
G00 F3000 X73.268 Y56.160
G00 F1500 Z0
G01 F600 Z-0.200
G01 F600 X73.049 Y56.113
G01 F600 X72.844 Y56.022
G01 F600 X72.663 Y55.890
G01 F600 X72.513 Y55.723
G01 F600 X72.400 Y55.529
G01 F600 X72.331 Y55.316
G01 F600 X72.308 Y55.093
G01 F600 X72.331 Y54.870
G01 F600 X72.400 Y54.656
G01 F600 X72.513 Y54.462
G01 F600 X72.663 Y54.295
G01 F600 X72.844 Y54.163
G01 F600 X73.049 Y54.072
G01 F600 X73.268 Y54.026
G01 F600 X73.493 Y54.026
G01 F600 X73.712 Y54.072
G01 F600 X73.917 Y54.163
G01 F600 X74.099 Y54.295
G01 F600 X74.249 Y54.462
G01 F600 X74.361 Y54.656
G01 F600 X74.430 Y54.870
G01 F600 X74.454 Y55.093
G01 F600 X74.430 Y55.316
G01 F600 X74.361 Y55.529
G01 F600 X74.249 Y55.723
G01 F600 X74.099 Y55.890
G01 F600 X73.917 Y56.022
G01 F600 X73.712 Y56.113
G01 F600 X73.493 Y56.160
G01 F600 X73.268 Y56.160
G00 F3000 Z3.000
G00 F3000 X30.063 Y56.160
G00 F1500 Z0
G01 F600 Z-0.200
G01 F600 X29.844 Y56.113
G01 F600 X29.639 Y56.022
G01 F600 X29.457 Y55.890
G01 F600 X29.307 Y55.723
G01 F600 X29.195 Y55.529
G01 F600 X29.126 Y55.316
G01 F600 X29.102 Y55.093
G01 F600 X29.126 Y54.870
G01 F600 X29.195 Y54.656
G01 F600 X29.307 Y54.462
G01 F600 X29.457 Y54.295
G01 F600 X29.639 Y54.163
G01 F600 X29.844 Y54.072
G01 F600 X30.063 Y54.026
G01 F600 X30.287 Y54.026
G01 F600 X30.507 Y54.072
G01 F600 X30.712 Y54.163
G01 F600 X30.893 Y54.295
G01 F600 X31.043 Y54.462
G01 F600 X31.155 Y54.656
G01 F600 X31.225 Y54.870
G01 F600 X31.248 Y55.093
G01 F600 X31.225 Y55.316
G01 F600 X31.155 Y55.529
G01 F600 X31.043 Y55.723
G01 F600 X30.893 Y55.890
G01 F600 X30.712 Y56.022
G01 F600 X30.507 Y56.113
G01 F600 X30.287 Y56.160
G01 F600 X30.063 Y56.160
G00 F3000 Z3.000
G00 F3000 X17.363 Y56.160
G00 F1500 Z0
G01 F600 Z-0.200
G01 F600 X17.144 Y56.113
G01 F600 X16.939 Y56.022
G01 F600 X16.757 Y55.890
G01 F600 X16.607 Y55.723
G01 F600 X16.524 Y55.579
G01 F600 X9.830 Y55.579
G01 F600 X9.736 Y55.559
G01 F600 X8.190 Y54.993
G01 F600 X8.144 Y55.045
G01 F600 X7.941 Y55.192
G01 F600 X7.711 Y55.294
G01 F600 X7.466 Y55.346
G01 F600 X7.215 Y55.346
G01 F600 X6.970 Y55.294
G01 F600 X6.741 Y55.192
G01 F600 X6.538 Y55.045
G01 F600 X6.370 Y54.858
G01 F600 X6.244 Y54.641
G01 F600 X6.167 Y54.402
G01 F600 X6.141 Y54.153
G01 F600 X6.167 Y53.903
G01 F600 X6.244 Y53.665
G01 F600 X6.370 Y53.448
G01 F600 X6.538 Y53.261
G01 F600 X6.741 Y53.114
G01 F600 X6.970 Y53.012
G01 F600 X7.215 Y52.959
G01 F600 X7.466 Y52.959
G01 F600 X7.711 Y53.012
G01 F600 X7.941 Y53.114
G01 F600 X8.144 Y53.261
G01 F600 X8.311 Y53.448
G01 F600 X8.437 Y53.665
G01 F600 X8.514 Y53.903
G01 F600 X8.533 Y54.080
G01 F600 X9.971 Y54.607
G01 F600 X16.524 Y54.607
G01 F600 X16.607 Y54.462
G01 F600 X16.757 Y54.295
G01 F600 X16.939 Y54.163
G01 F600 X17.144 Y54.072
G01 F600 X17.363 Y54.026
G01 F600 X17.587 Y54.026
G01 F600 X17.807 Y54.072
G01 F600 X18.012 Y54.163
G01 F600 X18.193 Y54.295
G01 F600 X18.343 Y54.462
G01 F600 X18.455 Y54.656
G01 F600 X18.525 Y54.870
G01 F600 X18.548 Y55.093
G01 F600 X18.525 Y55.316
G01 F600 X18.455 Y55.529
G01 F600 X18.343 Y55.723
G01 F600 X18.193 Y55.890
G01 F600 X18.012 Y56.022
G01 F600 X17.807 Y56.113
G01 F600 X17.587 Y56.160
G01 F600 X17.363 Y56.160
G00 F3000 Z3.000
G00 F3000 X39.162 Y53.752
G00 F1500 Z0
G01 F600 Z-0.200
G01 F600 X39.162 Y51.354
G01 F600 X41.560 Y51.354
G01 F600 X41.560 Y52.067
G01 F600 X49.569 Y52.067
G01 F600 X49.653 Y51.922
G01 F600 X49.803 Y51.755
G01 F600 X49.984 Y51.623
G01 F600 X50.189 Y51.532
G01 F600 X50.408 Y51.486
G01 F600 X50.633 Y51.486
G01 F600 X50.852 Y51.532
G01 F600 X51.057 Y51.623
G01 F600 X51.239 Y51.755
G01 F600 X51.389 Y51.922
G01 F600 X51.501 Y52.116
G01 F600 X51.570 Y52.330
G01 F600 X51.594 Y52.553
G01 F600 X51.570 Y52.776
G01 F600 X51.501 Y52.989
G01 F600 X51.389 Y53.183
G01 F600 X51.239 Y53.350
G01 F600 X51.057 Y53.482
G01 F600 X50.852 Y53.573
G01 F600 X50.633 Y53.620
G01 F600 X50.408 Y53.620
G01 F600 X50.189 Y53.573
G01 F600 X49.984 Y53.482
G01 F600 X49.803 Y53.350
G01 F600 X49.653 Y53.183
G01 F600 X49.569 Y53.039
G01 F600 X41.560 Y53.039
G01 F600 X41.560 Y53.752
G01 F600 X39.162 Y53.752
G00 F3000 Z3.000
G00 F3000 X88.508 Y53.620
G00 F1500 Z0
G01 F600 Z-0.200
G01 F600 X88.289 Y53.573
G01 F600 X88.084 Y53.482
G01 F600 X87.903 Y53.350
G01 F600 X87.752 Y53.183
G01 F600 X87.640 Y52.989
G01 F600 X87.571 Y52.776
G01 F600 X87.548 Y52.553
G01 F600 X87.571 Y52.330
G01 F600 X87.640 Y52.116
G01 F600 X87.752 Y51.922
G01 F600 X87.903 Y51.755
G01 F600 X88.084 Y51.623
G01 F600 X88.289 Y51.532
G01 F600 X88.508 Y51.486
G01 F600 X88.733 Y51.486
G01 F600 X88.952 Y51.532
G01 F600 X89.157 Y51.623
G01 F600 X89.339 Y51.755
G01 F600 X89.489 Y51.922
G01 F600 X89.601 Y52.116
G01 F600 X89.670 Y52.330
G01 F600 X89.694 Y52.553
G01 F600 X89.670 Y52.776
G01 F600 X89.601 Y52.989
G01 F600 X89.489 Y53.183
G01 F600 X89.339 Y53.350
G01 F600 X89.157 Y53.482
G01 F600 X88.952 Y53.573
G01 F600 X88.733 Y53.620
G01 F600 X88.508 Y53.620
G00 F3000 Z3.000
G00 F3000 X63.108 Y53.620
G00 F1500 Z0
G01 F600 Z-0.200
G01 F600 X62.889 Y53.573
G01 F600 X62.684 Y53.482
G01 F600 X62.503 Y53.350
G01 F600 X62.353 Y53.183
G01 F600 X62.240 Y52.989
G01 F600 X62.171 Y52.776
G01 F600 X62.148 Y52.553
G01 F600 X62.171 Y52.330
G01 F600 X62.240 Y52.116
G01 F600 X62.353 Y51.922
G01 F600 X62.503 Y51.755
G01 F600 X62.684 Y51.623
G01 F600 X62.889 Y51.532
G01 F600 X63.108 Y51.486
G01 F600 X63.333 Y51.486
G01 F600 X63.552 Y51.532
G01 F600 X63.757 Y51.623
G01 F600 X63.939 Y51.755
G01 F600 X64.089 Y51.922
G01 F600 X64.201 Y52.116
G01 F600 X64.270 Y52.330
G01 F600 X64.294 Y52.553
G01 F600 X64.270 Y52.776
G01 F600 X64.201 Y52.989
G01 F600 X64.089 Y53.183
G01 F600 X63.939 Y53.350
G01 F600 X63.757 Y53.482
G01 F600 X63.552 Y53.573
G01 F600 X63.333 Y53.620
G01 F600 X63.108 Y53.620
G00 F3000 Z3.000
G00 F3000 X73.268 Y53.620
G00 F1500 Z0
G01 F600 Z-0.200
G01 F600 X73.049 Y53.573
G01 F600 X72.844 Y53.482
G01 F600 X72.663 Y53.350
G01 F600 X72.513 Y53.183
G01 F600 X72.400 Y52.989
G01 F600 X72.331 Y52.776
G01 F600 X72.308 Y52.553
G01 F600 X72.331 Y52.330
G01 F600 X72.400 Y52.116
G01 F600 X72.513 Y51.922
G01 F600 X72.663 Y51.755
G01 F600 X72.844 Y51.623
G01 F600 X73.049 Y51.532
G01 F600 X73.268 Y51.486
G01 F600 X73.493 Y51.486
G01 F600 X73.712 Y51.532
G01 F600 X73.917 Y51.623
G01 F600 X74.099 Y51.755
G01 F600 X74.249 Y51.922
G01 F600 X74.361 Y52.116
G01 F600 X74.430 Y52.330
G01 F600 X74.454 Y52.553
G01 F600 X74.430 Y52.776
G01 F600 X74.361 Y52.989
G01 F600 X74.249 Y53.183
G01 F600 X74.099 Y53.350
G01 F600 X73.917 Y53.482
G01 F600 X73.712 Y53.573
G01 F600 X73.493 Y53.620
G01 F600 X73.268 Y53.620
G00 F3000 Z3.000
G00 F3000 X30.063 Y53.620
G00 F1500 Z0
G01 F600 Z-0.200
G01 F600 X29.844 Y53.573
G01 F600 X29.639 Y53.482
G01 F600 X29.457 Y53.350
G01 F600 X29.307 Y53.183
G01 F600 X29.195 Y52.989
G01 F600 X29.126 Y52.776
G01 F600 X29.102 Y52.553
G01 F600 X29.126 Y52.330
G01 F600 X29.195 Y52.116
G01 F600 X29.307 Y51.922
G01 F600 X29.457 Y51.755
G01 F600 X29.639 Y51.623
G01 F600 X29.844 Y51.532
G01 F600 X30.063 Y51.486
G01 F600 X30.287 Y51.486
G01 F600 X30.507 Y51.532
G01 F600 X30.712 Y51.623
G01 F600 X30.893 Y51.755
G01 F600 X31.043 Y51.922
G01 F600 X31.155 Y52.116
G01 F600 X31.225 Y52.330
G01 F600 X31.248 Y52.553
G01 F600 X31.225 Y52.776
G01 F600 X31.155 Y52.989
G01 F600 X31.043 Y53.183
G01 F600 X30.893 Y53.350
G01 F600 X30.712 Y53.482
G01 F600 X30.507 Y53.573
G01 F600 X30.287 Y53.620
G01 F600 X30.063 Y53.620
G00 F3000 Z3.000
G00 F3000 X17.363 Y53.620
G00 F1500 Z0
G01 F600 Z-0.200
G01 F600 X17.144 Y53.573
G01 F600 X16.939 Y53.482
G01 F600 X16.757 Y53.350
G01 F600 X16.607 Y53.183
G01 F600 X16.524 Y53.039
G01 F600 X12.370 Y53.039
G01 F600 X12.270 Y53.018
G01 F600 X12.190 Y52.982
G01 F600 X8.540 Y51.157
G01 F600 X8.540 Y51.212
G01 F600 X6.142 Y51.212
G01 F600 X6.142 Y48.814
G01 F600 X8.540 Y48.814
G01 F600 X8.540 Y50.067
G01 F600 X12.538 Y52.067
G01 F600 X16.524 Y52.067
G01 F600 X16.607 Y51.922
G01 F600 X16.757 Y51.755
G01 F600 X16.939 Y51.623
G01 F600 X17.144 Y51.532
G01 F600 X17.363 Y51.486
G01 F600 X17.587 Y51.486
G01 F600 X17.807 Y51.532
G01 F600 X18.012 Y51.623
G01 F600 X18.193 Y51.755
G01 F600 X18.343 Y51.922
G01 F600 X18.455 Y52.116
G01 F600 X18.525 Y52.330
G01 F600 X18.548 Y52.553
G01 F600 X18.525 Y52.776
G01 F600 X18.455 Y52.989
G01 F600 X18.343 Y53.183
G01 F600 X18.193 Y53.350
G01 F600 X18.012 Y53.482
G01 F600 X17.807 Y53.573
G01 F600 X17.587 Y53.620
G01 F600 X17.363 Y53.620
G00 F3000 Z3.000
G00 F3000 X93.578 Y51.181
G00 F1500 Z0
G01 F600 Z-0.200
G01 F600 X93.338 Y51.130
G01 F600 X93.113 Y51.030
G01 F600 X92.915 Y50.886
G01 F600 X92.750 Y50.703
G01 F600 X92.632 Y50.499
G01 F600 X89.572 Y50.499
G01 F600 X89.489 Y50.643
G01 F600 X89.339 Y50.810
G01 F600 X89.157 Y50.942
G01 F600 X88.952 Y51.033
G01 F600 X88.733 Y51.080
G01 F600 X88.508 Y51.080
G01 F600 X88.289 Y51.033
G01 F600 X88.084 Y50.942
G01 F600 X87.903 Y50.810
G01 F600 X87.752 Y50.643
G01 F600 X87.640 Y50.449
G01 F600 X87.571 Y50.236
G01 F600 X87.548 Y50.013
G01 F600 X87.571 Y49.790
G01 F600 X87.640 Y49.576
G01 F600 X87.752 Y49.382
G01 F600 X87.903 Y49.215
G01 F600 X88.084 Y49.083
G01 F600 X88.289 Y48.992
G01 F600 X88.508 Y48.946
G01 F600 X88.733 Y48.946
G01 F600 X88.952 Y48.992
G01 F600 X89.157 Y49.083
G01 F600 X89.339 Y49.215
G01 F600 X89.489 Y49.382
G01 F600 X89.572 Y49.527
G01 F600 X92.632 Y49.527
G01 F600 X92.750 Y49.322
G01 F600 X92.915 Y49.140
G01 F600 X93.113 Y48.995
G01 F600 X93.338 Y48.896
G01 F600 X93.578 Y48.844
G01 F600 X93.823 Y48.844
G01 F600 X94.064 Y48.896
G01 F600 X94.288 Y48.995
G01 F600 X94.487 Y49.140
G01 F600 X94.651 Y49.322
G01 F600 X94.774 Y49.535
G01 F600 X94.850 Y49.768
G01 F600 X94.875 Y50.013
G01 F600 X94.850 Y50.257
G01 F600 X94.774 Y50.490
G01 F600 X94.651 Y50.703
G01 F600 X94.487 Y50.886
G01 F600 X94.288 Y51.030
G01 F600 X94.064 Y51.130
G01 F600 X93.823 Y51.181
G01 F600 X93.578 Y51.181
G00 F3000 Z3.000
G00 F3000 X63.108 Y51.080
G00 F1500 Z0
G01 F600 Z-0.200
G01 F600 X62.889 Y51.033
G01 F600 X62.684 Y50.942
G01 F600 X62.503 Y50.810
G01 F600 X62.353 Y50.643
G01 F600 X62.240 Y50.449
G01 F600 X62.171 Y50.236
G01 F600 X62.148 Y50.013
G01 F600 X62.171 Y49.790
G01 F600 X62.240 Y49.576
G01 F600 X62.353 Y49.382
G01 F600 X62.503 Y49.215
G01 F600 X62.684 Y49.083
G01 F600 X62.889 Y48.992
G01 F600 X63.108 Y48.946
G01 F600 X63.333 Y48.946
G01 F600 X63.552 Y48.992
G01 F600 X63.757 Y49.083
G01 F600 X63.939 Y49.215
G01 F600 X64.089 Y49.382
G01 F600 X64.201 Y49.576
G01 F600 X64.270 Y49.790
G01 F600 X64.294 Y50.013
G01 F600 X64.270 Y50.236
G01 F600 X64.201 Y50.449
G01 F600 X64.089 Y50.643
G01 F600 X63.939 Y50.810
G01 F600 X63.757 Y50.942
G01 F600 X63.552 Y51.033
G01 F600 X63.333 Y51.080
G01 F600 X63.108 Y51.080
G00 F3000 Z3.000
G00 F3000 X50.408 Y51.080
G00 F1500 Z0
G01 F600 Z-0.200
G01 F600 X50.189 Y51.033
G01 F600 X49.984 Y50.942
G01 F600 X49.803 Y50.810
G01 F600 X49.653 Y50.643
G01 F600 X49.569 Y50.499
G01 F600 X42.849 Y50.499
G01 F600 X42.756 Y50.479
G01 F600 X41.210 Y49.913
G01 F600 X41.164 Y49.965
G01 F600 X40.961 Y50.112
G01 F600 X40.731 Y50.214
G01 F600 X40.486 Y50.266
G01 F600 X40.235 Y50.266
G01 F600 X39.990 Y50.214
G01 F600 X39.761 Y50.112
G01 F600 X39.558 Y49.965
G01 F600 X39.390 Y49.778
G01 F600 X39.264 Y49.561
G01 F600 X39.187 Y49.322
G01 F600 X39.161 Y49.073
G01 F600 X39.187 Y48.823
G01 F600 X39.264 Y48.585
G01 F600 X39.390 Y48.367
G01 F600 X39.558 Y48.181
G01 F600 X39.761 Y48.034
G01 F600 X39.990 Y47.931
G01 F600 X40.235 Y47.879
G01 F600 X40.486 Y47.879
G01 F600 X40.731 Y47.931
G01 F600 X40.961 Y48.034
G01 F600 X41.164 Y48.181
G01 F600 X41.331 Y48.367
G01 F600 X41.457 Y48.585
G01 F600 X41.534 Y48.823
G01 F600 X41.553 Y49.000
G01 F600 X42.991 Y49.527
G01 F600 X49.569 Y49.527
G01 F600 X49.653 Y49.382
G01 F600 X49.803 Y49.215
G01 F600 X49.984 Y49.083
G01 F600 X50.189 Y48.992
G01 F600 X50.408 Y48.946
G01 F600 X50.633 Y48.946
G01 F600 X50.852 Y48.992
G01 F600 X51.057 Y49.083
G01 F600 X51.239 Y49.215
G01 F600 X51.389 Y49.382
G01 F600 X51.501 Y49.576
G01 F600 X51.570 Y49.790
G01 F600 X51.594 Y50.013
G01 F600 X51.570 Y50.236
G01 F600 X51.501 Y50.449
G01 F600 X51.389 Y50.643
G01 F600 X51.239 Y50.810
G01 F600 X51.057 Y50.942
G01 F600 X50.852 Y51.033
G01 F600 X50.633 Y51.080
G01 F600 X50.408 Y51.080
G00 F3000 Z3.000
G00 F3000 X30.063 Y51.080
G00 F1500 Z0
G01 F600 Z-0.200
G01 F600 X29.844 Y51.033
G01 F600 X29.639 Y50.942
G01 F600 X29.457 Y50.810
G01 F600 X29.307 Y50.643
G01 F600 X29.195 Y50.449
G01 F600 X29.126 Y50.236
G01 F600 X29.102 Y50.013
G01 F600 X29.126 Y49.790
G01 F600 X29.195 Y49.576
G01 F600 X29.307 Y49.382
G01 F600 X29.457 Y49.215
G01 F600 X29.639 Y49.083
G01 F600 X29.844 Y48.992
G01 F600 X30.063 Y48.946
G01 F600 X30.287 Y48.946
G01 F600 X30.507 Y48.992
G01 F600 X30.712 Y49.083
G01 F600 X30.893 Y49.215
G01 F600 X31.043 Y49.382
G01 F600 X31.155 Y49.576
G01 F600 X31.225 Y49.790
G01 F600 X31.248 Y50.013
G01 F600 X31.225 Y50.236
G01 F600 X31.155 Y50.449
G01 F600 X31.043 Y50.643
G01 F600 X30.893 Y50.810
G01 F600 X30.712 Y50.942
G01 F600 X30.507 Y51.033
G01 F600 X30.287 Y51.080
G01 F600 X30.063 Y51.080
G00 F3000 Z3.000
G00 F3000 X17.363 Y51.080
G00 F1500 Z0
G01 F600 Z-0.200
G01 F600 X17.144 Y51.033
G01 F600 X16.939 Y50.942
G01 F600 X16.757 Y50.810
G01 F600 X16.607 Y50.643
G01 F600 X16.524 Y50.499
G01 F600 X12.370 Y50.499
G01 F600 X12.270 Y50.477
G01 F600 X12.179 Y50.437
G01 F600 X7.970 Y47.551
G01 F600 X7.941 Y47.572
G01 F600 X7.711 Y47.674
G01 F600 X7.466 Y47.726
G01 F600 X7.215 Y47.726
G01 F600 X6.970 Y47.674
G01 F600 X6.741 Y47.572
G01 F600 X6.538 Y47.425
G01 F600 X6.370 Y47.238
G01 F600 X6.244 Y47.021
G01 F600 X6.167 Y46.782
G01 F600 X6.141 Y46.533
G01 F600 X6.167 Y46.283
G01 F600 X6.244 Y46.045
G01 F600 X6.370 Y45.828
G01 F600 X6.538 Y45.641
G01 F600 X6.741 Y45.494
G01 F600 X6.970 Y45.392
G01 F600 X7.215 Y45.339
G01 F600 X7.466 Y45.339
G01 F600 X7.711 Y45.392
G01 F600 X7.941 Y45.494
G01 F600 X8.144 Y45.641
G01 F600 X8.311 Y45.828
G01 F600 X8.437 Y46.045
G01 F600 X8.514 Y46.283
G01 F600 X8.541 Y46.533
G01 F600 X8.518 Y46.746
G01 F600 X12.573 Y49.527
G01 F600 X16.524 Y49.527
G01 F600 X16.607 Y49.382
G01 F600 X16.757 Y49.215
G01 F600 X16.939 Y49.083
G01 F600 X17.144 Y48.992
G01 F600 X17.363 Y48.946
G01 F600 X17.587 Y48.946
G01 F600 X17.807 Y48.992
G01 F600 X18.012 Y49.083
G01 F600 X18.193 Y49.215
G01 F600 X18.343 Y49.382
G01 F600 X18.455 Y49.576
G01 F600 X18.525 Y49.790
G01 F600 X18.548 Y50.013
G01 F600 X18.525 Y50.236
G01 F600 X18.455 Y50.449
G01 F600 X18.343 Y50.643
G01 F600 X18.193 Y50.810
G01 F600 X18.012 Y50.942
G01 F600 X17.807 Y51.033
G01 F600 X17.587 Y51.080
G01 F600 X17.363 Y51.080
G00 F3000 Z3.000
G00 F3000 X93.578 Y48.641
G00 F1500 Z0
G01 F600 Z-0.200
G01 F600 X93.338 Y48.590
G01 F600 X93.113 Y48.490
G01 F600 X92.915 Y48.346
G01 F600 X92.750 Y48.163
G01 F600 X92.627 Y47.950
G01 F600 X92.552 Y47.717
G01 F600 X92.526 Y47.473
G01 F600 X92.552 Y47.228
G01 F600 X92.627 Y46.995
G01 F600 X92.750 Y46.782
G01 F600 X92.915 Y46.600
G01 F600 X93.113 Y46.455
G01 F600 X93.338 Y46.355
G01 F600 X93.578 Y46.304
G01 F600 X93.823 Y46.304
G01 F600 X94.064 Y46.355
G01 F600 X94.288 Y46.455
G01 F600 X94.487 Y46.600
G01 F600 X94.651 Y46.782
G01 F600 X94.774 Y46.995
G01 F600 X94.780 Y47.014
G01 F600 X98.267 Y47.034
G01 F600 X98.267 Y35.241
G01 F600 X97.440 Y35.253
G01 F600 X97.440 Y35.972
G01 F600 X95.042 Y35.972
G01 F600 X95.042 Y34.265
G01 F600 X90.799 Y30.045
G01 F600 X90.740 Y29.980
G01 F600 X90.689 Y29.891
G01 F600 X90.657 Y29.794
G01 F600 X90.647 Y29.702
G01 F600 X90.647 Y27.683
G01 F600 X89.556 Y27.667
G01 F600 X89.489 Y27.783
G01 F600 X89.339 Y27.950
G01 F600 X89.157 Y28.082
G01 F600 X88.952 Y28.173
G01 F600 X88.733 Y28.220
G01 F600 X88.508 Y28.220
G01 F600 X88.289 Y28.173
G01 F600 X88.084 Y28.082
G01 F600 X87.903 Y27.950
G01 F600 X87.752 Y27.783
G01 F600 X87.640 Y27.589
G01 F600 X87.571 Y27.376
G01 F600 X87.548 Y27.153
G01 F600 X87.571 Y26.930
G01 F600 X87.640 Y26.716
G01 F600 X87.752 Y26.522
G01 F600 X87.903 Y26.355
G01 F600 X88.084 Y26.223
G01 F600 X88.289 Y26.132
G01 F600 X88.508 Y26.085
G01 F600 X88.733 Y26.085
G01 F600 X88.952 Y26.132
G01 F600 X89.157 Y26.223
G01 F600 X89.339 Y26.355
G01 F600 X89.489 Y26.522
G01 F600 X89.572 Y26.667
G01 F600 X90.673 Y26.667
G01 F600 X90.673 Y12.114
G01 F600 X88.417 Y9.859
G01 F600 X56.625 Y9.859
G01 F600 X56.520 Y10.041
G01 F600 X56.361 Y10.217
G01 F600 X56.169 Y10.357
G01 F600 X55.952 Y10.454
G01 F600 X55.719 Y10.503
G01 F600 X55.482 Y10.503
G01 F600 X55.249 Y10.454
G01 F600 X55.032 Y10.357
G01 F600 X54.840 Y10.217
G01 F600 X54.681 Y10.041
G01 F600 X54.562 Y9.835
G01 F600 X54.489 Y9.609
G01 F600 X54.464 Y9.373
G01 F600 X54.489 Y9.136
G01 F600 X54.562 Y8.910
G01 F600 X54.681 Y8.705
G01 F600 X54.840 Y8.528
G01 F600 X55.032 Y8.388
G01 F600 X55.249 Y8.292
G01 F600 X55.482 Y8.242
G01 F600 X55.719 Y8.242
G01 F600 X55.952 Y8.292
G01 F600 X56.169 Y8.388
G01 F600 X56.361 Y8.528
G01 F600 X56.520 Y8.705
G01 F600 X56.625 Y8.886
G01 F600 X88.672 Y8.886
G01 F600 X88.772 Y8.908
G01 F600 X88.865 Y8.949
G01 F600 X88.944 Y9.007
G01 F600 X91.497 Y11.560
G01 F600 X91.556 Y11.625
G01 F600 X91.607 Y11.714
G01 F600 X91.639 Y11.811
G01 F600 X91.648 Y11.903
G01 F600 X91.648 Y27.162
G01 F600 X91.639 Y27.254
G01 F600 X91.623 Y27.303
G01 F600 X91.623 Y29.490
G01 F600 X95.729 Y33.574
G01 F600 X97.440 Y33.574
G01 F600 X97.440 Y34.280
G01 F600 X98.722 Y34.261
G01 F600 X98.806 Y34.261
G01 F600 X98.906 Y34.282
G01 F600 X99.000 Y34.324
G01 F600 X99.082 Y34.384
G01 F600 X99.151 Y34.460
G01 F600 X99.202 Y34.548
G01 F600 X99.233 Y34.646
G01 F600 X99.243 Y34.738
G01 F600 X99.243 Y47.533
G01 F600 X99.233 Y47.625
G01 F600 X99.202 Y47.722
G01 F600 X99.151 Y47.811
G01 F600 X99.082 Y47.887
G01 F600 X99.000 Y47.947
G01 F600 X98.906 Y47.988
G01 F600 X98.806 Y48.010
G01 F600 X98.723 Y48.010
G01 F600 X94.753 Y47.986
G01 F600 X94.651 Y48.163
G01 F600 X94.487 Y48.346
G01 F600 X94.288 Y48.490
G01 F600 X94.064 Y48.590
G01 F600 X93.823 Y48.641
G01 F600 X93.578 Y48.641
G00 F3000 Z3.000
G00 F3000 X68.182 Y48.603
G00 F1500 Z0
G01 F600 Z-0.200
G01 F600 X67.949 Y48.553
G01 F600 X67.732 Y48.457
G01 F600 X67.540 Y48.317
G01 F600 X67.381 Y48.141
G01 F600 X67.276 Y47.959
G01 F600 X64.172 Y47.959
G01 F600 X64.089 Y48.103
G01 F600 X63.939 Y48.270
G01 F600 X63.757 Y48.402
G01 F600 X63.552 Y48.493
G01 F600 X63.333 Y48.540
G01 F600 X63.108 Y48.540
G01 F600 X62.889 Y48.493
G01 F600 X62.684 Y48.402
G01 F600 X62.503 Y48.270
G01 F600 X62.353 Y48.103
G01 F600 X62.240 Y47.909
G01 F600 X62.171 Y47.696
G01 F600 X62.148 Y47.473
G01 F600 X62.171 Y47.250
G01 F600 X62.240 Y47.036
G01 F600 X62.353 Y46.842
G01 F600 X62.503 Y46.675
G01 F600 X62.684 Y46.543
G01 F600 X62.889 Y46.452
G01 F600 X63.108 Y46.406
G01 F600 X63.333 Y46.406
G01 F600 X63.552 Y46.452
G01 F600 X63.757 Y46.543
G01 F600 X63.939 Y46.675
G01 F600 X64.089 Y46.842
G01 F600 X64.172 Y46.986
G01 F600 X67.276 Y46.986
G01 F600 X67.381 Y46.805
G01 F600 X67.540 Y46.628
G01 F600 X67.732 Y46.488
G01 F600 X67.949 Y46.392
G01 F600 X68.182 Y46.342
G01 F600 X68.419 Y46.342
G01 F600 X68.652 Y46.392
G01 F600 X68.869 Y46.488
G01 F600 X69.061 Y46.628
G01 F600 X69.220 Y46.805
G01 F600 X69.325 Y46.986
G01 F600 X72.429 Y46.986
G01 F600 X72.513 Y46.842
G01 F600 X72.663 Y46.675
G01 F600 X72.844 Y46.543
G01 F600 X73.049 Y46.452
G01 F600 X73.268 Y46.406
G01 F600 X73.493 Y46.406
G01 F600 X73.712 Y46.452
G01 F600 X73.917 Y46.543
G01 F600 X74.099 Y46.675
G01 F600 X74.249 Y46.842
G01 F600 X74.361 Y47.036
G01 F600 X74.430 Y47.250
G01 F600 X74.454 Y47.473
G01 F600 X74.430 Y47.696
G01 F600 X74.361 Y47.909
G01 F600 X74.249 Y48.103
G01 F600 X74.099 Y48.270
G01 F600 X73.917 Y48.402
G01 F600 X73.712 Y48.493
G01 F600 X73.493 Y48.540
G01 F600 X73.268 Y48.540
G01 F600 X73.049 Y48.493
G01 F600 X72.844 Y48.402
G01 F600 X72.663 Y48.270
G01 F600 X72.513 Y48.103
G01 F600 X72.429 Y47.959
G01 F600 X69.325 Y47.959
G01 F600 X69.220 Y48.141
G01 F600 X69.061 Y48.317
G01 F600 X68.869 Y48.457
G01 F600 X68.652 Y48.553
G01 F600 X68.419 Y48.603
G01 F600 X68.182 Y48.603
G00 F3000 Z3.000
G00 F3000 X88.508 Y48.540
G00 F1500 Z0
G01 F600 Z-0.200
G01 F600 X88.289 Y48.493
G01 F600 X88.084 Y48.402
G01 F600 X87.903 Y48.270
G01 F600 X87.752 Y48.103
G01 F600 X87.640 Y47.909
G01 F600 X87.571 Y47.696
G01 F600 X87.548 Y47.473
G01 F600 X87.571 Y47.250
G01 F600 X87.640 Y47.036
G01 F600 X87.752 Y46.842
G01 F600 X87.903 Y46.675
G01 F600 X88.084 Y46.543
G01 F600 X88.289 Y46.452
G01 F600 X88.508 Y46.406
G01 F600 X88.733 Y46.406
G01 F600 X88.952 Y46.452
G01 F600 X89.157 Y46.543
G01 F600 X89.339 Y46.675
G01 F600 X89.489 Y46.842
G01 F600 X89.601 Y47.036
G01 F600 X89.670 Y47.250
G01 F600 X89.694 Y47.473
G01 F600 X89.670 Y47.696
G01 F600 X89.601 Y47.909
G01 F600 X89.489 Y48.103
G01 F600 X89.339 Y48.270
G01 F600 X89.157 Y48.402
G01 F600 X88.952 Y48.493
G01 F600 X88.733 Y48.540
G01 F600 X88.508 Y48.540
G00 F3000 Z3.000
G00 F3000 X50.408 Y48.540
G00 F1500 Z0
G01 F600 Z-0.200
G01 F600 X50.189 Y48.493
G01 F600 X49.984 Y48.402
G01 F600 X49.803 Y48.270
G01 F600 X49.653 Y48.103
G01 F600 X49.567 Y47.955
G01 F600 X47.928 Y47.933
G01 F600 X47.830 Y47.912
G01 F600 X47.736 Y47.870
G01 F600 X47.654 Y47.811
G01 F600 X47.585 Y47.735
G01 F600 X47.534 Y47.646
G01 F600 X47.503 Y47.549
G01 F600 X47.493 Y47.457
G01 F600 X47.493 Y45.419
G01 F600 X46.465 Y45.419
G01 F600 X46.360 Y45.601
G01 F600 X46.201 Y45.777
G01 F600 X46.009 Y45.917
G01 F600 X45.792 Y46.014
G01 F600 X45.559 Y46.063
G01 F600 X45.322 Y46.063
G01 F600 X45.089 Y46.014
G01 F600 X44.872 Y45.917
G01 F600 X44.680 Y45.777
G01 F600 X44.521 Y45.601
G01 F600 X44.402 Y45.395
G01 F600 X44.329 Y45.169
G01 F600 X44.304 Y44.933
G01 F600 X44.329 Y44.696
G01 F600 X44.402 Y44.470
G01 F600 X44.521 Y44.265
G01 F600 X44.680 Y44.088
G01 F600 X44.872 Y43.948
G01 F600 X45.089 Y43.852
G01 F600 X45.322 Y43.802
G01 F600 X45.559 Y43.802
G01 F600 X45.792 Y43.852
G01 F600 X46.009 Y43.948
G01 F600 X46.201 Y44.088
G01 F600 X46.360 Y44.265
G01 F600 X46.465 Y44.447
G01 F600 X48.032 Y44.447
G01 F600 X48.132 Y44.468
G01 F600 X48.225 Y44.509
G01 F600 X48.308 Y44.569
G01 F600 X48.376 Y44.645
G01 F600 X48.427 Y44.734
G01 F600 X48.459 Y44.831
G01 F600 X48.468 Y44.923
G01 F600 X48.468 Y46.967
G01 F600 X49.572 Y46.982
G01 F600 X49.653 Y46.842
G01 F600 X49.803 Y46.675
G01 F600 X49.984 Y46.543
G01 F600 X50.189 Y46.452
G01 F600 X50.408 Y46.406
G01 F600 X50.633 Y46.406
G01 F600 X50.852 Y46.452
G01 F600 X51.057 Y46.543
G01 F600 X51.239 Y46.675
G01 F600 X51.389 Y46.842
G01 F600 X51.501 Y47.036
G01 F600 X51.570 Y47.250
G01 F600 X51.594 Y47.473
G01 F600 X51.570 Y47.696
G01 F600 X51.501 Y47.909
G01 F600 X51.389 Y48.103
G01 F600 X51.239 Y48.270
G01 F600 X51.057 Y48.402
G01 F600 X50.852 Y48.493
G01 F600 X50.633 Y48.540
G01 F600 X50.408 Y48.540
G00 F3000 Z3.000
G00 F3000 X17.363 Y48.540
G00 F1500 Z0
G01 F600 Z-0.200
G01 F600 X17.144 Y48.493
G01 F600 X16.939 Y48.402
G01 F600 X16.757 Y48.270
G01 F600 X16.607 Y48.103
G01 F600 X16.524 Y47.959
G01 F600 X14.910 Y47.959
G01 F600 X14.810 Y47.938
G01 F600 X14.716 Y47.896
G01 F600 X14.634 Y47.836
G01 F600 X14.565 Y47.760
G01 F600 X14.514 Y47.671
G01 F600 X14.482 Y47.574
G01 F600 X14.473 Y47.482
G01 F600 X14.473 Y42.383
G01 F600 X14.482 Y42.291
G01 F600 X14.514 Y42.194
G01 F600 X14.565 Y42.105
G01 F600 X14.634 Y42.029
G01 F600 X14.716 Y41.969
G01 F600 X14.810 Y41.928
G01 F600 X14.910 Y41.907
G01 F600 X17.013 Y41.907
G01 F600 X17.013 Y32.223
G01 F600 X17.023 Y32.131
G01 F600 X17.054 Y32.034
G01 F600 X17.105 Y31.945
G01 F600 X17.164 Y31.880
G01 F600 X27.337 Y21.707
G01 F600 X27.416 Y21.649
G01 F600 X27.510 Y21.608
G01 F600 X27.610 Y21.587
G01 F600 X34.793 Y21.587
G01 F600 X34.793 Y11.903
G01 F600 X34.803 Y11.811
G01 F600 X34.834 Y11.714
G01 F600 X34.885 Y11.625
G01 F600 X34.944 Y11.560
G01 F600 X37.497 Y9.007
G01 F600 X37.576 Y8.949
G01 F600 X37.670 Y8.908
G01 F600 X37.770 Y8.886
G01 F600 X40.412 Y8.886
G01 F600 X40.512 Y8.908
G01 F600 X40.605 Y8.949
G01 F600 X40.684 Y9.007
G01 F600 X48.184 Y16.506
G01 F600 X49.569 Y16.506
G01 F600 X49.653 Y16.362
G01 F600 X49.803 Y16.195
G01 F600 X49.984 Y16.063
G01 F600 X50.189 Y15.972
G01 F600 X50.408 Y15.926
G01 F600 X50.633 Y15.926
G01 F600 X50.852 Y15.972
G01 F600 X51.057 Y16.063
G01 F600 X51.239 Y16.195
G01 F600 X51.389 Y16.362
G01 F600 X51.472 Y16.506
G01 F600 X54.576 Y16.506
G01 F600 X54.681 Y16.325
G01 F600 X54.840 Y16.148
G01 F600 X55.032 Y16.008
G01 F600 X55.249 Y15.912
G01 F600 X55.482 Y15.862
G01 F600 X55.719 Y15.862
G01 F600 X55.952 Y15.912
G01 F600 X56.169 Y16.008
G01 F600 X56.361 Y16.148
G01 F600 X56.520 Y16.325
G01 F600 X56.639 Y16.530
G01 F600 X56.712 Y16.756
G01 F600 X56.737 Y16.993
G01 F600 X56.712 Y17.229
G01 F600 X56.639 Y17.455
G01 F600 X56.520 Y17.661
G01 F600 X56.361 Y17.837
G01 F600 X56.169 Y17.977
G01 F600 X56.088 Y18.013
G01 F600 X56.088 Y23.593
G01 F600 X56.169 Y23.628
G01 F600 X56.361 Y23.768
G01 F600 X56.520 Y23.945
G01 F600 X56.639 Y24.150
G01 F600 X56.712 Y24.376
G01 F600 X56.737 Y24.613
G01 F600 X56.712 Y24.849
G01 F600 X56.639 Y25.075
G01 F600 X56.520 Y25.281
G01 F600 X56.361 Y25.457
G01 F600 X56.169 Y25.597
G01 F600 X55.952 Y25.694
G01 F600 X55.719 Y25.743
G01 F600 X55.482 Y25.743
G01 F600 X55.249 Y25.694
G01 F600 X55.032 Y25.597
G01 F600 X54.840 Y25.457
G01 F600 X54.681 Y25.281
G01 F600 X54.562 Y25.075
G01 F600 X54.489 Y24.849
G01 F600 X54.464 Y24.613
G01 F600 X54.489 Y24.376
G01 F600 X54.562 Y24.150
G01 F600 X54.681 Y23.945
G01 F600 X54.840 Y23.768
G01 F600 X55.032 Y23.628
G01 F600 X55.113 Y23.593
G01 F600 X55.113 Y18.013
G01 F600 X55.032 Y17.977
G01 F600 X54.840 Y17.837
G01 F600 X54.681 Y17.661
G01 F600 X54.576 Y17.479
G01 F600 X51.472 Y17.479
G01 F600 X51.389 Y17.623
G01 F600 X51.239 Y17.790
G01 F600 X51.057 Y17.922
G01 F600 X50.852 Y18.013
G01 F600 X50.633 Y18.060
G01 F600 X50.408 Y18.060
G01 F600 X50.189 Y18.013
G01 F600 X49.984 Y17.922
G01 F600 X49.803 Y17.790
G01 F600 X49.653 Y17.623
G01 F600 X49.569 Y17.479
G01 F600 X47.930 Y17.479
G01 F600 X47.830 Y17.457
G01 F600 X47.736 Y17.416
G01 F600 X47.657 Y17.359
G01 F600 X40.157 Y9.859
G01 F600 X38.024 Y9.859
G01 F600 X35.768 Y12.114
G01 F600 X35.768 Y22.082
G01 F600 X35.759 Y22.174
G01 F600 X35.727 Y22.271
G01 F600 X35.676 Y22.360
G01 F600 X35.608 Y22.436
G01 F600 X35.525 Y22.496
G01 F600 X35.432 Y22.538
G01 F600 X35.332 Y22.559
G01 F600 X27.864 Y22.559
G01 F600 X17.988 Y32.434
G01 F600 X17.988 Y42.402
G01 F600 X17.979 Y42.494
G01 F600 X17.947 Y42.591
G01 F600 X17.896 Y42.680
G01 F600 X17.828 Y42.756
