( PCB Contour )
( Generated by Rapid-PCB.com )
( Material Size)
( X= 120.000, Y= 80.000, Z= 1.580)
()
G00
G17
G21
G40
G49
G54
G80
G90
G94
G00 F3000 Z3.000
M03 S9000
G00 F3000 X4.623 Y76.726
G00 F1500 Z0
G01 F60 Z-0.200
G01 F60 X4.076 Y76.609
G01 F60 X3.565 Y76.382
G01 F60 X3.113 Y76.053
G01 F60 X2.739 Y75.638
G01 F60 X2.459 Y75.154
G01 F60 X2.287 Y74.622
G01 F60 X2.228 Y74.066
G01 F60 X2.287 Y73.511
G01 F60 X2.459 Y72.979
G01 F60 X2.739 Y72.495
G01 F60 X3.113 Y72.079
G01 F60 X3.565 Y71.751
G01 F60 X4.076 Y71.523
G01 F60 X4.623 Y71.407
G01 F60 X5.182 Y71.407
G01 F60 X5.729 Y71.523
G01 F60 X6.239 Y71.751
G01 F60 X6.691 Y72.079
G01 F60 X7.066 Y72.495
G01 F60 X7.345 Y72.979
G01 F60 X7.518 Y73.511
G01 F60 X7.576 Y74.066
G01 F60 X7.518 Y74.622
G01 F60 X7.345 Y75.154
G01 F60 X7.066 Y75.638
G01 F60 X6.691 Y76.053
G01 F60 X6.239 Y76.382
G01 F60 X5.729 Y76.609
G01 F60 X5.182 Y76.726
G01 F60 X4.623 Y76.726
G00 F3000 Z3.000
G00 F3000 X113.843 Y76.726
G00 F1500 Z0
G01 F60 Z-0.200
G01 F60 X113.296 Y76.609
G01 F60 X112.785 Y76.382
G01 F60 X112.333 Y76.053
G01 F60 X111.959 Y75.638
G01 F60 X111.679 Y75.154
G01 F60 X111.507 Y74.622
G01 F60 X111.448 Y74.066
G01 F60 X111.507 Y73.511
G01 F60 X111.679 Y72.979
G01 F60 X111.959 Y72.495
G01 F60 X112.333 Y72.079
G01 F60 X112.785 Y71.751
G01 F60 X113.296 Y71.523
G01 F60 X113.843 Y71.407
G01 F60 X114.402 Y71.407
G01 F60 X114.949 Y71.523
G01 F60 X115.459 Y71.751
G01 F60 X115.911 Y72.079
G01 F60 X116.285 Y72.495
G01 F60 X116.565 Y72.979
G01 F60 X116.738 Y73.511
G01 F60 X116.796 Y74.066
G01 F60 X116.738 Y74.622
G01 F60 X116.565 Y75.154
G01 F60 X116.285 Y75.638
G01 F60 X115.911 Y76.053
G01 F60 X115.459 Y76.382
G01 F60 X114.949 Y76.609
G01 F60 X114.402 Y76.726
G01 F60 X113.843 Y76.726
G00 F3000 Z3.000
G00 F3000 X50.106 Y76.487
G00 F1500 Z0
G01 F60 Z-0.200
G01 F60 X50.106 Y76.462
G01 F60 X50.081 Y76.462
G01 F60 X50.081 Y76.437
G01 F60 X50.056 Y76.437
G01 F60 X50.056 Y76.411
G01 F60 X50.030 Y76.411
G01 F60 X50.030 Y75.837
G01 F60 X50.056 Y75.837
G01 F60 X50.056 Y75.786
G01 F60 X50.081 Y75.786
G01 F60 X50.081 Y75.776
G01 F60 X49.878 Y75.776
G01 F60 X49.878 Y75.751
G01 F60 X49.827 Y75.751
G01 F60 X49.827 Y75.725
G01 F60 X49.776 Y75.725
G01 F60 X49.776 Y75.675
G01 F60 X49.751 Y75.675
G01 F60 X49.751 Y75.227
G01 F60 X49.776 Y75.227
G01 F60 X49.776 Y75.176
G01 F60 X49.802 Y75.176
G01 F60 X49.802 Y75.151
G01 F60 X49.852 Y75.151
G01 F60 X49.852 Y75.125
G01 F60 X50.183 Y75.125
G01 F60 X50.183 Y74.430
G01 F60 X49.852 Y74.430
G01 F60 X49.852 Y74.404
G01 F60 X49.802 Y74.404
G01 F60 X49.802 Y74.379
G01 F60 X49.776 Y74.379
G01 F60 X49.776 Y74.354
G01 F60 X49.751 Y74.354
G01 F60 X49.751 Y73.881
G01 F60 X49.776 Y73.881
G01 F60 X49.776 Y73.830
G01 F60 X49.827 Y73.830
G01 F60 X49.827 Y73.805
G01 F60 X51.163 Y73.805
G01 F60 X51.163 Y73.830
G01 F60 X51.189 Y73.830
G01 F60 X51.189 Y73.855
G01 F60 X51.214 Y73.855
G01 F60 X51.214 Y73.881
G01 F60 X51.240 Y73.881
G01 F60 X51.240 Y74.328
G01 F60 X51.214 Y74.328
G01 F60 X51.214 Y74.379
G01 F60 X51.189 Y74.379
G01 F60 X51.189 Y74.404
G01 F60 X51.138 Y74.404
G01 F60 X51.138 Y74.430
G01 F60 X50.808 Y74.430
G01 F60 X50.808 Y75.675
G01 F60 X50.783 Y75.675
G01 F60 X50.783 Y75.725
G01 F60 X50.757 Y75.725
G01 F60 X50.757 Y75.751
G01 F60 X50.706 Y75.751
G01 F60 X50.706 Y75.760
G01 F60 X50.757 Y75.760
G01 F60 X50.757 Y75.786
G01 F60 X50.783 Y75.786
G01 F60 X50.783 Y75.811
G01 F60 X50.808 Y75.811
G01 F60 X50.808 Y76.411
G01 F60 X50.783 Y76.411
G01 F60 X50.783 Y76.437
G01 F60 X50.757 Y76.437
G01 F60 X50.757 Y76.462
G01 F60 X50.732 Y76.462
G01 F60 X50.732 Y76.487
G01 F60 X50.106 Y76.487
G00 F3000 Z3.000
G00 F3000 X79.113 Y76.487
G00 F1500 Z0
G01 F60 Z-0.200
G01 F60 X79.113 Y76.462
G01 F60 X79.062 Y76.462
G01 F60 X79.062 Y76.437
G01 F60 X79.037 Y76.437
G01 F60 X79.037 Y75.811
G01 F60 X79.062 Y75.811
G01 F60 X79.062 Y75.786
G01 F60 X79.088 Y75.786
G01 F60 X79.088 Y75.776
G01 F60 X78.859 Y75.776
G01 F60 X78.859 Y75.751
G01 F60 X78.808 Y75.751
G01 F60 X78.808 Y75.725
G01 F60 X78.783 Y75.725
G01 F60 X78.783 Y75.700
G01 F60 X78.758 Y75.700
G01 F60 X78.758 Y75.649
G01 F60 X78.732 Y75.649
G01 F60 X78.732 Y75.252
G01 F60 X78.758 Y75.252
G01 F60 X78.758 Y75.202
G01 F60 X78.783 Y75.202
G01 F60 X78.783 Y75.176
G01 F60 X78.808 Y75.176
G01 F60 X78.808 Y75.151
G01 F60 X78.859 Y75.151
G01 F60 X78.859 Y75.125
G01 F60 X79.164 Y75.125
G01 F60 X79.164 Y74.430
G01 F60 X78.834 Y74.430
G01 F60 X78.834 Y74.404
G01 F60 X78.783 Y74.404
G01 F60 X78.783 Y74.354
G01 F60 X78.758 Y74.354
G01 F60 X78.758 Y74.303
G01 F60 X78.732 Y74.303
G01 F60 X78.732 Y73.906
G01 F60 X78.758 Y73.906
G01 F60 X78.758 Y73.855
G01 F60 X78.783 Y73.855
G01 F60 X78.783 Y73.830
G01 F60 X78.808 Y73.830
G01 F60 X78.808 Y73.805
G01 F60 X80.170 Y73.805
G01 F60 X80.170 Y73.830
G01 F60 X80.196 Y73.830
G01 F60 X80.196 Y73.855
G01 F60 X80.221 Y73.855
G01 F60 X80.221 Y74.354
G01 F60 X80.196 Y74.354
G01 F60 X80.196 Y74.379
G01 F60 X80.170 Y74.379
G01 F60 X80.170 Y74.404
G01 F60 X80.145 Y74.404
G01 F60 X80.145 Y74.430
G01 F60 X79.815 Y74.430
G01 F60 X79.815 Y75.649
G01 F60 X79.789 Y75.649
G01 F60 X79.789 Y75.700
G01 F60 X79.764 Y75.700
G01 F60 X79.764 Y75.725
G01 F60 X79.739 Y75.725
G01 F60 X79.739 Y75.751
G01 F60 X79.713 Y75.751
G01 F60 X79.713 Y75.760
G01 F60 X79.739 Y75.760
G01 F60 X79.739 Y75.786
G01 F60 X79.764 Y75.786
G01 F60 X79.764 Y75.811
G01 F60 X79.789 Y75.811
G01 F60 X79.789 Y75.862
G01 F60 X79.815 Y75.862
G01 F60 X79.815 Y76.360
G01 F60 X79.789 Y76.360
G01 F60 X79.789 Y76.437
G01 F60 X79.764 Y76.437
G01 F60 X79.764 Y76.462
G01 F60 X79.739 Y76.462
G01 F60 X79.739 Y76.487
G01 F60 X79.113 Y76.487
G00 F3000 Z3.000
G00 F3000 X99.332 Y76.386
G00 F1500 Z0
G01 F60 Z-0.200
G01 F60 X99.332 Y76.360
G01 F60 X99.306 Y76.360
G01 F60 X99.306 Y75.608
G01 F60 X99.332 Y75.608
G01 F60 X99.332 Y75.557
G01 F60 X99.357 Y75.557
G01 F60 X99.357 Y75.532
G01 F60 X99.382 Y75.532
G01 F60 X99.382 Y75.506
G01 F60 X99.865 Y75.506
G01 F60 X99.865 Y73.957
G01 F60 X99.890 Y73.957
G01 F60 X99.890 Y73.855
G01 F60 X99.916 Y73.855
G01 F60 X99.916 Y73.830
G01 F60 X99.941 Y73.830
G01 F60 X99.941 Y73.805
G01 F60 X100.440 Y73.805
G01 F60 X100.440 Y73.830
G01 F60 X100.465 Y73.830
G01 F60 X100.465 Y73.855
G01 F60 X100.490 Y73.855
G01 F60 X100.490 Y73.881
G01 F60 X100.516 Y73.881
G01 F60 X100.516 Y75.532
G01 F60 X100.525 Y75.532
G01 F60 X100.525 Y75.506
G01 F60 X101.024 Y75.506
G01 F60 X101.024 Y75.532
G01 F60 X101.049 Y75.532
G01 F60 X101.049 Y75.557
G01 F60 X101.075 Y75.557
G01 F60 X101.075 Y76.386
G01 F60 X99.332 Y76.386
G00 F3000 Z3.000
G00 F3000 X71.188 Y76.386
G00 F1500 Z0
G01 F60 Z-0.200
G01 F60 X71.188 Y76.360
G01 F60 X71.036 Y76.360
G01 F60 X71.036 Y76.335
G01 F60 X70.960 Y76.335
G01 F60 X70.960 Y76.309
G01 F60 X70.934 Y76.309
G01 F60 X70.934 Y76.284
G01 F60 X70.883 Y76.284
G01 F60 X70.883 Y76.259
G01 F60 X70.858 Y76.259
G01 F60 X70.858 Y76.233
G01 F60 X70.833 Y76.233
G01 F60 X70.833 Y76.208
G01 F60 X70.807 Y76.208
G01 F60 X70.807 Y76.157
G01 F60 X70.782 Y76.157
G01 F60 X70.782 Y76.132
G01 F60 X70.757 Y76.132
G01 F60 X70.757 Y76.106
G01 F60 X70.731 Y76.106
G01 F60 X70.731 Y76.056
G01 F60 X70.706 Y76.056
G01 F60 X70.706 Y76.030
G01 F60 X70.680 Y76.030
G01 F60 X70.680 Y76.005
G01 F60 X70.655 Y76.005
G01 F60 X70.655 Y75.954
G01 F60 X70.630 Y75.954
G01 F60 X70.630 Y75.928
G01 F60 X70.604 Y75.928
G01 F60 X70.604 Y75.903
G01 F60 X70.579 Y75.903
G01 F60 X70.579 Y75.878
G01 F60 X70.553 Y75.878
G01 F60 X70.553 Y75.827
G01 F60 X70.528 Y75.827
G01 F60 X70.528 Y75.802
G01 F60 X70.502 Y75.802
G01 F60 X70.502 Y75.776
G01 F60 X70.477 Y75.776
G01 F60 X70.477 Y75.725
G01 F60 X70.452 Y75.725
G01 F60 X70.452 Y75.700
G01 F60 X70.426 Y75.700
G01 F60 X70.426 Y75.675
G01 F60 X70.401 Y75.675
G01 F60 X70.401 Y75.624
G01 F60 X70.376 Y75.624
G01 F60 X70.376 Y75.573
G01 F60 X70.350 Y75.573
G01 F60 X70.350 Y75.497
G01 F60 X70.325 Y75.497
G01 F60 X70.325 Y74.109
G01 F60 X70.350 Y74.109
G01 F60 X70.350 Y74.033
G01 F60 X70.376 Y74.033
G01 F60 X70.376 Y73.982
G01 F60 X70.401 Y73.982
G01 F60 X70.401 Y73.957
G01 F60 X70.426 Y73.957
G01 F60 X70.426 Y73.931
G01 F60 X70.452 Y73.931
G01 F60 X70.452 Y73.906
G01 F60 X70.477 Y73.906
G01 F60 X70.477 Y73.881
G01 F60 X70.502 Y73.881
G01 F60 X70.502 Y73.855
G01 F60 X70.553 Y73.855
G01 F60 X70.553 Y73.830
G01 F60 X70.604 Y73.830
G01 F60 X70.604 Y73.805
G01 F60 X71.788 Y73.805
G01 F60 X71.788 Y73.830
G01 F60 X71.865 Y73.830
G01 F60 X71.865 Y73.855
G01 F60 X71.890 Y73.855
G01 F60 X71.890 Y73.881
G01 F60 X71.915 Y73.881
G01 F60 X71.915 Y73.906
G01 F60 X71.966 Y73.906
G01 F60 X71.966 Y73.931
G01 F60 X71.992 Y73.931
G01 F60 X71.992 Y73.982
G01 F60 X72.017 Y73.982
G01 F60 X72.017 Y74.008
G01 F60 X72.042 Y74.008
G01 F60 X72.042 Y74.059
G01 F60 X72.068 Y74.059
G01 F60 X72.068 Y74.135
G01 F60 X72.093 Y74.135
G01 F60 X72.093 Y75.166
G01 F60 X71.138 Y75.166
G01 F60 X71.138 Y75.141
G01 F60 X71.087 Y75.141
G01 F60 X71.087 Y75.116
G01 F60 X71.061 Y75.116
G01 F60 X71.061 Y75.090
G01 F60 X71.036 Y75.090
G01 F60 X71.036 Y74.592
G01 F60 X71.061 Y74.592
G01 F60 X71.061 Y74.567
G01 F60 X71.087 Y74.567
G01 F60 X71.087 Y74.541
G01 F60 X71.138 Y74.541
G01 F60 X71.138 Y74.516
G01 F60 X71.442 Y74.516
G01 F60 X71.442 Y74.506
G01 F60 X71.417 Y74.506
G01 F60 X71.417 Y74.455
G01 F60 X71.366 Y74.455
G01 F60 X71.366 Y74.430
G01 F60 X71.026 Y74.430
G01 F60 X71.026 Y74.455
G01 F60 X71.001 Y74.455
G01 F60 X71.001 Y74.481
G01 F60 X70.975 Y74.481
G01 F60 X70.975 Y74.532
G01 F60 X70.950 Y74.532
G01 F60 X70.950 Y75.075
G01 F60 X70.975 Y75.075
G01 F60 X70.975 Y75.151
G01 F60 X71.001 Y75.151
G01 F60 X71.001 Y75.176
G01 F60 X71.026 Y75.176
G01 F60 X71.026 Y75.227
G01 F60 X71.052 Y75.227
G01 F60 X71.052 Y75.252
G01 F60 X71.077 Y75.252
G01 F60 X71.077 Y75.278
G01 F60 X71.103 Y75.278
G01 F60 X71.103 Y75.303
G01 F60 X71.128 Y75.303
G01 F60 X71.128 Y75.354
G01 F60 X71.153 Y75.354
G01 F60 X71.153 Y75.379
G01 F60 X71.179 Y75.379
G01 F60 X71.179 Y75.405
G01 F60 X71.204 Y75.405
G01 F60 X71.204 Y75.430
G01 F60 X71.230 Y75.430
G01 F60 X71.230 Y75.481
G01 F60 X71.255 Y75.481
G01 F60 X71.255 Y75.506
G01 F60 X71.280 Y75.506
G01 F60 X71.280 Y75.532
G01 F60 X71.306 Y75.532
G01 F60 X71.306 Y75.583
G01 F60 X71.331 Y75.583
G01 F60 X71.331 Y75.608
G01 F60 X71.356 Y75.608
G01 F60 X71.356 Y75.633
G01 F60 X71.382 Y75.633
G01 F60 X71.382 Y75.659
G01 F60 X71.407 Y75.659
G01 F60 X71.407 Y75.710
G01 F60 X71.458 Y75.710
G01 F60 X71.458 Y75.735
G01 F60 X71.992 Y75.735
G01 F60 X71.992 Y75.760
G01 F60 X72.042 Y75.760
G01 F60 X72.042 Y75.786
G01 F60 X72.068 Y75.786
G01 F60 X72.068 Y75.837
G01 F60 X72.093 Y75.837
G01 F60 X72.093 Y76.284
G01 F60 X72.068 Y76.284
G01 F60 X72.068 Y76.309
G01 F60 X72.042 Y76.309
G01 F60 X72.042 Y76.335
G01 F60 X72.017 Y76.335
G01 F60 X72.017 Y76.360
G01 F60 X71.941 Y76.360
G01 F60 X71.941 Y76.386
G01 F60 X71.188 Y76.386
G00 F3000 Z3.000
G00 F3000 X95.191 Y76.386
G00 F1500 Z0
G01 F60 Z-0.200
G01 F60 X95.191 Y76.360
G01 F60 X95.166 Y76.360
G01 F60 X95.166 Y73.881
G01 F60 X95.191 Y73.881
G01 F60 X95.191 Y73.855
G01 F60 X95.217 Y73.855
G01 F60 X95.217 Y73.830
G01 F60 X95.242 Y73.830
G01 F60 X95.242 Y73.805
G01 F60 X95.741 Y73.805
G01 F60 X95.741 Y73.830
G01 F60 X95.766 Y73.830
G01 F60 X95.766 Y73.855
G01 F60 X95.791 Y73.855
G01 F60 X95.791 Y73.957
G01 F60 X95.817 Y73.957
G01 F60 X95.817 Y74.694
G01 F60 X95.826 Y74.694
G01 F60 X95.826 Y74.643
G01 F60 X95.852 Y74.643
G01 F60 X95.852 Y74.592
G01 F60 X95.877 Y74.592
G01 F60 X95.877 Y74.516
G01 F60 X95.903 Y74.516
G01 F60 X95.903 Y74.465
G01 F60 X95.928 Y74.465
G01 F60 X95.928 Y74.414
G01 F60 X95.953 Y74.414
G01 F60 X95.953 Y74.363
G01 F60 X95.979 Y74.363
G01 F60 X95.979 Y74.287
G01 F60 X96.004 Y74.287
G01 F60 X96.004 Y74.236
G01 F60 X96.029 Y74.236
G01 F60 X96.029 Y74.186
G01 F60 X96.055 Y74.186
G01 F60 X96.055 Y74.109
G01 F60 X96.080 Y74.109
G01 F60 X96.080 Y74.059
G01 F60 X96.106 Y74.059
G01 F60 X96.106 Y74.008
G01 F60 X96.131 Y74.008
G01 F60 X96.131 Y73.957
G01 F60 X96.157 Y73.957
G01 F60 X96.157 Y73.881
G01 F60 X96.182 Y73.881
G01 F60 X96.182 Y73.830
G01 F60 X96.207 Y73.830
G01 F60 X96.207 Y73.805
G01 F60 X96.934 Y73.805
G01 F60 X96.934 Y76.284
G01 F60 X96.909 Y76.284
G01 F60 X96.909 Y76.335
G01 F60 X96.883 Y76.335
G01 F60 X96.883 Y76.360
G01 F60 X96.385 Y76.360
G01 F60 X96.385 Y76.335
G01 F60 X96.334 Y76.335
G01 F60 X96.334 Y76.284
G01 F60 X96.309 Y76.284
G01 F60 X96.309 Y75.421
G01 F60 X96.299 Y75.421
G01 F60 X96.299 Y75.471
G01 F60 X96.274 Y75.471
G01 F60 X96.274 Y75.547
G01 F60 X96.249 Y75.547
G01 F60 X96.249 Y75.598
G01 F60 X96.223 Y75.598
G01 F60 X96.223 Y75.649
G01 F60 X96.198 Y75.649
G01 F60 X96.198 Y75.725
G01 F60 X96.172 Y75.725
G01 F60 X96.172 Y75.776
G01 F60 X96.147 Y75.776
G01 F60 X96.147 Y75.827
G01 F60 X96.122 Y75.827
G01 F60 X96.122 Y75.878
G01 F60 X96.096 Y75.878
G01 F60 X96.096 Y75.954
G01 F60 X96.071 Y75.954
G01 F60 X96.071 Y76.005
G01 F60 X96.045 Y76.005
G01 F60 X96.045 Y76.056
G01 F60 X96.020 Y76.056
G01 F60 X96.020 Y76.106
G01 F60 X95.995 Y76.106
G01 F60 X95.995 Y76.183
G01 F60 X95.969 Y76.183
G01 F60 X95.969 Y76.233
G01 F60 X95.944 Y76.233
G01 F60 X95.944 Y76.284
G01 F60 X95.918 Y76.284
G01 F60 X95.918 Y76.360
G01 F60 X95.893 Y76.360
G01 F60 X95.893 Y76.386
G01 F60 X95.191 Y76.386
G00 F3000 Z3.000
G00 F3000 X97.401 Y76.386
G00 F1500 Z0
G01 F60 Z-0.200
G01 F60 X97.401 Y76.360
G01 F60 X97.300 Y76.360
G01 F60 X97.300 Y76.335
G01 F60 X97.274 Y76.335
G01 F60 X97.274 Y76.309
G01 F60 X97.249 Y76.309
G01 F60 X97.249 Y75.811
G01 F60 X97.274 Y75.811
G01 F60 X97.274 Y75.786
G01 F60 X97.300 Y75.786
G01 F60 X97.300 Y75.760
G01 F60 X97.325 Y75.760
G01 F60 X97.325 Y75.735
G01 F60 X97.808 Y75.735
G01 F60 X97.808 Y74.430
G01 F60 X97.325 Y74.430
G01 F60 X97.325 Y74.404
G01 F60 X97.300 Y74.404
G01 F60 X97.300 Y74.379
G01 F60 X97.274 Y74.379
G01 F60 X97.274 Y74.354
G01 F60 X97.249 Y74.354
G01 F60 X97.249 Y73.855
G01 F60 X97.274 Y73.855
G01 F60 X97.274 Y73.830
G01 F60 X97.300 Y73.830
G01 F60 X97.300 Y73.805
G01 F60 X98.941 Y73.805
G01 F60 X98.941 Y73.830
G01 F60 X98.966 Y73.830
G01 F60 X98.966 Y73.855
G01 F60 X98.992 Y73.855
G01 F60 X98.992 Y73.881
G01 F60 X99.017 Y73.881
G01 F60 X99.017 Y74.328
G01 F60 X98.992 Y74.328
G01 F60 X98.992 Y74.379
G01 F60 X98.966 Y74.379
G01 F60 X98.966 Y74.404
G01 F60 X98.916 Y74.404
G01 F60 X98.916 Y74.430
G01 F60 X98.433 Y74.430
G01 F60 X98.433 Y75.735
G01 F60 X98.916 Y75.735
G01 F60 X98.916 Y75.760
G01 F60 X98.966 Y75.760
G01 F60 X98.966 Y75.786
G01 F60 X98.992 Y75.786
G01 F60 X98.992 Y75.837
G01 F60 X99.017 Y75.837
G01 F60 X99.017 Y76.284
G01 F60 X98.992 Y76.284
G01 F60 X98.992 Y76.309
G01 F60 X98.966 Y76.309
G01 F60 X98.966 Y76.335
G01 F60 X98.941 Y76.335
G01 F60 X98.941 Y76.360
G01 F60 X98.865 Y76.360
G01 F60 X98.865 Y76.386
G01 F60 X97.401 Y76.386
G00 F3000 Z3.000
G00 F3000 X86.886 Y76.386
G00 F1500 Z0
G01 F60 Z-0.200
G01 F60 X86.886 Y73.805
G01 F60 X88.248 Y73.805
G01 F60 X88.248 Y73.830
G01 F60 X88.298 Y73.830
G01 F60 X88.298 Y73.855
G01 F60 X88.349 Y73.855
G01 F60 X88.349 Y73.881
G01 F60 X88.400 Y73.881
G01 F60 X88.400 Y73.906
G01 F60 X88.425 Y73.906
G01 F60 X88.425 Y73.931
G01 F60 X88.451 Y73.931
G01 F60 X88.451 Y73.957
G01 F60 X88.502 Y73.957
G01 F60 X88.502 Y74.008
G01 F60 X88.527 Y74.008
G01 F60 X88.527 Y74.033
G01 F60 X88.552 Y74.033
G01 F60 X88.552 Y74.059
G01 F60 X88.578 Y74.059
G01 F60 X88.578 Y74.109
G01 F60 X88.603 Y74.109
G01 F60 X88.603 Y74.160
G01 F60 X88.629 Y74.160
G01 F60 X88.629 Y74.236
G01 F60 X88.654 Y74.236
G01 F60 X88.654 Y74.963
G01 F60 X88.629 Y74.963
G01 F60 X88.629 Y75.040
G01 F60 X88.603 Y75.040
G01 F60 X88.603 Y75.125
G01 F60 X88.629 Y75.125
G01 F60 X88.629 Y75.202
G01 F60 X88.654 Y75.202
G01 F60 X88.654 Y75.928
G01 F60 X88.629 Y75.928
G01 F60 X88.629 Y76.005
G01 F60 X88.603 Y76.005
G01 F60 X88.603 Y76.056
G01 F60 X88.578 Y76.056
G01 F60 X88.578 Y76.106
G01 F60 X88.552 Y76.106
G01 F60 X88.552 Y76.132
G01 F60 X88.527 Y76.132
G01 F60 X88.527 Y76.157
G01 F60 X88.502 Y76.157
G01 F60 X88.502 Y76.208
G01 F60 X88.451 Y76.208
G01 F60 X88.451 Y76.233
G01 F60 X88.425 Y76.233
G01 F60 X88.425 Y76.259
G01 F60 X88.400 Y76.259
G01 F60 X88.400 Y76.284
G01 F60 X88.349 Y76.284
G01 F60 X88.349 Y76.309
G01 F60 X88.324 Y76.309
G01 F60 X88.324 Y76.335
G01 F60 X88.248 Y76.335
G01 F60 X88.248 Y76.360
G01 F60 X88.070 Y76.360
G01 F60 X88.070 Y76.386
G01 F60 X86.886 Y76.386
G00 F3000 Z3.000
G00 F3000 X88.968 Y76.386
G00 F1500 Z0
G01 F60 Z-0.200
G01 F60 X88.968 Y73.805
G01 F60 X90.305 Y73.805
G01 F60 X90.305 Y73.830
G01 F60 X90.381 Y73.830
G01 F60 X90.381 Y73.855
G01 F60 X90.432 Y73.855
G01 F60 X90.432 Y73.881
G01 F60 X90.483 Y73.881
G01 F60 X90.483 Y73.906
G01 F60 X90.508 Y73.906
G01 F60 X90.508 Y73.931
G01 F60 X90.534 Y73.931
G01 F60 X90.534 Y73.957
G01 F60 X90.559 Y73.957
G01 F60 X90.559 Y73.982
G01 F60 X90.584 Y73.982
G01 F60 X90.584 Y74.008
G01 F60 X90.610 Y74.008
G01 F60 X90.610 Y74.033
G01 F60 X90.635 Y74.033
G01 F60 X90.635 Y74.084
G01 F60 X90.660 Y74.084
G01 F60 X90.660 Y74.135
G01 F60 X90.686 Y74.135
G01 F60 X90.686 Y74.186
G01 F60 X90.711 Y74.186
G01 F60 X90.711 Y74.313
G01 F60 X90.737 Y74.313
G01 F60 X90.737 Y74.887
G01 F60 X90.711 Y74.887
G01 F60 X90.711 Y75.014
G01 F60 X90.686 Y75.014
G01 F60 X90.686 Y75.065
G01 F60 X90.660 Y75.065
G01 F60 X90.660 Y75.100
G01 F60 X90.686 Y75.100
G01 F60 X90.686 Y75.151
G01 F60 X90.711 Y75.151
G01 F60 X90.711 Y75.278
G01 F60 X90.737 Y75.278
G01 F60 X90.737 Y75.878
G01 F60 X90.711 Y75.878
G01 F60 X90.711 Y75.979
G01 F60 X90.686 Y75.979
G01 F60 X90.686 Y76.030
G01 F60 X90.660 Y76.030
G01 F60 X90.660 Y76.081
G01 F60 X90.635 Y76.081
G01 F60 X90.635 Y76.132
G01 F60 X90.610 Y76.132
G01 F60 X90.610 Y76.157
G01 F60 X90.584 Y76.157
G01 F60 X90.584 Y76.183
G01 F60 X90.559 Y76.183
G01 F60 X90.559 Y76.208
G01 F60 X90.534 Y76.208
G01 F60 X90.534 Y76.233
G01 F60 X90.508 Y76.233
G01 F60 X90.508 Y76.259
G01 F60 X90.483 Y76.259
G01 F60 X90.483 Y76.284
G01 F60 X90.432 Y76.284
G01 F60 X90.432 Y76.309
G01 F60 X90.381 Y76.309
G01 F60 X90.381 Y76.335
G01 F60 X90.305 Y76.335
G01 F60 X90.305 Y76.360
G01 F60 X90.127 Y76.360
G01 F60 X90.127 Y76.386
G01 F60 X88.968 Y76.386
G00 F3000 Z3.000
G00 F3000 X93.159 Y76.360
G00 F1500 Z0
G01 F60 Z-0.200
G01 F60 X93.159 Y76.335
G01 F60 X93.134 Y76.335
G01 F60 X93.134 Y76.309
G01 F60 X93.109 Y76.309
G01 F60 X93.109 Y74.084
G01 F60 X93.134 Y74.084
G01 F60 X93.134 Y74.033
G01 F60 X93.159 Y74.033
G01 F60 X93.159 Y73.982
G01 F60 X93.185 Y73.982
G01 F60 X93.185 Y73.957
G01 F60 X93.210 Y73.957
G01 F60 X93.210 Y73.931
G01 F60 X93.236 Y73.931
G01 F60 X93.236 Y73.906
G01 F60 X93.261 Y73.906
G01 F60 X93.261 Y73.881
G01 F60 X93.286 Y73.881
G01 F60 X93.286 Y73.855
G01 F60 X93.337 Y73.855
G01 F60 X93.337 Y73.830
G01 F60 X93.388 Y73.830
G01 F60 X93.388 Y73.805
G01 F60 X94.572 Y73.805
G01 F60 X94.572 Y73.830
G01 F60 X94.623 Y73.830
G01 F60 X94.623 Y73.855
G01 F60 X94.674 Y73.855
G01 F60 X94.674 Y73.881
G01 F60 X94.699 Y73.881
G01 F60 X94.699 Y73.906
G01 F60 X94.750 Y73.906
G01 F60 X94.750 Y73.957
G01 F60 X94.775 Y73.957
G01 F60 X94.775 Y73.982
G01 F60 X94.801 Y73.982
G01 F60 X94.801 Y74.008
G01 F60 X94.826 Y74.008
G01 F60 X94.826 Y74.059
G01 F60 X94.852 Y74.059
G01 F60 X94.852 Y74.160
G01 F60 X94.877 Y74.160
G01 F60 X94.877 Y76.259
G01 F60 X94.852 Y76.259
G01 F60 X94.852 Y76.309
G01 F60 X94.826 Y76.309
G01 F60 X94.826 Y76.335
G01 F60 X94.801 Y76.335
G01 F60 X94.801 Y76.360
G01 F60 X94.302 Y76.360
G01 F60 X94.302 Y76.335
G01 F60 X94.277 Y76.335
G01 F60 X94.277 Y76.309
G01 F60 X94.252 Y76.309
G01 F60 X94.252 Y76.259
G01 F60 X94.226 Y76.259
G01 F60 X94.226 Y74.506
G01 F60 X94.201 Y74.506
G01 F60 X94.201 Y74.481
G01 F60 X94.175 Y74.481
G01 F60 X94.175 Y74.455
G01 F60 X94.150 Y74.455
G01 F60 X94.150 Y74.430
G01 F60 X93.810 Y74.430
G01 F60 X93.810 Y74.455
G01 F60 X93.785 Y74.455
G01 F60 X93.785 Y74.481
G01 F60 X93.759 Y74.481
G01 F60 X93.759 Y74.506
G01 F60 X93.734 Y74.506
G01 F60 X93.734 Y76.284
G01 F60 X93.709 Y76.284
G01 F60 X93.709 Y76.309
G01 F60 X93.683 Y76.309
G01 F60 X93.683 Y76.335
G01 F60 X93.658 Y76.335
G01 F60 X93.658 Y76.360
G01 F60 X93.159 Y76.360
G00 F3000 Z3.000
G00 F3000 X86.022 Y76.360
G00 F1500 Z0
G01 F60 Z-0.200
G01 F60 X86.022 Y76.335
G01 F60 X85.996 Y76.335
G01 F60 X85.996 Y76.309
G01 F60 X85.971 Y76.309
G01 F60 X85.971 Y76.284
G01 F60 X85.946 Y76.284
G01 F60 X85.946 Y76.233
G01 F60 X85.920 Y76.233
G01 F60 X85.920 Y76.208
G01 F60 X85.895 Y76.208
G01 F60 X85.895 Y76.157
G01 F60 X85.870 Y76.157
G01 F60 X85.870 Y76.106
G01 F60 X85.844 Y76.106
G01 F60 X85.844 Y76.056
G01 F60 X85.819 Y76.056
G01 F60 X85.819 Y76.030
G01 F60 X85.793 Y76.030
G01 F60 X85.793 Y75.979
G01 F60 X85.768 Y75.979
G01 F60 X85.768 Y75.928
G01 F60 X85.743 Y75.928
G01 F60 X85.743 Y75.903
G01 F60 X85.717 Y75.903
G01 F60 X85.717 Y75.852
G01 F60 X85.692 Y75.852
G01 F60 X85.692 Y75.802
G01 F60 X85.666 Y75.802
G01 F60 X85.666 Y75.751
G01 F60 X85.641 Y75.751
G01 F60 X85.641 Y75.725
G01 F60 X85.615 Y75.725
G01 F60 X85.615 Y75.675
G01 F60 X85.590 Y75.675
G01 F60 X85.590 Y75.624
G01 F60 X85.565 Y75.624
G01 F60 X85.565 Y75.598
G01 F60 X85.539 Y75.598
G01 F60 X85.539 Y75.547
G01 F60 X85.514 Y75.547
G01 F60 X85.514 Y75.497
G01 F60 X85.489 Y75.497
G01 F60 X85.489 Y75.446
G01 F60 X85.463 Y75.446
G01 F60 X85.463 Y75.421
G01 F60 X85.438 Y75.421
G01 F60 X85.438 Y75.370
G01 F60 X85.412 Y75.370
G01 F60 X85.412 Y75.319
G01 F60 X85.387 Y75.319
G01 F60 X85.387 Y75.294
G01 F60 X85.362 Y75.294
G01 F60 X85.362 Y75.243
G01 F60 X85.336 Y75.243
G01 F60 X85.336 Y75.192
G01 F60 X85.311 Y75.192
G01 F60 X85.311 Y75.166
G01 F60 X85.285 Y75.166
G01 F60 X85.285 Y75.116
G01 F60 X85.260 Y75.116
G01 F60 X85.260 Y75.065
G01 F60 X85.234 Y75.065
G01 F60 X85.234 Y75.014
G01 F60 X85.209 Y75.014
G01 F60 X85.209 Y74.989
G01 F60 X85.184 Y74.989
G01 F60 X85.184 Y74.938
G01 F60 X85.158 Y74.938
G01 F60 X85.158 Y74.887
G01 F60 X85.133 Y74.887
G01 F60 X85.133 Y74.862
G01 F60 X85.108 Y74.862
G01 F60 X85.108 Y74.811
G01 F60 X85.082 Y74.811
G01 F60 X85.082 Y74.760
G01 F60 X85.057 Y74.760
G01 F60 X85.057 Y74.709
G01 F60 X85.031 Y74.709
G01 F60 X85.031 Y74.684
G01 F60 X85.006 Y74.684
G01 F60 X85.006 Y74.633
G01 F60 X84.981 Y74.633
G01 F60 X84.981 Y74.582
G01 F60 X84.955 Y74.582
G01 F60 X84.955 Y74.557
G01 F60 X84.930 Y74.557
G01 F60 X84.930 Y74.506
G01 F60 X84.904 Y74.506
G01 F60 X84.904 Y74.455
G01 F60 X84.879 Y74.455
G01 F60 X84.879 Y74.404
G01 F60 X84.854 Y74.404
G01 F60 X84.854 Y74.379
G01 F60 X84.828 Y74.379
G01 F60 X84.828 Y74.303
G01 F60 X84.803 Y74.303
G01 F60 X84.803 Y73.931
G01 F60 X84.828 Y73.931
G01 F60 X84.828 Y73.855
G01 F60 X84.854 Y73.855
G01 F60 X84.854 Y73.830
G01 F60 X84.879 Y73.830
G01 F60 X84.879 Y73.805
G01 F60 X85.377 Y73.805
G01 F60 X85.377 Y73.830
G01 F60 X85.403 Y73.830
G01 F60 X85.403 Y73.855
G01 F60 X85.428 Y73.855
G01 F60 X85.428 Y73.881
G01 F60 X85.454 Y73.881
G01 F60 X85.454 Y73.931
G01 F60 X85.479 Y73.931
G01 F60 X85.479 Y73.982
G01 F60 X85.504 Y73.982
G01 F60 X85.504 Y74.008
G01 F60 X85.530 Y74.008
G01 F60 X85.530 Y74.059
G01 F60 X85.555 Y74.059
G01 F60 X85.555 Y74.109
G01 F60 X85.581 Y74.109
G01 F60 X85.581 Y74.135
G01 F60 X85.606 Y74.135
G01 F60 X85.606 Y74.186
G01 F60 X85.631 Y74.186
G01 F60 X85.631 Y74.236
G01 F60 X85.657 Y74.236
G01 F60 X85.657 Y74.262
G01 F60 X85.682 Y74.262
G01 F60 X85.682 Y74.313
G01 F60 X85.708 Y74.313
G01 F60 X85.708 Y74.363
G01 F60 X85.733 Y74.363
G01 F60 X85.733 Y74.414
G01 F60 X85.758 Y74.414
G01 F60 X85.758 Y74.440
G01 F60 X85.784 Y74.440
G01 F60 X85.784 Y74.490
G01 F60 X85.809 Y74.490
G01 F60 X85.809 Y74.541
G01 F60 X85.835 Y74.541
G01 F60 X85.835 Y74.567
G01 F60 X85.860 Y74.567
G01 F60 X85.860 Y74.617
G01 F60 X85.885 Y74.617
G01 F60 X85.885 Y74.668
G01 F60 X85.911 Y74.668
G01 F60 X85.911 Y74.719
G01 F60 X85.936 Y74.719
G01 F60 X85.936 Y74.744
G01 F60 X85.962 Y74.744
G01 F60 X85.962 Y74.795
G01 F60 X85.987 Y74.795
G01 F60 X85.987 Y74.846
G01 F60 X86.012 Y74.846
G01 F60 X86.012 Y74.871
G01 F60 X86.038 Y74.871
G01 F60 X86.038 Y74.922
G01 F60 X86.063 Y74.922
G01 F60 X86.063 Y74.973
G01 F60 X86.089 Y74.973
G01 F60 X86.089 Y75.024
G01 F60 X86.114 Y75.024
G01 F60 X86.114 Y75.049
G01 F60 X86.139 Y75.049
G01 F60 X86.139 Y75.100
G01 F60 X86.165 Y75.100
G01 F60 X86.165 Y75.151
G01 F60 X86.190 Y75.151
G01 F60 X86.190 Y75.176
G01 F60 X86.216 Y75.176
G01 F60 X86.216 Y75.227
G01 F60 X86.241 Y75.227
G01 F60 X86.241 Y75.278
G01 F60 X86.266 Y75.278
G01 F60 X86.266 Y75.329
G01 F60 X86.292 Y75.329
G01 F60 X86.292 Y75.354
G01 F60 X86.317 Y75.354
G01 F60 X86.317 Y75.405
G01 F60 X86.343 Y75.405
G01 F60 X86.343 Y75.456
G01 F60 X86.368 Y75.456
G01 F60 X86.368 Y75.481
G01 F60 X86.393 Y75.481
G01 F60 X86.393 Y75.532
G01 F60 X86.419 Y75.532
G01 F60 X86.419 Y75.583
G01 F60 X86.444 Y75.583
G01 F60 X86.444 Y75.633
G01 F60 X86.470 Y75.633
G01 F60 X86.470 Y75.659
G01 F60 X86.495 Y75.659
G01 F60 X86.495 Y75.710
G01 F60 X86.520 Y75.710
G01 F60 X86.520 Y75.760
G01 F60 X86.546 Y75.760
G01 F60 X86.546 Y75.786
G01 F60 X86.571 Y75.786
G01 F60 X86.571 Y75.862
G01 F60 X86.597 Y75.862
G01 F60 X86.597 Y76.259
G01 F60 X86.571 Y76.259
G01 F60 X86.571 Y76.309
G01 F60 X86.546 Y76.309
G01 F60 X86.546 Y76.335
G01 F60 X86.520 Y76.335
G01 F60 X86.520 Y76.360
G01 F60 X86.022 Y76.360
G00 F3000 Z3.000
G00 F3000 X53.815 Y76.360
G00 F1500 Z0
G01 F60 Z-0.200
G01 F60 X53.815 Y76.335
G01 F60 X53.789 Y76.335
G01 F60 X53.789 Y76.309
G01 F60 X53.764 Y76.309
G01 F60 X53.764 Y76.233
G01 F60 X53.739 Y76.233
G01 F60 X53.739 Y73.931
G01 F60 X53.764 Y73.931
G01 F60 X53.764 Y73.855
G01 F60 X53.789 Y73.855
G01 F60 X53.789 Y73.830
G01 F60 X53.815 Y73.830
G01 F60 X53.815 Y73.805
G01 F60 X54.313 Y73.805
G01 F60 X54.313 Y73.830
G01 F60 X54.339 Y73.830
G01 F60 X54.339 Y73.855
G01 F60 X54.364 Y73.855
G01 F60 X54.364 Y73.881
G01 F60 X54.389 Y73.881
G01 F60 X54.389 Y74.846
G01 F60 X54.440 Y74.846
G01 F60 X54.440 Y74.871
G01 F60 X54.466 Y74.871
G01 F60 X54.466 Y74.897
G01 F60 X54.516 Y74.897
G01 F60 X54.516 Y74.922
G01 F60 X54.542 Y74.922
G01 F60 X54.542 Y74.948
G01 F60 X54.593 Y74.948
G01 F60 X54.593 Y74.973
G01 F60 X54.618 Y74.973
G01 F60 X54.618 Y74.998
G01 F60 X54.669 Y74.998
G01 F60 X54.669 Y75.024
G01 F60 X54.720 Y75.024
G01 F60 X54.720 Y75.049
G01 F60 X54.745 Y75.049
G01 F60 X54.745 Y75.075
G01 F60 X54.796 Y75.075
G01 F60 X54.796 Y75.100
G01 F60 X54.805 Y75.100
G01 F60 X54.805 Y75.075
G01 F60 X54.831 Y75.075
G01 F60 X54.831 Y75.024
G01 F60 X54.856 Y75.024
G01 F60 X54.856 Y74.465
G01 F60 X54.882 Y74.465
G01 F60 X54.882 Y73.906
G01 F60 X54.907 Y73.906
G01 F60 X54.907 Y73.855
G01 F60 X54.932 Y73.855
G01 F60 X54.932 Y73.830
G01 F60 X54.958 Y73.830
G01 F60 X54.958 Y73.805
G01 F60 X55.456 Y73.805
G01 F60 X55.456 Y73.830
G01 F60 X55.482 Y73.830
G01 F60 X55.482 Y73.855
G01 F60 X55.507 Y73.855
G01 F60 X55.507 Y73.931
G01 F60 X55.532 Y73.931
G01 F60 X55.532 Y74.303
G01 F60 X55.507 Y74.303
G01 F60 X55.507 Y75.090
G01 F60 X55.482 Y75.090
G01 F60 X55.482 Y75.446
G01 F60 X55.456 Y75.446
G01 F60 X55.456 Y75.522
G01 F60 X55.431 Y75.522
G01 F60 X55.431 Y75.573
G01 F60 X55.405 Y75.573
G01 F60 X55.405 Y75.598
G01 F60 X55.380 Y75.598
G01 F60 X55.380 Y75.624
G01 F60 X55.355 Y75.624
G01 F60 X55.355 Y75.649
G01 F60 X55.329 Y75.649
G01 F60 X55.329 Y75.675
G01 F60 X55.304 Y75.675
G01 F60 X55.304 Y75.700
G01 F60 X55.253 Y75.700
G01 F60 X55.253 Y75.725
G01 F60 X55.202 Y75.725
G01 F60 X55.202 Y75.751
G01 F60 X55.075 Y75.751
G01 F60 X55.075 Y75.776
G01 F60 X54.501 Y75.776
G01 F60 X54.501 Y75.751
G01 F60 X54.399 Y75.751
G01 F60 X54.399 Y75.725
G01 F60 X54.389 Y75.725
G01 F60 X54.389 Y76.284
G01 F60 X54.364 Y76.284
G01 F60 X54.364 Y76.309
G01 F60 X54.339 Y76.309
G01 F60 X54.339 Y76.335
G01 F60 X54.313 Y76.335
G01 F60 X54.313 Y76.360
G01 F60 X53.815 Y76.360
G00 F3000 Z3.000
G00 F3000 X57.955 Y76.360
G00 F1500 Z0
G01 F60 Z-0.200
G01 F60 X57.955 Y76.335
G01 F60 X57.930 Y76.335
G01 F60 X57.930 Y76.309
G01 F60 X57.904 Y76.309
G01 F60 X57.904 Y73.855
G01 F60 X57.930 Y73.855
G01 F60 X57.930 Y73.830
G01 F60 X57.955 Y73.830
G01 F60 X57.955 Y73.805
G01 F60 X59.266 Y73.805
G01 F60 X59.266 Y73.830
G01 F60 X59.317 Y73.830
G01 F60 X59.317 Y73.855
G01 F60 X59.368 Y73.855
G01 F60 X59.368 Y73.881
G01 F60 X59.393 Y73.881
G01 F60 X59.393 Y73.906
G01 F60 X59.444 Y73.906
G01 F60 X59.444 Y73.931
G01 F60 X59.469 Y73.931
G01 F60 X59.469 Y73.957
G01 F60 X59.495 Y73.957
G01 F60 X59.495 Y73.982
G01 F60 X59.520 Y73.982
G01 F60 X59.520 Y74.008
G01 F60 X59.546 Y74.008
G01 F60 X59.546 Y74.033
G01 F60 X59.571 Y74.033
G01 F60 X59.571 Y74.059
G01 F60 X59.596 Y74.059
G01 F60 X59.596 Y74.109
G01 F60 X59.622 Y74.109
G01 F60 X59.622 Y74.160
G01 F60 X59.647 Y74.160
G01 F60 X59.647 Y74.236
G01 F60 X59.672 Y74.236
G01 F60 X59.672 Y75.294
G01 F60 X59.647 Y75.294
G01 F60 X59.647 Y75.395
G01 F60 X59.622 Y75.395
G01 F60 X59.622 Y75.446
G01 F60 X59.596 Y75.446
G01 F60 X59.596 Y75.497
G01 F60 X59.571 Y75.497
G01 F60 X59.571 Y75.522
G01 F60 X59.546 Y75.522
G01 F60 X59.546 Y75.547
G01 F60 X59.520 Y75.547
G01 F60 X59.520 Y75.573
G01 F60 X59.495 Y75.573
G01 F60 X59.495 Y75.598
G01 F60 X59.469 Y75.598
G01 F60 X59.469 Y75.624
G01 F60 X59.444 Y75.624
G01 F60 X59.444 Y75.649
G01 F60 X59.419 Y75.649
G01 F60 X59.419 Y75.675
G01 F60 X59.368 Y75.675
G01 F60 X59.368 Y75.700
G01 F60 X59.342 Y75.700
G01 F60 X59.342 Y75.725
G01 F60 X59.266 Y75.725
G01 F60 X59.266 Y75.751
G01 F60 X59.165 Y75.751
G01 F60 X59.165 Y75.776
G01 F60 X58.539 Y75.776
G01 F60 X58.539 Y75.751
G01 F60 X58.530 Y75.751
G01 F60 X58.530 Y76.284
G01 F60 X58.504 Y76.284
G01 F60 X58.504 Y76.309
G01 F60 X58.479 Y76.309
G01 F60 X58.479 Y76.335
G01 F60 X58.453 Y76.335
G01 F60 X58.453 Y76.360
G01 F60 X57.955 Y76.360
G00 F3000 Z3.000
G00 F3000 X82.822 Y76.360
G00 F1500 Z0
G01 F60 Z-0.200
G01 F60 X82.822 Y76.335
G01 F60 X82.771 Y76.335
G01 F60 X82.771 Y76.284
G01 F60 X82.745 Y76.284
G01 F60 X82.745 Y73.881
G01 F60 X82.771 Y73.881
G01 F60 X82.771 Y73.830
G01 F60 X82.822 Y73.830
G01 F60 X82.822 Y73.805
G01 F60 X83.320 Y73.805
G01 F60 X83.320 Y73.830
G01 F60 X83.345 Y73.830
G01 F60 X83.345 Y73.881
G01 F60 X83.371 Y73.881
G01 F60 X83.371 Y74.313
G01 F60 X83.380 Y74.313
G01 F60 X83.380 Y74.287
G01 F60 X83.406 Y74.287
G01 F60 X83.406 Y74.262
G01 F60 X83.431 Y74.262
G01 F60 X83.431 Y74.236
G01 F60 X83.457 Y74.236
G01 F60 X83.457 Y74.211
G01 F60 X83.507 Y74.211
G01 F60 X83.507 Y74.186
G01 F60 X83.533 Y74.186
G01 F60 X83.533 Y74.160
G01 F60 X83.558 Y74.160
G01 F60 X83.558 Y74.135
G01 F60 X83.584 Y74.135
G01 F60 X83.584 Y74.109
G01 F60 X83.609 Y74.109
G01 F60 X83.609 Y74.084
G01 F60 X83.634 Y74.084
G01 F60 X83.634 Y74.059
G01 F60 X83.685 Y74.059
G01 F60 X83.685 Y74.033
G01 F60 X83.711 Y74.033
G01 F60 X83.711 Y74.008
G01 F60 X83.736 Y74.008
G01 F60 X83.736 Y73.982
G01 F60 X83.761 Y73.982
G01 F60 X83.761 Y73.957
G01 F60 X83.787 Y73.957
G01 F60 X83.787 Y73.931
G01 F60 X83.812 Y73.931
G01 F60 X83.812 Y73.906
G01 F60 X83.863 Y73.906
G01 F60 X83.863 Y73.881
G01 F60 X83.888 Y73.881
G01 F60 X83.888 Y73.855
G01 F60 X83.914 Y73.855
G01 F60 X83.914 Y73.830
G01 F60 X83.939 Y73.830
G01 F60 X83.939 Y73.805
G01 F60 X84.438 Y73.805
G01 F60 X84.438 Y73.830
G01 F60 X84.488 Y73.830
G01 F60 X84.488 Y73.881
G01 F60 X84.514 Y73.881
G01 F60 X84.514 Y74.354
G01 F60 X84.488 Y74.354
G01 F60 X84.488 Y74.379
G01 F60 X84.463 Y74.379
G01 F60 X84.463 Y74.404
G01 F60 X84.438 Y74.404
G01 F60 X84.438 Y74.430
G01 F60 X84.412 Y74.430
G01 F60 X84.412 Y74.455
G01 F60 X84.387 Y74.455
G01 F60 X84.387 Y74.481
G01 F60 X84.336 Y74.481
G01 F60 X84.336 Y74.506
G01 F60 X84.311 Y74.506
G01 F60 X84.311 Y74.532
G01 F60 X84.285 Y74.532
G01 F60 X84.285 Y74.557
G01 F60 X84.260 Y74.557
G01 F60 X84.260 Y74.582
G01 F60 X84.234 Y74.582
G01 F60 X84.234 Y74.608
G01 F60 X84.209 Y74.608
G01 F60 X84.209 Y74.633
G01 F60 X84.158 Y74.633
G01 F60 X84.158 Y74.659
G01 F60 X84.133 Y74.659
G01 F60 X84.133 Y74.684
G01 F60 X84.107 Y74.684
G01 F60 X84.107 Y74.709
G01 F60 X84.082 Y74.709
G01 F60 X84.082 Y74.735
G01 F60 X84.056 Y74.735
G01 F60 X84.056 Y74.760
G01 F60 X84.031 Y74.760
G01 F60 X84.031 Y74.785
G01 F60 X83.980 Y74.785
G01 F60 X83.980 Y74.811
G01 F60 X83.955 Y74.811
G01 F60 X83.955 Y74.836
G01 F60 X83.930 Y74.836
G01 F60 X83.930 Y74.846
G01 F60 X83.955 Y74.846
G01 F60 X83.955 Y74.871
G01 F60 X84.006 Y74.871
G01 F60 X84.006 Y74.897
G01 F60 X84.031 Y74.897
G01 F60 X84.031 Y74.922
G01 F60 X84.056 Y74.922
G01 F60 X84.056 Y74.948
G01 F60 X84.082 Y74.948
G01 F60 X84.082 Y74.973
G01 F60 X84.107 Y74.973
G01 F60 X84.107 Y74.998
G01 F60 X84.133 Y74.998
G01 F60 X84.133 Y75.024
G01 F60 X84.184 Y75.024
G01 F60 X84.184 Y75.049
G01 F60 X84.209 Y75.049
G01 F60 X84.209 Y75.075
G01 F60 X84.234 Y75.075
G01 F60 X84.234 Y75.100
G01 F60 X84.260 Y75.100
G01 F60 X84.260 Y75.125
G01 F60 X84.285 Y75.125
G01 F60 X84.285 Y75.151
G01 F60 X84.311 Y75.151
G01 F60 X84.311 Y75.176
G01 F60 X84.336 Y75.176
G01 F60 X84.336 Y75.202
G01 F60 X84.361 Y75.202
G01 F60 X84.361 Y75.700
G01 F60 X84.336 Y75.700
G01 F60 X84.336 Y75.725
G01 F60 X84.311 Y75.725
G01 F60 X84.311 Y75.751
G01 F60 X84.260 Y75.751
G01 F60 X84.260 Y75.776
G01 F60 X83.863 Y75.776
G01 F60 X83.863 Y75.751
G01 F60 X83.812 Y75.751
G01 F60 X83.812 Y75.725
G01 F60 X83.761 Y75.725
G01 F60 X83.761 Y75.700
G01 F60 X83.736 Y75.700
G01 F60 X83.736 Y75.675
G01 F60 X83.711 Y75.675
G01 F60 X83.711 Y75.649
G01 F60 X83.685 Y75.649
G01 F60 X83.685 Y75.624
G01 F60 X83.660 Y75.624
G01 F60 X83.660 Y75.598
G01 F60 X83.609 Y75.598
G01 F60 X83.609 Y75.573
G01 F60 X83.584 Y75.573
G01 F60 X83.584 Y75.547
G01 F60 X83.558 Y75.547
G01 F60 X83.558 Y75.522
G01 F60 X83.533 Y75.522
G01 F60 X83.533 Y75.497
G01 F60 X83.507 Y75.497
G01 F60 X83.507 Y75.471
G01 F60 X83.457 Y75.471
G01 F60 X83.457 Y75.446
G01 F60 X83.431 Y75.446
G01 F60 X83.431 Y75.421
G01 F60 X83.406 Y75.421
G01 F60 X83.406 Y75.395
G01 F60 X83.380 Y75.395
G01 F60 X83.380 Y75.370
G01 F60 X83.371 Y75.370
G01 F60 X83.371 Y76.309
G01 F60 X83.345 Y76.309
G01 F60 X83.345 Y76.335
G01 F60 X83.320 Y76.335
G01 F60 X83.320 Y76.360
G01 F60 X82.822 Y76.360
G00 F3000 Z3.000
G00 F3000 X69.436 Y76.360
G00 F1500 Z0
G01 F60 Z-0.200
G01 F60 X69.436 Y76.335
G01 F60 X69.410 Y76.335
G01 F60 X69.410 Y76.284
G01 F60 X69.385 Y76.284
G01 F60 X69.385 Y76.259
G01 F60 X69.359 Y76.259
G01 F60 X69.359 Y76.208
G01 F60 X69.334 Y76.208
G01 F60 X69.334 Y76.157
G01 F60 X69.309 Y76.157
G01 F60 X69.309 Y76.132
G01 F60 X69.283 Y76.132
G01 F60 X69.283 Y76.081
G01 F60 X69.258 Y76.081
G01 F60 X69.258 Y76.030
G01 F60 X69.233 Y76.030
G01 F60 X69.233 Y75.979
G01 F60 X69.207 Y75.979
G01 F60 X69.207 Y75.954
G01 F60 X69.182 Y75.954
G01 F60 X69.182 Y75.903
G01 F60 X69.156 Y75.903
G01 F60 X69.156 Y75.852
G01 F60 X69.131 Y75.852
G01 F60 X69.131 Y75.827
G01 F60 X69.106 Y75.827
G01 F60 X69.106 Y75.776
G01 F60 X69.080 Y75.776
G01 F60 X69.080 Y75.725
G01 F60 X69.055 Y75.725
G01 F60 X69.055 Y75.675
G01 F60 X69.029 Y75.675
G01 F60 X69.029 Y75.649
G01 F60 X69.004 Y75.649
G01 F60 X69.004 Y75.598
G01 F60 X68.978 Y75.598
G01 F60 X68.978 Y75.547
G01 F60 X68.953 Y75.547
G01 F60 X68.953 Y75.522
G01 F60 X68.928 Y75.522
G01 F60 X68.928 Y75.471
G01 F60 X68.902 Y75.471
G01 F60 X68.902 Y75.421
G01 F60 X68.877 Y75.421
G01 F60 X68.877 Y75.395
G01 F60 X68.852 Y75.395
G01 F60 X68.852 Y75.344
G01 F60 X68.826 Y75.344
G01 F60 X68.826 Y75.294
G01 F60 X68.801 Y75.294
G01 F60 X68.801 Y75.243
G01 F60 X68.775 Y75.243
G01 F60 X68.775 Y75.217
G01 F60 X68.750 Y75.217
G01 F60 X68.750 Y75.166
G01 F60 X68.725 Y75.166
G01 F60 X68.725 Y75.116
G01 F60 X68.699 Y75.116
G01 F60 X68.699 Y75.090
G01 F60 X68.674 Y75.090
G01 F60 X68.674 Y75.040
G01 F60 X68.648 Y75.040
G01 F60 X68.648 Y74.989
G01 F60 X68.623 Y74.989
G01 F60 X68.623 Y74.938
G01 F60 X68.597 Y74.938
G01 F60 X68.597 Y74.913
G01 F60 X68.572 Y74.913
G01 F60 X68.572 Y74.862
G01 F60 X68.547 Y74.862
G01 F60 X68.547 Y74.811
G01 F60 X68.521 Y74.811
G01 F60 X68.521 Y74.785
G01 F60 X68.496 Y74.785
G01 F60 X68.496 Y74.735
G01 F60 X68.471 Y74.735
G01 F60 X68.471 Y74.684
G01 F60 X68.445 Y74.684
G01 F60 X68.445 Y74.633
G01 F60 X68.420 Y74.633
G01 F60 X68.420 Y74.608
G01 F60 X68.394 Y74.608
G01 F60 X68.394 Y74.557
G01 F60 X68.369 Y74.557
G01 F60 X68.369 Y74.506
G01 F60 X68.344 Y74.506
G01 F60 X68.344 Y74.481
G01 F60 X68.318 Y74.481
G01 F60 X68.318 Y74.430
G01 F60 X68.293 Y74.430
G01 F60 X68.293 Y74.379
G01 F60 X68.267 Y74.379
G01 F60 X68.267 Y74.328
G01 F60 X68.242 Y74.328
G01 F60 X68.242 Y73.906
G01 F60 X68.267 Y73.906
G01 F60 X68.267 Y73.855
G01 F60 X68.293 Y73.855
G01 F60 X68.293 Y73.830
G01 F60 X68.318 Y73.830
G01 F60 X68.318 Y73.805
G01 F60 X68.817 Y73.805
G01 F60 X68.817 Y73.830
G01 F60 X68.842 Y73.830
G01 F60 X68.842 Y73.855
G01 F60 X68.867 Y73.855
G01 F60 X68.867 Y73.906
G01 F60 X68.893 Y73.906
G01 F60 X68.893 Y73.931
G01 F60 X68.918 Y73.931
G01 F60 X68.918 Y73.982
G01 F60 X68.944 Y73.982
G01 F60 X68.944 Y74.033
G01 F60 X68.969 Y74.033
G01 F60 X68.969 Y74.059
G01 F60 X68.994 Y74.059
G01 F60 X68.994 Y74.109
G01 F60 X69.020 Y74.109
G01 F60 X69.020 Y74.160
G01 F60 X69.045 Y74.160
G01 F60 X69.045 Y74.211
G01 F60 X69.071 Y74.211
G01 F60 X69.071 Y74.236
G01 F60 X69.096 Y74.236
G01 F60 X69.096 Y74.287
G01 F60 X69.121 Y74.287
G01 F60 X69.121 Y74.338
G01 F60 X69.147 Y74.338
G01 F60 X69.147 Y74.363
G01 F60 X69.172 Y74.363
G01 F60 X69.172 Y74.414
G01 F60 X69.198 Y74.414
G01 F60 X69.198 Y74.465
G01 F60 X69.223 Y74.465
G01 F60 X69.223 Y74.490
G01 F60 X69.248 Y74.490
G01 F60 X69.248 Y74.541
G01 F60 X69.274 Y74.541
G01 F60 X69.274 Y74.592
G01 F60 X69.299 Y74.592
G01 F60 X69.299 Y74.643
G01 F60 X69.325 Y74.643
G01 F60 X69.325 Y74.668
G01 F60 X69.350 Y74.668
G01 F60 X69.350 Y74.719
G01 F60 X69.375 Y74.719
G01 F60 X69.375 Y74.770
G01 F60 X69.401 Y74.770
G01 F60 X69.401 Y74.795
G01 F60 X69.426 Y74.795
G01 F60 X69.426 Y74.846
G01 F60 X69.452 Y74.846
G01 F60 X69.452 Y74.897
G01 F60 X69.477 Y74.897
G01 F60 X69.477 Y74.948
G01 F60 X69.502 Y74.948
G01 F60 X69.502 Y74.973
G01 F60 X69.528 Y74.973
G01 F60 X69.528 Y75.024
G01 F60 X69.553 Y75.024
G01 F60 X69.553 Y75.075
G01 F60 X69.579 Y75.075
G01 F60 X69.579 Y75.100
G01 F60 X69.604 Y75.100
G01 F60 X69.604 Y75.151
G01 F60 X69.629 Y75.151
G01 F60 X69.629 Y75.202
G01 F60 X69.655 Y75.202
G01 F60 X69.655 Y75.252
G01 F60 X69.680 Y75.252
G01 F60 X69.680 Y75.278
G01 F60 X69.706 Y75.278
G01 F60 X69.706 Y75.329
G01 F60 X69.731 Y75.329
G01 F60 X69.731 Y75.379
G01 F60 X69.756 Y75.379
G01 F60 X69.756 Y75.405
G01 F60 X69.782 Y75.405
G01 F60 X69.782 Y75.456
G01 F60 X69.807 Y75.456
G01 F60 X69.807 Y75.506
G01 F60 X69.833 Y75.506
G01 F60 X69.833 Y75.557
G01 F60 X69.858 Y75.557
G01 F60 X69.858 Y75.583
G01 F60 X69.883 Y75.583
G01 F60 X69.883 Y75.633
G01 F60 X69.909 Y75.633
G01 F60 X69.909 Y75.684
G01 F60 X69.934 Y75.684
G01 F60 X69.934 Y75.710
G01 F60 X69.960 Y75.710
G01 F60 X69.960 Y75.760
G01 F60 X69.985 Y75.760
G01 F60 X69.985 Y75.811
G01 F60 X70.010 Y75.811
G01 F60 X70.010 Y76.309
G01 F60 X69.985 Y76.309
G01 F60 X69.985 Y76.335
G01 F60 X69.960 Y76.335
G01 F60 X69.960 Y76.360
G01 F60 X69.436 Y76.360
G00 F3000 Z3.000
G00 F3000 X52.062 Y76.259
G00 F1500 Z0
G01 F60 Z-0.200
G01 F60 X52.062 Y76.233
G01 F60 X52.011 Y76.233
G01 F60 X52.011 Y76.208
G01 F60 X51.986 Y76.208
G01 F60 X51.986 Y76.157
G01 F60 X51.961 Y76.157
G01 F60 X51.961 Y75.776
G01 F60 X51.808 Y75.776
G01 F60 X51.808 Y75.751
G01 F60 X51.732 Y75.751
G01 F60 X51.732 Y75.725
G01 F60 X51.707 Y75.725
G01 F60 X51.707 Y75.675
G01 F60 X51.681 Y75.675
G01 F60 X51.681 Y75.202
G01 F60 X51.707 Y75.202
G01 F60 X51.707 Y75.176
G01 F60 X51.732 Y75.176
G01 F60 X51.732 Y75.151
G01 F60 X51.783 Y75.151
G01 F60 X51.783 Y75.125
G01 F60 X51.961 Y75.125
G01 F60 X51.961 Y74.135
G01 F60 X51.986 Y74.135
G01 F60 X51.986 Y74.059
G01 F60 X52.011 Y74.059
G01 F60 X52.011 Y74.008
G01 F60 X52.037 Y74.008
G01 F60 X52.037 Y73.957
G01 F60 X52.062 Y73.957
G01 F60 X52.062 Y73.931
G01 F60 X52.088 Y73.931
G01 F60 X52.088 Y73.906
G01 F60 X52.113 Y73.906
G01 F60 X52.113 Y73.881
G01 F60 X52.164 Y73.881
G01 F60 X52.164 Y73.855
G01 F60 X52.189 Y73.855
G01 F60 X52.189 Y73.830
G01 F60 X52.240 Y73.830
G01 F60 X52.240 Y73.805
G01 F60 X53.170 Y73.805
G01 F60 X53.170 Y73.830
G01 F60 X53.221 Y73.830
G01 F60 X53.221 Y73.855
G01 F60 X53.246 Y73.855
G01 F60 X53.246 Y73.881
G01 F60 X53.297 Y73.881
G01 F60 X53.297 Y73.906
G01 F60 X53.323 Y73.906
G01 F60 X53.323 Y73.931
G01 F60 X53.348 Y73.931
G01 F60 X53.348 Y73.957
G01 F60 X53.373 Y73.957
G01 F60 X53.373 Y74.008
G01 F60 X53.399 Y74.008
G01 F60 X53.399 Y74.033
G01 F60 X53.424 Y74.033
G01 F60 X53.424 Y74.109
G01 F60 X53.450 Y74.109
G01 F60 X53.450 Y74.582
G01 F60 X53.424 Y74.582
G01 F60 X53.424 Y74.633
G01 F60 X53.373 Y74.633
G01 F60 X53.373 Y74.659
G01 F60 X52.875 Y74.659
G01 F60 X52.875 Y74.633
G01 F60 X52.849 Y74.633
G01 F60 X52.849 Y74.582
G01 F60 X52.824 Y74.582
G01 F60 X52.824 Y74.532
G01 F60 X52.799 Y74.532
G01 F60 X52.799 Y74.481
G01 F60 X52.773 Y74.481
G01 F60 X52.773 Y74.455
G01 F60 X52.723 Y74.455
G01 F60 X52.723 Y74.430
G01 F60 X52.688 Y74.430
G01 F60 X52.688 Y74.455
G01 F60 X52.637 Y74.455
G01 F60 X52.637 Y74.481
G01 F60 X52.611 Y74.481
G01 F60 X52.611 Y75.125
G01 F60 X53.196 Y75.125
G01 F60 X53.196 Y75.151
G01 F60 X53.246 Y75.151
G01 F60 X53.246 Y75.176
G01 F60 X53.272 Y75.176
G01 F60 X53.272 Y75.202
G01 F60 X53.297 Y75.202
G01 F60 X53.297 Y75.700
G01 F60 X53.272 Y75.700
G01 F60 X53.272 Y75.725
G01 F60 X53.246 Y75.725
G01 F60 X53.246 Y75.751
G01 F60 X53.196 Y75.751
G01 F60 X53.196 Y75.776
G01 F60 X52.611 Y75.776
G01 F60 X52.611 Y76.106
G01 F60 X52.586 Y76.106
G01 F60 X52.586 Y76.183
G01 F60 X52.561 Y76.183
G01 F60 X52.561 Y76.208
G01 F60 X52.535 Y76.208
G01 F60 X52.535 Y76.233
G01 F60 X52.484 Y76.233
G01 F60 X52.484 Y76.259
G01 F60 X52.062 Y76.259
G00 F3000 Z3.000
G00 F3000 X55.948 Y75.776
G00 F1500 Z0
G01 F60 Z-0.200
G01 F60 X55.948 Y75.751
G01 F60 X55.898 Y75.751
G01 F60 X55.898 Y75.725
G01 F60 X55.847 Y75.725
G01 F60 X55.847 Y75.675
G01 F60 X55.821 Y75.675
G01 F60 X55.821 Y74.897
G01 F60 X55.847 Y74.897
G01 F60 X55.847 Y74.186
G01 F60 X55.872 Y74.186
G01 F60 X55.872 Y74.059
G01 F60 X55.898 Y74.059
G01 F60 X55.898 Y74.008
G01 F60 X55.923 Y74.008
G01 F60 X55.923 Y73.982
G01 F60 X55.948 Y73.982
G01 F60 X55.948 Y73.957
G01 F60 X55.974 Y73.957
G01 F60 X55.974 Y73.906
G01 F60 X56.025 Y73.906
G01 F60 X56.025 Y73.881
G01 F60 X56.050 Y73.881
G01 F60 X56.050 Y73.855
G01 F60 X56.101 Y73.855
G01 F60 X56.101 Y73.830
G01 F60 X56.152 Y73.830
G01 F60 X56.152 Y73.805
G01 F60 X56.929 Y73.805
G01 F60 X56.929 Y73.830
G01 F60 X56.980 Y73.830
G01 F60 X56.980 Y73.855
G01 F60 X56.990 Y73.855
G01 F60 X56.990 Y73.830
G01 F60 X57.015 Y73.830
G01 F60 X57.015 Y73.805
G01 F60 X57.514 Y73.805
G01 F60 X57.514 Y73.830
G01 F60 X57.564 Y73.830
G01 F60 X57.564 Y73.881
G01 F60 X57.590 Y73.881
G01 F60 X57.590 Y75.675
G01 F60 X57.564 Y75.675
G01 F60 X57.564 Y75.725
G01 F60 X57.539 Y75.725
G01 F60 X57.539 Y75.751
G01 F60 X57.463 Y75.751
G01 F60 X57.463 Y75.776
G01 F60 X57.091 Y75.776
G01 F60 X57.091 Y75.751
G01 F60 X57.015 Y75.751
G01 F60 X57.015 Y75.725
G01 F60 X56.990 Y75.725
G01 F60 X56.990 Y75.700
G01 F60 X56.964 Y75.700
G01 F60 X56.964 Y74.735
G01 F60 X56.939 Y74.735
G01 F60 X56.939 Y74.709
G01 F60 X56.914 Y74.709
G01 F60 X56.914 Y74.684
G01 F60 X56.863 Y74.684
G01 F60 X56.863 Y74.659
G01 F60 X56.837 Y74.659
G01 F60 X56.837 Y74.633
G01 F60 X56.787 Y74.633
G01 F60 X56.787 Y74.608
G01 F60 X56.761 Y74.608
G01 F60 X56.761 Y74.582
G01 F60 X56.710 Y74.582
G01 F60 X56.710 Y74.557
G01 F60 X56.660 Y74.557
G01 F60 X56.660 Y74.532
G01 F60 X56.634 Y74.532
G01 F60 X56.634 Y74.506
G01 F60 X56.583 Y74.506
G01 F60 X56.583 Y74.481
G01 F60 X56.558 Y74.481
G01 F60 X56.558 Y74.455
G01 F60 X56.548 Y74.455
G01 F60 X56.548 Y74.481
G01 F60 X56.523 Y74.481
G01 F60 X56.523 Y74.506
G01 F60 X56.498 Y74.506
G01 F60 X56.498 Y74.760
G01 F60 X56.472 Y74.760
G01 F60 X56.472 Y75.471
G01 F60 X56.447 Y75.471
G01 F60 X56.447 Y75.700
G01 F60 X56.421 Y75.700
G01 F60 X56.421 Y75.725
G01 F60 X56.396 Y75.725
G01 F60 X56.396 Y75.751
G01 F60 X56.320 Y75.751
G01 F60 X56.320 Y75.776
G01 F60 X55.948 Y75.776
G00 F3000 Z3.000
G00 F3000 X62.679 Y75.776
G00 F1500 Z0
G01 F60 Z-0.200
G01 F60 X62.679 Y75.751
G01 F60 X62.552 Y75.751
G01 F60 X62.552 Y75.725
G01 F60 X62.502 Y75.725
G01 F60 X62.502 Y75.700
G01 F60 X62.451 Y75.700
G01 F60 X62.451 Y75.675
G01 F60 X62.425 Y75.675
G01 F60 X62.425 Y75.649
G01 F60 X62.375 Y75.649
G01 F60 X62.375 Y75.624
G01 F60 X62.349 Y75.624
G01 F60 X62.349 Y75.598
G01 F60 X62.324 Y75.598
G01 F60 X62.324 Y75.573
G01 F60 X62.298 Y75.573
G01 F60 X62.298 Y75.547
G01 F60 X62.273 Y75.547
G01 F60 X62.273 Y75.522
G01 F60 X62.248 Y75.522
G01 F60 X62.248 Y75.497
G01 F60 X62.222 Y75.497
G01 F60 X62.222 Y75.471
G01 F60 X62.197 Y75.471
G01 F60 X62.197 Y75.446
G01 F60 X62.171 Y75.446
G01 F60 X62.171 Y75.421
G01 F60 X62.146 Y75.421
G01 F60 X62.146 Y75.395
G01 F60 X62.120 Y75.395
G01 F60 X62.120 Y75.370
G01 F60 X62.095 Y75.370
G01 F60 X62.095 Y75.319
G01 F60 X62.070 Y75.319
G01 F60 X62.070 Y75.268
G01 F60 X62.044 Y75.268
G01 F60 X62.044 Y74.287
G01 F60 X62.070 Y74.287
G01 F60 X62.070 Y74.236
G01 F60 X62.095 Y74.236
G01 F60 X62.095 Y74.186
G01 F60 X62.120 Y74.186
G01 F60 X62.120 Y74.160
G01 F60 X62.146 Y74.160
G01 F60 X62.146 Y74.135
G01 F60 X62.171 Y74.135
G01 F60 X62.171 Y74.109
G01 F60 X62.197 Y74.109
G01 F60 X62.197 Y74.084
G01 F60 X62.222 Y74.084
G01 F60 X62.222 Y74.059
G01 F60 X62.248 Y74.059
G01 F60 X62.248 Y74.033
G01 F60 X62.273 Y74.033
G01 F60 X62.273 Y74.008
G01 F60 X62.324 Y74.008
G01 F60 X62.324 Y73.982
G01 F60 X62.349 Y73.982
G01 F60 X62.349 Y73.957
G01 F60 X62.375 Y73.957
G01 F60 X62.375 Y73.931
G01 F60 X62.400 Y73.931
G01 F60 X62.400 Y73.906
G01 F60 X62.425 Y73.906
G01 F60 X62.425 Y73.881
G01 F60 X62.476 Y73.881
G01 F60 X62.476 Y73.855
G01 F60 X62.502 Y73.855
G01 F60 X62.502 Y73.830
G01 F60 X62.578 Y73.830
G01 F60 X62.578 Y73.805
G01 F60 X63.737 Y73.805
G01 F60 X63.737 Y73.830
G01 F60 X63.762 Y73.830
G01 F60 X63.762 Y73.855
G01 F60 X63.787 Y73.855
G01 F60 X63.787 Y73.906
G01 F60 X63.813 Y73.906
G01 F60 X63.813 Y74.328
G01 F60 X63.787 Y74.328
G01 F60 X63.787 Y74.379
G01 F60 X63.762 Y74.379
G01 F60 X63.762 Y74.404
G01 F60 X63.711 Y74.404
G01 F60 X63.711 Y74.430
G01 F60 X63.000 Y74.430
G01 F60 X63.000 Y74.455
G01 F60 X62.949 Y74.455
G01 F60 X62.949 Y74.481
G01 F60 X62.924 Y74.481
G01 F60 X62.924 Y74.506
G01 F60 X62.898 Y74.506
G01 F60 X62.898 Y74.532
G01 F60 X62.873 Y74.532
G01 F60 X62.873 Y74.557
G01 F60 X62.848 Y74.557
G01 F60 X62.848 Y74.582
G01 F60 X62.797 Y74.582
G01 F60 X62.797 Y74.608
G01 F60 X62.771 Y74.608
G01 F60 X62.771 Y74.633
G01 F60 X62.746 Y74.633
G01 F60 X62.746 Y74.659
G01 F60 X62.721 Y74.659
G01 F60 X62.721 Y74.684
G01 F60 X62.695 Y74.684
G01 F60 X62.695 Y74.735
G01 F60 X62.670 Y74.735
G01 F60 X62.670 Y74.846
G01 F60 X62.695 Y74.846
G01 F60 X62.695 Y74.871
G01 F60 X62.721 Y74.871
G01 F60 X62.721 Y74.897
G01 F60 X62.746 Y74.897
G01 F60 X62.746 Y74.922
G01 F60 X62.771 Y74.922
G01 F60 X62.771 Y74.948
G01 F60 X62.797 Y74.948
G01 F60 X62.797 Y74.973
G01 F60 X62.848 Y74.973
G01 F60 X62.848 Y74.998
G01 F60 X62.873 Y74.998
G01 F60 X62.873 Y75.024
G01 F60 X62.898 Y75.024
G01 F60 X62.898 Y75.049
G01 F60 X62.924 Y75.049
G01 F60 X62.924 Y75.075
G01 F60 X62.949 Y75.075
G01 F60 X62.949 Y75.100
G01 F60 X63.000 Y75.100
G01 F60 X63.000 Y75.125
G01 F60 X63.711 Y75.125
G01 F60 X63.711 Y75.151
G01 F60 X63.762 Y75.151
G01 F60 X63.762 Y75.176
G01 F60 X63.787 Y75.176
G01 F60 X63.787 Y75.227
G01 F60 X63.813 Y75.227
G01 F60 X63.813 Y75.675
G01 F60 X63.787 Y75.675
G01 F60 X63.787 Y75.700
G01 F60 X63.762 Y75.700
G01 F60 X63.762 Y75.725
G01 F60 X63.737 Y75.725
G01 F60 X63.737 Y75.751
G01 F60 X63.686 Y75.751
G01 F60 X63.686 Y75.776
G01 F60 X62.679 Y75.776
G00 F3000 Z3.000
G00 F3000 X48.049 Y75.776
G00 F1500 Z0
G01 F60 Z-0.200
G01 F60 X48.049 Y75.751
G01 F60 X47.922 Y75.751
G01 F60 X47.922 Y75.725
G01 F60 X47.871 Y75.725
G01 F60 X47.871 Y75.700
G01 F60 X47.820 Y75.700
G01 F60 X47.820 Y75.675
G01 F60 X47.795 Y75.675
G01 F60 X47.795 Y75.649
G01 F60 X47.770 Y75.649
G01 F60 X47.770 Y75.624
G01 F60 X47.744 Y75.624
G01 F60 X47.744 Y75.598
G01 F60 X47.693 Y75.598
G01 F60 X47.693 Y75.573
G01 F60 X47.668 Y75.573
G01 F60 X47.668 Y75.547
G01 F60 X47.643 Y75.547
G01 F60 X47.643 Y75.522
G01 F60 X47.617 Y75.522
G01 F60 X47.617 Y75.471
G01 F60 X47.592 Y75.471
G01 F60 X47.592 Y75.421
G01 F60 X47.566 Y75.421
G01 F60 X47.566 Y75.370
G01 F60 X47.541 Y75.370
G01 F60 X47.541 Y74.313
G01 F60 X47.566 Y74.313
G01 F60 X47.566 Y74.236
G01 F60 X47.592 Y74.236
G01 F60 X47.592 Y74.211
G01 F60 X47.617 Y74.211
G01 F60 X47.617 Y74.160
G01 F60 X47.643 Y74.160
G01 F60 X47.643 Y74.135
G01 F60 X47.668 Y74.135
G01 F60 X47.668 Y74.109
G01 F60 X47.693 Y74.109
G01 F60 X47.693 Y74.084
G01 F60 X47.744 Y74.084
G01 F60 X47.744 Y74.059
G01 F60 X47.770 Y74.059
G01 F60 X47.770 Y74.033
G01 F60 X47.795 Y74.033
G01 F60 X47.795 Y74.008
G01 F60 X47.820 Y74.008
G01 F60 X47.820 Y73.982
G01 F60 X47.871 Y73.982
G01 F60 X47.871 Y73.957
G01 F60 X47.922 Y73.957
G01 F60 X47.922 Y73.931
G01 F60 X48.024 Y73.931
G01 F60 X48.024 Y73.906
G01 F60 X48.582 Y73.906
G01 F60 X48.582 Y73.897
G01 F60 X48.557 Y73.897
G01 F60 X48.557 Y73.871
G01 F60 X48.532 Y73.871
G01 F60 X48.532 Y73.846
G01 F60 X48.481 Y73.846
G01 F60 X48.481 Y73.820
G01 F60 X47.770 Y73.820
G01 F60 X47.770 Y73.795
G01 F60 X47.719 Y73.795
G01 F60 X47.719 Y73.744
G01 F60 X47.693 Y73.744
G01 F60 X47.693 Y73.693
G01 F60 X47.668 Y73.693
G01 F60 X47.668 Y73.297
G01 F60 X47.693 Y73.297
G01 F60 X47.693 Y73.246
G01 F60 X47.719 Y73.246
G01 F60 X47.719 Y73.220
G01 F60 X47.744 Y73.220
G01 F60 X47.744 Y73.195
G01 F60 X48.903 Y73.195
G01 F60 X48.903 Y73.220
G01 F60 X48.979 Y73.220
G01 F60 X48.979 Y73.246
G01 F60 X49.005 Y73.246
G01 F60 X49.005 Y73.271
G01 F60 X49.055 Y73.271
G01 F60 X49.055 Y73.297
G01 F60 X49.081 Y73.297
G01 F60 X49.081 Y73.322
G01 F60 X49.106 Y73.322
G01 F60 X49.106 Y73.347
G01 F60 X49.132 Y73.347
G01 F60 X49.132 Y73.373
G01 F60 X49.157 Y73.373
G01 F60 X49.157 Y73.398
G01 F60 X49.182 Y73.398
G01 F60 X49.182 Y73.424
G01 F60 X49.208 Y73.424
G01 F60 X49.208 Y73.449
G01 F60 X49.233 Y73.449
G01 F60 X49.233 Y73.474
G01 F60 X49.259 Y73.474
G01 F60 X49.259 Y73.525
G01 F60 X49.284 Y73.525
G01 F60 X49.284 Y73.576
G01 F60 X49.309 Y73.576
G01 F60 X49.309 Y75.675
G01 F60 X49.284 Y75.675
G01 F60 X49.284 Y75.725
G01 F60 X49.233 Y75.725
G01 F60 X49.233 Y75.751
G01 F60 X49.182 Y75.751
G01 F60 X49.182 Y75.776
G01 F60 X48.785 Y75.776
G01 F60 X48.785 Y75.751
G01 F60 X48.649 Y75.751
G01 F60 X48.649 Y75.776
G01 F60 X48.049 Y75.776
G00 F3000 Z3.000
G00 F3000 X76.649 Y75.776
G00 F1500 Z0
G01 F60 Z-0.200
G01 F60 X76.649 Y75.751
G01 F60 X76.599 Y75.751
G01 F60 X76.599 Y75.725
G01 F60 X76.573 Y75.725
G01 F60 X76.573 Y75.700
G01 F60 X76.548 Y75.700
G01 F60 X76.548 Y75.649
G01 F60 X76.522 Y75.649
G01 F60 X76.522 Y73.906
G01 F60 X76.548 Y73.906
G01 F60 X76.548 Y73.855
G01 F60 X76.573 Y73.855
G01 F60 X76.573 Y73.830
G01 F60 X76.599 Y73.830
G01 F60 X76.599 Y73.805
G01 F60 X77.097 Y73.805
G01 F60 X77.097 Y73.830
G01 F60 X77.122 Y73.830
G01 F60 X77.122 Y73.855
G01 F60 X77.148 Y73.855
G01 F60 X77.148 Y73.906
G01 F60 X77.173 Y73.906
G01 F60 X77.173 Y74.846
G01 F60 X77.199 Y74.846
G01 F60 X77.199 Y74.871
G01 F60 X77.249 Y74.871
G01 F60 X77.249 Y74.897
G01 F60 X77.300 Y74.897
G01 F60 X77.300 Y74.922
G01 F60 X77.326 Y74.922
G01 F60 X77.326 Y74.948
G01 F60 X77.376 Y74.948
G01 F60 X77.376 Y74.973
G01 F60 X77.402 Y74.973
G01 F60 X77.402 Y74.998
G01 F60 X77.453 Y74.998
G01 F60 X77.453 Y75.024
G01 F60 X77.478 Y75.024
G01 F60 X77.478 Y75.049
G01 F60 X77.529 Y75.049
G01 F60 X77.529 Y75.075
G01 F60 X77.554 Y75.075
G01 F60 X77.554 Y75.100
G01 F60 X77.589 Y75.100
G01 F60 X77.589 Y75.075
G01 F60 X77.615 Y75.075
G01 F60 X77.615 Y74.998
G01 F60 X77.640 Y74.998
G01 F60 X77.640 Y74.363
G01 F60 X77.665 Y74.363
G01 F60 X77.665 Y73.881
G01 F60 X77.691 Y73.881
G01 F60 X77.691 Y73.855
G01 F60 X77.716 Y73.855
G01 F60 X77.716 Y73.830
G01 F60 X77.742 Y73.830
G01 F60 X77.742 Y73.805
G01 F60 X78.240 Y73.805
G01 F60 X78.240 Y73.830
G01 F60 X78.265 Y73.830
G01 F60 X78.265 Y73.855
G01 F60 X78.291 Y73.855
G01 F60 X78.291 Y74.989
G01 F60 X78.265 Y74.989
G01 F60 X78.265 Y75.446
G01 F60 X78.240 Y75.446
G01 F60 X78.240 Y75.522
G01 F60 X78.215 Y75.522
G01 F60 X78.215 Y75.547
G01 F60 X78.189 Y75.547
G01 F60 X78.189 Y75.598
G01 F60 X78.164 Y75.598
G01 F60 X78.164 Y75.624
G01 F60 X78.138 Y75.624
G01 F60 X78.138 Y75.649
G01 F60 X78.113 Y75.649
G01 F60 X78.113 Y75.675
G01 F60 X78.088 Y75.675
G01 F60 X78.088 Y75.700
G01 F60 X78.037 Y75.700
G01 F60 X78.037 Y75.725
G01 F60 X77.986 Y75.725
G01 F60 X77.986 Y75.751
G01 F60 X77.859 Y75.751
G01 F60 X77.859 Y75.776
G01 F60 X77.284 Y75.776
G01 F60 X77.284 Y75.751
G01 F60 X77.183 Y75.751
G01 F60 X77.183 Y75.725
G01 F60 X77.132 Y75.725
G01 F60 X77.132 Y75.700
G01 F60 X77.122 Y75.700
G01 F60 X77.122 Y75.725
G01 F60 X77.097 Y75.725
G01 F60 X77.097 Y75.751
G01 F60 X77.046 Y75.751
G01 F60 X77.046 Y75.776
G01 F60 X76.649 Y75.776
G00 F3000 Z3.000
G00 F3000 X74.592 Y75.776
G00 F1500 Z0
G01 F60 Z-0.200
G01 F60 X74.592 Y75.751
G01 F60 X74.516 Y75.751
G01 F60 X74.516 Y75.725
G01 F60 X74.490 Y75.725
G01 F60 X74.490 Y75.675
G01 F60 X74.465 Y75.675
G01 F60 X74.465 Y74.719
G01 F60 X74.490 Y74.719
G01 F60 X74.490 Y74.135
G01 F60 X74.516 Y74.135
G01 F60 X74.516 Y74.059
G01 F60 X74.541 Y74.059
G01 F60 X74.541 Y74.008
G01 F60 X74.567 Y74.008
G01 F60 X74.567 Y73.957
G01 F60 X74.592 Y73.957
G01 F60 X74.592 Y73.931
G01 F60 X74.617 Y73.931
G01 F60 X74.617 Y73.906
G01 F60 X74.643 Y73.906
G01 F60 X74.643 Y73.881
G01 F60 X74.694 Y73.881
G01 F60 X74.694 Y73.855
G01 F60 X74.719 Y73.855
G01 F60 X74.719 Y73.830
G01 F60 X74.795 Y73.830
G01 F60 X74.795 Y73.805
G01 F60 X75.573 Y73.805
G01 F60 X75.573 Y73.830
G01 F60 X75.624 Y73.830
G01 F60 X75.624 Y73.855
G01 F60 X75.633 Y73.855
G01 F60 X75.633 Y73.830
G01 F60 X75.659 Y73.830
G01 F60 X75.659 Y73.805
G01 F60 X76.157 Y73.805
G01 F60 X76.157 Y73.830
G01 F60 X76.183 Y73.830
G01 F60 X76.183 Y73.855
G01 F60 X76.208 Y73.855
G01 F60 X76.208 Y73.881
G01 F60 X76.233 Y73.881
G01 F60 X76.233 Y75.675
G01 F60 X76.208 Y75.675
G01 F60 X76.208 Y75.725
G01 F60 X76.157 Y75.725
G01 F60 X76.157 Y75.751
G01 F60 X76.106 Y75.751
G01 F60 X76.106 Y75.776
G01 F60 X75.710 Y75.776
G01 F60 X75.710 Y75.751
G01 F60 X75.659 Y75.751
G01 F60 X75.659 Y75.725
G01 F60 X75.633 Y75.725
G01 F60 X75.633 Y75.700
G01 F60 X75.608 Y75.700
G01 F60 X75.608 Y74.735
G01 F60 X75.583 Y74.735
G01 F60 X75.583 Y74.709
G01 F60 X75.557 Y74.709
G01 F60 X75.557 Y74.684
G01 F60 X75.506 Y74.684
G01 F60 X75.506 Y74.659
G01 F60 X75.481 Y74.659
G01 F60 X75.481 Y74.633
G01 F60 X75.430 Y74.633
G01 F60 X75.430 Y74.608
G01 F60 X75.379 Y74.608
G01 F60 X75.379 Y74.582
G01 F60 X75.354 Y74.582
G01 F60 X75.354 Y74.557
G01 F60 X75.303 Y74.557
G01 F60 X75.303 Y74.532
G01 F60 X75.278 Y74.532
G01 F60 X75.278 Y74.506
G01 F60 X75.227 Y74.506
G01 F60 X75.227 Y74.481
G01 F60 X75.202 Y74.481
G01 F60 X75.202 Y74.455
G01 F60 X75.166 Y74.455
G01 F60 X75.166 Y74.506
G01 F60 X75.141 Y74.506
G01 F60 X75.141 Y74.608
G01 F60 X75.116 Y74.608
G01 F60 X75.116 Y75.319
G01 F60 X75.090 Y75.319
G01 F60 X75.090 Y75.675
G01 F60 X75.065 Y75.675
G01 F60 X75.065 Y75.725
G01 F60 X75.040 Y75.725
G01 F60 X75.040 Y75.751
G01 F60 X74.963 Y75.751
G01 F60 X74.963 Y75.776
G01 F60 X74.592 Y75.776
G00 F3000 Z3.000
G00 F3000 X81.171 Y75.776
G00 F1500 Z0
G01 F60 Z-0.200
G01 F60 X81.171 Y75.751
G01 F60 X81.044 Y75.751
G01 F60 X81.044 Y75.725
G01 F60 X80.993 Y75.725
G01 F60 X80.993 Y75.700
G01 F60 X80.967 Y75.700
G01 F60 X80.967 Y75.675
G01 F60 X80.916 Y75.675
G01 F60 X80.916 Y75.649
G01 F60 X80.891 Y75.649
G01 F60 X80.891 Y75.624
G01 F60 X80.866 Y75.624
G01 F60 X80.866 Y75.598
G01 F60 X80.840 Y75.598
G01 F60 X80.840 Y75.573
G01 F60 X80.815 Y75.573
G01 F60 X80.815 Y75.547
G01 F60 X80.790 Y75.547
G01 F60 X80.790 Y75.522
G01 F60 X80.764 Y75.522
G01 F60 X80.764 Y75.497
G01 F60 X80.739 Y75.497
G01 F60 X80.739 Y75.446
G01 F60 X80.713 Y75.446
G01 F60 X80.713 Y75.395
G01 F60 X80.688 Y75.395
G01 F60 X80.688 Y75.294
G01 F60 X80.663 Y75.294
G01 F60 X80.663 Y74.287
G01 F60 X80.688 Y74.287
G01 F60 X80.688 Y74.160
G01 F60 X80.713 Y74.160
G01 F60 X80.713 Y74.109
G01 F60 X80.739 Y74.109
G01 F60 X80.739 Y74.059
G01 F60 X80.764 Y74.059
G01 F60 X80.764 Y74.033
G01 F60 X80.790 Y74.033
G01 F60 X80.790 Y74.008
G01 F60 X80.815 Y74.008
G01 F60 X80.815 Y73.982
G01 F60 X80.840 Y73.982
G01 F60 X80.840 Y73.957
G01 F60 X80.866 Y73.957
G01 F60 X80.866 Y73.931
G01 F60 X80.891 Y73.931
G01 F60 X80.891 Y73.906
G01 F60 X80.916 Y73.906
G01 F60 X80.916 Y73.881
G01 F60 X80.967 Y73.881
G01 F60 X80.967 Y73.855
G01 F60 X80.993 Y73.855
G01 F60 X80.993 Y73.830
G01 F60 X81.069 Y73.830
G01 F60 X81.069 Y73.805
G01 F60 X82.380 Y73.805
G01 F60 X82.380 Y73.830
G01 F60 X82.406 Y73.830
G01 F60 X82.406 Y73.855
G01 F60 X82.431 Y73.855
G01 F60 X82.431 Y73.931
G01 F60 X82.456 Y73.931
G01 F60 X82.456 Y74.303
G01 F60 X82.431 Y74.303
G01 F60 X82.431 Y74.354
G01 F60 X82.406 Y74.354
G01 F60 X82.406 Y74.379
G01 F60 X82.380 Y74.379
G01 F60 X82.380 Y74.404
G01 F60 X82.355 Y74.404
G01 F60 X82.355 Y74.414
G01 F60 X82.380 Y74.414
G01 F60 X82.380 Y74.440
G01 F60 X82.406 Y74.440
G01 F60 X82.406 Y74.465
G01 F60 X82.431 Y74.465
G01 F60 X82.431 Y74.541
G01 F60 X82.456 Y74.541
G01 F60 X82.456 Y75.268
G01 F60 X82.431 Y75.268
G01 F60 X82.431 Y75.395
G01 F60 X82.406 Y75.395
G01 F60 X82.406 Y75.446
G01 F60 X82.380 Y75.446
G01 F60 X82.380 Y75.497
G01 F60 X82.355 Y75.497
G01 F60 X82.355 Y75.522
G01 F60 X82.329 Y75.522
G01 F60 X82.329 Y75.547
G01 F60 X82.304 Y75.547
G01 F60 X82.304 Y75.573
G01 F60 X82.279 Y75.573
G01 F60 X82.279 Y75.598
G01 F60 X82.253 Y75.598
G01 F60 X82.253 Y75.624
G01 F60 X82.228 Y75.624
G01 F60 X82.228 Y75.649
G01 F60 X82.177 Y75.649
G01 F60 X82.177 Y75.675
G01 F60 X82.151 Y75.675
G01 F60 X82.151 Y75.700
G01 F60 X82.126 Y75.700
G01 F60 X82.126 Y75.725
G01 F60 X82.075 Y75.725
G01 F60 X82.075 Y75.751
G01 F60 X81.948 Y75.751
G01 F60 X81.948 Y75.776
G01 F60 X81.171 Y75.776
G00 F3000 Z3.000
G00 F3000 X66.261 Y75.776
G00 F1500 Z0
G01 F60 Z-0.200
G01 F60 X66.261 Y75.751
G01 F60 X66.210 Y75.751
G01 F60 X66.210 Y75.725
G01 F60 X66.184 Y75.725
G01 F60 X66.184 Y75.700
G01 F60 X66.159 Y75.700
G01 F60 X66.159 Y73.881
G01 F60 X66.184 Y73.881
G01 F60 X66.184 Y73.830
G01 F60 X66.210 Y73.830
G01 F60 X66.210 Y73.805
G01 F60 X66.708 Y73.805
G01 F60 X66.708 Y73.830
G01 F60 X66.759 Y73.830
G01 F60 X66.759 Y73.881
G01 F60 X66.769 Y73.881
G01 F60 X66.769 Y73.855
G01 F60 X66.794 Y73.855
G01 F60 X66.794 Y73.830
G01 F60 X66.820 Y73.830
G01 F60 X66.820 Y73.805
G01 F60 X67.318 Y73.805
G01 F60 X67.318 Y73.830
G01 F60 X67.343 Y73.830
G01 F60 X67.343 Y73.855
G01 F60 X67.378 Y73.855
G01 F60 X67.378 Y73.830
G01 F60 X67.404 Y73.830
G01 F60 X67.404 Y73.805
G01 F60 X67.902 Y73.805
G01 F60 X67.902 Y73.830
G01 F60 X67.928 Y73.830
G01 F60 X67.928 Y73.855
G01 F60 X67.953 Y73.855
G01 F60 X67.953 Y73.931
G01 F60 X67.978 Y73.931
G01 F60 X67.978 Y74.379
G01 F60 X67.953 Y74.379
G01 F60 X67.953 Y75.065
G01 F60 X67.928 Y75.065
G01 F60 X67.928 Y75.497
G01 F60 X67.902 Y75.497
G01 F60 X67.902 Y75.573
G01 F60 X67.877 Y75.573
G01 F60 X67.877 Y75.624
G01 F60 X67.851 Y75.624
G01 F60 X67.851 Y75.649
G01 F60 X67.826 Y75.649
G01 F60 X67.826 Y75.675
G01 F60 X67.800 Y75.675
G01 F60 X67.800 Y75.700
G01 F60 X67.750 Y75.700
G01 F60 X67.750 Y75.725
G01 F60 X67.699 Y75.725
G01 F60 X67.699 Y75.751
G01 F60 X67.038 Y75.751
G01 F60 X67.038 Y75.776
G01 F60 X66.667 Y75.776
G01 F60 X66.667 Y75.751
G01 F60 X66.657 Y75.751
G01 F60 X66.657 Y75.776
G01 F60 X66.261 Y75.776
G00 F3000 Z3.000
G00 F3000 X64.610 Y75.776
G00 F1500 Z0
G01 F60 Z-0.200
G01 F60 X64.610 Y75.751
G01 F60 X64.483 Y75.751
G01 F60 X64.483 Y75.725
G01 F60 X64.432 Y75.725
G01 F60 X64.432 Y75.700
G01 F60 X64.381 Y75.700
G01 F60 X64.381 Y75.675
G01 F60 X64.356 Y75.675
G01 F60 X64.356 Y75.649
G01 F60 X64.330 Y75.649
G01 F60 X64.330 Y75.624
G01 F60 X64.305 Y75.624
G01 F60 X64.305 Y75.598
G01 F60 X64.279 Y75.598
G01 F60 X64.279 Y75.573
G01 F60 X64.254 Y75.573
G01 F60 X64.254 Y75.547
G01 F60 X64.229 Y75.547
G01 F60 X64.229 Y75.522
G01 F60 X64.203 Y75.522
G01 F60 X64.203 Y75.497
G01 F60 X64.178 Y75.497
G01 F60 X64.178 Y75.446
G01 F60 X64.153 Y75.446
G01 F60 X64.153 Y75.395
G01 F60 X64.127 Y75.395
G01 F60 X64.127 Y75.319
G01 F60 X64.102 Y75.319
G01 F60 X64.102 Y74.211
G01 F60 X64.127 Y74.211
G01 F60 X64.127 Y74.135
G01 F60 X64.153 Y74.135
G01 F60 X64.153 Y74.084
G01 F60 X64.178 Y74.084
G01 F60 X64.178 Y74.059
G01 F60 X64.203 Y74.059
G01 F60 X64.203 Y74.033
G01 F60 X64.229 Y74.033
G01 F60 X64.229 Y74.008
G01 F60 X64.254 Y74.008
G01 F60 X64.254 Y73.982
G01 F60 X64.279 Y73.982
G01 F60 X64.279 Y73.957
G01 F60 X64.305 Y73.957
G01 F60 X64.305 Y73.931
G01 F60 X64.330 Y73.931
G01 F60 X64.330 Y73.906
G01 F60 X64.356 Y73.906
G01 F60 X64.356 Y73.881
G01 F60 X64.407 Y73.881
G01 F60 X64.407 Y73.855
G01 F60 X64.432 Y73.855
G01 F60 X64.432 Y73.830
G01 F60 X64.508 Y73.830
G01 F60 X64.508 Y73.805
G01 F60 X65.489 Y73.805
G01 F60 X65.489 Y73.830
G01 F60 X65.540 Y73.830
G01 F60 X65.540 Y73.855
G01 F60 X65.591 Y73.855
G01 F60 X65.591 Y73.881
G01 F60 X65.616 Y73.881
G01 F60 X65.616 Y73.906
G01 F60 X65.642 Y73.906
G01 F60 X65.642 Y73.931
G01 F60 X65.667 Y73.931
G01 F60 X65.667 Y73.957
G01 F60 X65.692 Y73.957
G01 F60 X65.692 Y73.982
G01 F60 X65.743 Y73.982
G01 F60 X65.743 Y74.008
G01 F60 X65.769 Y74.008
G01 F60 X65.769 Y74.059
G01 F60 X65.794 Y74.059
G01 F60 X65.794 Y74.084
G01 F60 X65.819 Y74.084
G01 F60 X65.819 Y74.135
G01 F60 X65.845 Y74.135
G01 F60 X65.845 Y74.186
G01 F60 X65.870 Y74.186
G01 F60 X65.870 Y75.370
G01 F60 X65.845 Y75.370
G01 F60 X65.845 Y75.446
G01 F60 X65.819 Y75.446
G01 F60 X65.819 Y75.471
G01 F60 X65.794 Y75.471
G01 F60 X65.794 Y75.522
G01 F60 X65.769 Y75.522
G01 F60 X65.769 Y75.547
G01 F60 X65.743 Y75.547
G01 F60 X65.743 Y75.573
G01 F60 X65.718 Y75.573
G01 F60 X65.718 Y75.598
G01 F60 X65.692 Y75.598
G01 F60 X65.692 Y75.624
G01 F60 X65.642 Y75.624
G01 F60 X65.642 Y75.649
G01 F60 X65.616 Y75.649
G01 F60 X65.616 Y75.675
G01 F60 X65.591 Y75.675
G01 F60 X65.591 Y75.700
G01 F60 X65.540 Y75.700
G01 F60 X65.540 Y75.725
G01 F60 X65.489 Y75.725
G01 F60 X65.489 Y75.751
G01 F60 X65.388 Y75.751
G01 F60 X65.388 Y75.776
G01 F60 X64.610 Y75.776
G00 F3000 Z3.000
G00 F3000 X72.509 Y75.776
G00 F1500 Z0
G01 F60 Z-0.200
G01 F60 X72.509 Y75.751
G01 F60 X72.458 Y75.751
G01 F60 X72.458 Y75.725
G01 F60 X72.433 Y75.725
G01 F60 X72.433 Y75.700
G01 F60 X72.407 Y75.700
G01 F60 X72.407 Y75.649
G01 F60 X72.382 Y75.649
G01 F60 X72.382 Y73.906
G01 F60 X72.407 Y73.906
G01 F60 X72.407 Y73.855
G01 F60 X72.433 Y73.855
G01 F60 X72.433 Y73.830
G01 F60 X72.458 Y73.830
G01 F60 X72.458 Y73.805
G01 F60 X72.957 Y73.805
G01 F60 X72.957 Y73.830
G01 F60 X72.982 Y73.830
G01 F60 X72.982 Y73.855
G01 F60 X73.008 Y73.855
G01 F60 X73.008 Y73.906
G01 F60 X73.033 Y73.906
G01 F60 X73.033 Y74.744
G01 F60 X73.058 Y74.744
G01 F60 X73.058 Y74.770
G01 F60 X73.084 Y74.770
G01 F60 X73.084 Y74.795
G01 F60 X73.135 Y74.795
G01 F60 X73.135 Y74.821
G01 F60 X73.160 Y74.821
G01 F60 X73.160 Y74.846
G01 F60 X73.185 Y74.846
G01 F60 X73.185 Y74.871
G01 F60 X73.211 Y74.871
G01 F60 X73.211 Y74.897
G01 F60 X73.236 Y74.897
G01 F60 X73.236 Y74.922
G01 F60 X73.261 Y74.922
G01 F60 X73.261 Y74.948
G01 F60 X73.312 Y74.948
G01 F60 X73.312 Y74.973
G01 F60 X73.338 Y74.973
G01 F60 X73.338 Y74.998
G01 F60 X73.363 Y74.998
G01 F60 X73.363 Y75.024
G01 F60 X73.389 Y75.024
G01 F60 X73.389 Y75.049
G01 F60 X73.414 Y75.049
G01 F60 X73.414 Y75.075
G01 F60 X73.439 Y75.075
G01 F60 X73.439 Y75.100
G01 F60 X73.474 Y75.100
G01 F60 X73.474 Y75.075
G01 F60 X73.500 Y75.075
G01 F60 X73.500 Y75.049
G01 F60 X73.525 Y75.049
G01 F60 X73.525 Y74.846
G01 F60 X73.550 Y74.846
G01 F60 X73.550 Y74.821
G01 F60 X73.576 Y74.821
G01 F60 X73.576 Y74.795
G01 F60 X73.601 Y74.795
G01 F60 X73.601 Y74.770
G01 F60 X74.074 Y74.770
G01 F60 X74.074 Y74.795
G01 F60 X74.125 Y74.795
G01 F60 X74.125 Y74.846
G01 F60 X74.151 Y74.846
G01 F60 X74.151 Y75.471
G01 F60 X74.125 Y75.471
G01 F60 X74.125 Y75.522
G01 F60 X74.100 Y75.522
G01 F60 X74.100 Y75.573
G01 F60 X74.074 Y75.573
G01 F60 X74.074 Y75.598
G01 F60 X74.049 Y75.598
G01 F60 X74.049 Y75.624
G01 F60 X74.023 Y75.624
G01 F60 X74.023 Y75.649
G01 F60 X73.998 Y75.649
G01 F60 X73.998 Y75.675
G01 F60 X73.973 Y75.675
G01 F60 X73.973 Y75.700
G01 F60 X73.922 Y75.700
G01 F60 X73.922 Y75.725
G01 F60 X73.871 Y75.725
G01 F60 X73.871 Y75.751
G01 F60 X73.770 Y75.751
G01 F60 X73.770 Y75.776
G01 F60 X73.093 Y75.776
G01 F60 X73.093 Y75.751
G01 F60 X73.017 Y75.751
G01 F60 X73.017 Y75.725
G01 F60 X72.992 Y75.725
G01 F60 X72.992 Y75.700
G01 F60 X72.982 Y75.700
G01 F60 X72.982 Y75.725
G01 F60 X72.957 Y75.725
G01 F60 X72.957 Y75.751
G01 F60 X72.906 Y75.751
G01 F60 X72.906 Y75.776
G01 F60 X72.509 Y75.776
G00 F3000 Z3.000
G00 F3000 X89.594 Y75.735
G00 F1500 Z0
G01 F60 Z-0.200
G01 F60 X89.883 Y75.735
G01 F60 X89.883 Y75.710
G01 F60 X89.959 Y75.710
G01 F60 X89.959 Y75.684
G01 F60 X89.984 Y75.684
G01 F60 X89.984 Y75.659
G01 F60 X90.010 Y75.659
G01 F60 X90.010 Y75.633
G01 F60 X90.035 Y75.633
G01 F60 X90.035 Y75.608
G01 F60 X90.061 Y75.608
G01 F60 X90.061 Y75.547
G01 F60 X90.035 Y75.547
G01 F60 X90.035 Y75.497
G01 F60 X90.010 Y75.497
G01 F60 X90.010 Y75.471
G01 F60 X89.984 Y75.471
G01 F60 X89.984 Y75.446
G01 F60 X89.934 Y75.446
G01 F60 X89.934 Y75.421
G01 F60 X89.857 Y75.421
G01 F60 X89.857 Y75.395
G01 F60 X89.594 Y75.395
G01 F60 X89.594 Y75.735
G00 F3000 Z3.000
G00 F3000 X87.511 Y75.735
G00 F1500 Z0
G01 F60 Z-0.200
G01 F60 X87.825 Y75.735
G01 F60 X87.825 Y75.710
G01 F60 X87.876 Y75.710
G01 F60 X87.876 Y75.684
G01 F60 X87.901 Y75.684
G01 F60 X87.901 Y75.659
G01 F60 X87.952 Y75.659
G01 F60 X87.952 Y75.608
G01 F60 X87.978 Y75.608
G01 F60 X87.978 Y75.583
G01 F60 X88.003 Y75.583
G01 F60 X88.003 Y75.573
G01 F60 X87.978 Y75.573
G01 F60 X87.978 Y75.522
G01 F60 X87.952 Y75.522
G01 F60 X87.952 Y75.497
G01 F60 X87.927 Y75.497
G01 F60 X87.927 Y75.471
G01 F60 X87.901 Y75.471
G01 F60 X87.901 Y75.446
G01 F60 X87.851 Y75.446
G01 F60 X87.851 Y75.421
G01 F60 X87.800 Y75.421
G01 F60 X87.800 Y75.395
G01 F60 X87.536 Y75.395
G01 F60 X87.536 Y75.421
G01 F60 X87.511 Y75.421
G01 F60 X87.511 Y75.735
G00 F3000 Z3.000
G00 F3000 X91.102 Y75.395
G00 F1500 Z0
G01 F60 Z-0.200
G01 F60 X91.102 Y75.370
G01 F60 X91.077 Y75.370
G01 F60 X91.077 Y75.344
G01 F60 X91.051 Y75.344
G01 F60 X91.051 Y75.319
G01 F60 X91.026 Y75.319
G01 F60 X91.026 Y74.744
G01 F60 X91.051 Y74.744
G01 F60 X91.051 Y74.694
G01 F60 X91.077 Y74.694
G01 F60 X91.077 Y74.668
G01 F60 X91.127 Y74.668
G01 F60 X91.127 Y74.643
G01 F60 X92.718 Y74.643
G01 F60 X92.718 Y74.668
G01 F60 X92.743 Y74.668
G01 F60 X92.743 Y74.694
G01 F60 X92.769 Y74.694
G01 F60 X92.769 Y74.719
G01 F60 X92.794 Y74.719
G01 F60 X92.794 Y75.319
G01 F60 X92.769 Y75.319
G01 F60 X92.769 Y75.370
G01 F60 X92.718 Y75.370
G01 F60 X92.718 Y75.395
G01 F60 X91.102 Y75.395
G00 F3000 Z3.000
G00 F3000 X81.491 Y75.125
G00 F1500 Z0
G01 F60 Z-0.200
G01 F60 X81.628 Y75.125
G01 F60 X81.628 Y75.100
G01 F60 X81.678 Y75.100
G01 F60 X81.678 Y75.075
G01 F60 X81.704 Y75.075
G01 F60 X81.704 Y75.049
G01 F60 X81.729 Y75.049
G01 F60 X81.729 Y75.040
G01 F60 X81.389 Y75.040
G01 F60 X81.389 Y75.049
G01 F60 X81.415 Y75.049
G01 F60 X81.415 Y75.075
G01 F60 X81.440 Y75.075
G01 F60 X81.440 Y75.100
G01 F60 X81.491 Y75.100
G01 F60 X81.491 Y75.125
G00 F3000 Z3.000
G00 F3000 X64.905 Y75.125
G00 F1500 Z0
G01 F60 Z-0.200
G01 F60 X65.067 Y75.125
G01 F60 X65.067 Y75.100
G01 F60 X65.118 Y75.100
G01 F60 X65.118 Y75.075
G01 F60 X65.143 Y75.075
G01 F60 X65.143 Y75.049
G01 F60 X65.169 Y75.049
G01 F60 X65.169 Y75.024
G01 F60 X65.194 Y75.024
G01 F60 X65.194 Y74.998
G01 F60 X65.219 Y74.998
G01 F60 X65.219 Y74.948
G01 F60 X65.245 Y74.948
G01 F60 X65.245 Y74.608
G01 F60 X65.219 Y74.608
G01 F60 X65.219 Y74.557
G01 F60 X65.194 Y74.557
G01 F60 X65.194 Y74.532
G01 F60 X65.169 Y74.532
G01 F60 X65.169 Y74.506
G01 F60 X65.118 Y74.506
G01 F60 X65.118 Y74.481
G01 F60 X65.092 Y74.481
G01 F60 X65.092 Y74.455
G01 F60 X65.067 Y74.455
G01 F60 X65.067 Y74.430
G01 F60 X64.930 Y74.430
G01 F60 X64.930 Y74.455
G01 F60 X64.880 Y74.455
G01 F60 X64.880 Y74.481
G01 F60 X64.854 Y74.481
G01 F60 X64.854 Y74.506
G01 F60 X64.829 Y74.506
G01 F60 X64.829 Y74.532
G01 F60 X64.803 Y74.532
G01 F60 X64.803 Y74.557
G01 F60 X64.778 Y74.557
G01 F60 X64.778 Y74.582
G01 F60 X64.752 Y74.582
G01 F60 X64.752 Y74.973
G01 F60 X64.778 Y74.973
G01 F60 X64.778 Y74.998
G01 F60 X64.803 Y74.998
G01 F60 X64.803 Y75.024
G01 F60 X64.829 Y75.024
G01 F60 X64.829 Y75.049
G01 F60 X64.854 Y75.049
G01 F60 X64.854 Y75.075
G01 F60 X64.880 Y75.075
G01 F60 X64.880 Y75.100
G01 F60 X64.905 Y75.100
G01 F60 X64.905 Y75.125
G00 F3000 Z3.000
G00 F3000 X48.344 Y75.125
G00 F1500 Z0
G01 F60 Z-0.200
G01 F60 X48.354 Y75.125
G01 F60 X48.354 Y75.100
G01 F60 X48.379 Y75.100
G01 F60 X48.379 Y75.075
G01 F60 X48.430 Y75.075
G01 F60 X48.430 Y75.049
G01 F60 X48.455 Y75.049
G01 F60 X48.455 Y75.024
G01 F60 X48.481 Y75.024
G01 F60 X48.481 Y74.998
G01 F60 X48.506 Y74.998
G01 F60 X48.506 Y74.973
G01 F60 X48.532 Y74.973
G01 F60 X48.532 Y74.948
G01 F60 X48.557 Y74.948
G01 F60 X48.557 Y74.922
G01 F60 X48.582 Y74.922
G01 F60 X48.582 Y74.897
G01 F60 X48.633 Y74.897
G01 F60 X48.633 Y74.846
G01 F60 X48.659 Y74.846
G01 F60 X48.659 Y74.811
G01 F60 X48.633 Y74.811
G01 F60 X48.633 Y74.785
G01 F60 X48.608 Y74.785
G01 F60 X48.608 Y74.760
G01 F60 X48.557 Y74.760
G01 F60 X48.557 Y74.735
G01 F60 X48.532 Y74.735
G01 F60 X48.532 Y74.709
G01 F60 X48.506 Y74.709
G01 F60 X48.506 Y74.684
G01 F60 X48.481 Y74.684
G01 F60 X48.481 Y74.659
G01 F60 X48.455 Y74.659
G01 F60 X48.455 Y74.633
G01 F60 X48.430 Y74.633
G01 F60 X48.430 Y74.608
G01 F60 X48.379 Y74.608
G01 F60 X48.379 Y74.582
G01 F60 X48.354 Y74.582
G01 F60 X48.354 Y74.557
G01 F60 X48.344 Y74.557
G01 F60 X48.344 Y74.582
G01 F60 X48.293 Y74.582
G01 F60 X48.293 Y74.608
G01 F60 X48.268 Y74.608
G01 F60 X48.268 Y74.633
G01 F60 X48.242 Y74.633
G01 F60 X48.242 Y74.659
G01 F60 X48.217 Y74.659
G01 F60 X48.217 Y74.684
G01 F60 X48.192 Y74.684
G01 F60 X48.192 Y74.735
G01 F60 X48.166 Y74.735
G01 F60 X48.166 Y74.948
G01 F60 X48.192 Y74.948
G01 F60 X48.192 Y74.998
G01 F60 X48.217 Y74.998
G01 F60 X48.217 Y75.024
G01 F60 X48.242 Y75.024
G01 F60 X48.242 Y75.049
G01 F60 X48.293 Y75.049
G01 F60 X48.293 Y75.075
G01 F60 X48.319 Y75.075
G01 F60 X48.319 Y75.100
G01 F60 X48.344 Y75.100
G01 F60 X48.344 Y75.125
G00 F3000 Z3.000
G00 F3000 X58.809 Y75.100
G00 F1500 Z0
G01 F60 Z-0.200
G01 F60 X58.895 Y75.100
G01 F60 X58.895 Y75.075
G01 F60 X58.920 Y75.075
G01 F60 X58.920 Y75.049
G01 F60 X58.946 Y75.049
G01 F60 X58.946 Y75.024
G01 F60 X58.971 Y75.024
G01 F60 X58.971 Y74.998
G01 F60 X58.996 Y74.998
G01 F60 X58.996 Y74.973
G01 F60 X59.022 Y74.973
G01 F60 X59.022 Y74.582
G01 F60 X58.996 Y74.582
G01 F60 X58.996 Y74.557
G01 F60 X58.971 Y74.557
G01 F60 X58.971 Y74.532
G01 F60 X58.946 Y74.532
G01 F60 X58.946 Y74.506
G01 F60 X58.920 Y74.506
G01 F60 X58.920 Y74.481
G01 F60 X58.895 Y74.481
G01 F60 X58.895 Y74.455
G01 F60 X58.809 Y74.455
G01 F60 X58.809 Y74.481
G01 F60 X58.784 Y74.481
G01 F60 X58.784 Y74.506
G01 F60 X58.758 Y74.506
G01 F60 X58.758 Y74.532
G01 F60 X58.733 Y74.532
G01 F60 X58.733 Y74.557
G01 F60 X58.707 Y74.557
G01 F60 X58.707 Y74.582
G01 F60 X58.657 Y74.582
G01 F60 X58.657 Y74.608
G01 F60 X58.631 Y74.608
G01 F60 X58.631 Y74.633
G01 F60 X58.606 Y74.633
G01 F60 X58.606 Y74.659
G01 F60 X58.580 Y74.659
G01 F60 X58.580 Y74.684
G01 F60 X58.555 Y74.684
G01 F60 X58.555 Y74.709
G01 F60 X58.530 Y74.709
G01 F60 X58.530 Y74.846
G01 F60 X58.555 Y74.846
G01 F60 X58.555 Y74.871
G01 F60 X58.580 Y74.871
G01 F60 X58.580 Y74.897
G01 F60 X58.606 Y74.897
G01 F60 X58.606 Y74.922
G01 F60 X58.631 Y74.922
G01 F60 X58.631 Y74.948
G01 F60 X58.657 Y74.948
G01 F60 X58.657 Y74.973
G01 F60 X58.707 Y74.973
G01 F60 X58.707 Y74.998
G01 F60 X58.733 Y74.998
G01 F60 X58.733 Y75.024
G01 F60 X58.758 Y75.024
G01 F60 X58.758 Y75.049
G01 F60 X58.784 Y75.049
G01 F60 X58.784 Y75.075
G01 F60 X58.809 Y75.075
G01 F60 X58.809 Y75.100
G00 F3000 Z3.000
G00 F3000 X60.495 Y75.040
G00 F1500 Z0
G01 F60 Z-0.200
G01 F60 X60.495 Y75.014
G01 F60 X60.444 Y75.014
G01 F60 X60.444 Y74.989
G01 F60 X60.419 Y74.989
G01 F60 X60.419 Y74.963
G01 F60 X60.393 Y74.963
G01 F60 X60.393 Y74.236
G01 F60 X60.419 Y74.236
G01 F60 X60.419 Y74.211
G01 F60 X60.444 Y74.211
G01 F60 X60.444 Y74.186
G01 F60 X60.470 Y74.186
G01 F60 X60.470 Y74.160
G01 F60 X61.222 Y74.160
G01 F60 X61.222 Y74.186
G01 F60 X61.273 Y74.186
G01 F60 X61.273 Y74.236
G01 F60 X61.298 Y74.236
G01 F60 X61.298 Y74.963
G01 F60 X61.273 Y74.963
G01 F60 X61.273 Y74.989
G01 F60 X61.247 Y74.989
G01 F60 X61.247 Y75.014
G01 F60 X61.222 Y75.014
G01 F60 X61.222 Y75.040
G01 F60 X60.495 Y75.040
G00 F3000 Z3.000
G00 F3000 X89.594 Y74.770
G00 F1500 Z0
G01 F60 Z-0.200
G01 F60 X89.883 Y74.770
G01 F60 X89.883 Y74.744
G01 F60 X89.934 Y74.744
G01 F60 X89.934 Y74.719
G01 F60 X89.984 Y74.719
G01 F60 X89.984 Y74.694
G01 F60 X90.010 Y74.694
G01 F60 X90.010 Y74.668
G01 F60 X90.035 Y74.668
G01 F60 X90.035 Y74.643
G01 F60 X90.061 Y74.643
G01 F60 X90.061 Y74.557
G01 F60 X90.035 Y74.557
G01 F60 X90.035 Y74.532
G01 F60 X90.010 Y74.532
G01 F60 X90.010 Y74.506
G01 F60 X89.984 Y74.506
G01 F60 X89.984 Y74.481
G01 F60 X89.934 Y74.481
G01 F60 X89.934 Y74.455
G01 F60 X89.883 Y74.455
G01 F60 X89.883 Y74.430
G01 F60 X89.594 Y74.430
G01 F60 X89.594 Y74.770
G00 F3000 Z3.000
G00 F3000 X87.511 Y74.770
G00 F1500 Z0
G01 F60 Z-0.200
G01 F60 X87.800 Y74.770
G01 F60 X87.800 Y74.744
G01 F60 X87.876 Y74.744
G01 F60 X87.876 Y74.719
G01 F60 X87.901 Y74.719
G01 F60 X87.901 Y74.694
G01 F60 X87.927 Y74.694
G01 F60 X87.927 Y74.668
G01 F60 X87.952 Y74.668
G01 F60 X87.952 Y74.643
G01 F60 X87.978 Y74.643
G01 F60 X87.978 Y74.617
G01 F60 X88.003 Y74.617
G01 F60 X88.003 Y74.582
G01 F60 X87.978 Y74.582
G01 F60 X87.978 Y74.557
G01 F60 X87.952 Y74.557
G01 F60 X87.952 Y74.532
G01 F60 X87.927 Y74.532
G01 F60 X87.927 Y74.506
G01 F60 X87.901 Y74.506
G01 F60 X87.901 Y74.481
G01 F60 X87.876 Y74.481
G01 F60 X87.876 Y74.455
G01 F60 X87.825 Y74.455
G01 F60 X87.825 Y74.430
G01 F60 X87.511 Y74.430
G01 F60 X87.511 Y74.770
G00 F3000 Z3.000
G00 F3000 X17.603 Y74.543
G00 F1500 Z0
G01 F60 Z-0.200
G01 F60 X17.505 Y74.522
G01 F60 X17.414 Y74.481
G01 F60 X17.344 Y74.431
G01 F60 X4.579 Y64.234
G01 F60 X4.515 Y64.162
G01 F60 X4.465 Y64.076
G01 F60 X4.434 Y63.981
G01 F60 X4.424 Y63.890
G01 F60 X4.450 Y23.232
G01 F60 X4.459 Y23.142
G01 F60 X4.490 Y23.046
G01 F60 X4.540 Y22.960
G01 F60 X4.598 Y22.895
G01 F60 X17.311 Y10.208
G01 F60 X17.388 Y10.152
G01 F60 X17.480 Y10.111
G01 F60 X17.578 Y10.090
G01 F60 X52.114 Y10.066
G01 F60 X52.220 Y9.882
G01 F60 X52.382 Y9.702
G01 F60 X52.497 Y9.614
G01 F60 X52.521 Y9.574
G01 F60 X52.588 Y9.499
G01 F60 X52.669 Y9.441
G01 F60 X52.760 Y9.400
G01 F60 X52.858 Y9.379
G01 F60 X52.958 Y9.379
G01 F60 X53.044 Y9.397
G01 F60 X53.082 Y9.408
G01 F60 X53.284 Y9.408
G01 F60 X53.522 Y9.459
G01 F60 X53.745 Y9.558
G01 F60 X53.941 Y9.701
G01 F60 X54.104 Y9.882
G01 F60 X54.226 Y10.093
G01 F60 X54.301 Y10.324
G01 F60 X54.327 Y10.566
G01 F60 X54.301 Y10.809
G01 F60 X54.226 Y11.040
G01 F60 X54.104 Y11.251
G01 F60 X53.941 Y11.432
G01 F60 X53.745 Y11.575
G01 F60 X53.522 Y11.674
G01 F60 X53.284 Y11.725
G01 F60 X53.041 Y11.725
G01 F60 X52.802 Y11.674
G01 F60 X52.580 Y11.575
G01 F60 X52.383 Y11.432
G01 F60 X52.220 Y11.251
G01 F60 X52.098 Y11.040
G01 F60 X52.091 Y11.018
G01 F60 X17.826 Y11.042
G01 F60 X5.405 Y23.439
G01 F60 X5.380 Y63.652
G01 F60 X17.822 Y73.590
G01 F60 X40.288 Y73.565
G01 F60 X41.968 Y71.885
G01 F60 X41.926 Y71.755
G01 F60 X41.902 Y71.526
G01 F60 X41.926 Y71.298
G01 F60 X41.997 Y71.079
G01 F60 X42.112 Y70.880
G01 F60 X42.266 Y70.709
G01 F60 X42.452 Y70.574
G01 F60 X42.524 Y70.542
G01 F60 X42.524 Y68.977
G01 F60 X42.534 Y68.887
G01 F60 X42.565 Y68.792
G01 F60 X42.615 Y68.705
G01 F60 X42.682 Y68.631
G01 F60 X42.763 Y68.572
G01 F60 X42.841 Y68.537
G01 F60 X43.303 Y68.352
G01 F60 X43.323 Y68.168
G01 F60 X43.396 Y67.944
G01 F60 X43.513 Y67.740
G01 F60 X43.671 Y67.565
G01 F60 X43.861 Y67.427
G01 F60 X44.077 Y67.331
G01 F60 X44.307 Y67.282
G01 F60 X44.542 Y67.282
G01 F60 X44.773 Y67.331
G01 F60 X44.988 Y67.427
G01 F60 X45.178 Y67.565
G01 F60 X45.336 Y67.740
G01 F60 X45.454 Y67.944
G01 F60 X45.526 Y68.168
G01 F60 X45.551 Y68.402
G01 F60 X45.526 Y68.636
G01 F60 X45.454 Y68.860
G01 F60 X45.336 Y69.064
G01 F60 X45.178 Y69.239
G01 F60 X44.988 Y69.378
G01 F60 X44.773 Y69.474
G01 F60 X44.542 Y69.523
G01 F60 X44.307 Y69.523
G01 F60 X44.077 Y69.474
G01 F60 X43.861 Y69.378
G01 F60 X43.671 Y69.239
G01 F60 X43.666 Y69.234
G01 F60 X43.480 Y69.309
G01 F60 X43.480 Y70.542
G01 F60 X43.552 Y70.574
G01 F60 X43.738 Y70.709
G01 F60 X43.892 Y70.880
G01 F60 X44.007 Y71.079
G01 F60 X44.078 Y71.298
G01 F60 X44.102 Y71.526
G01 F60 X44.078 Y71.755
G01 F60 X44.007 Y71.974
G01 F60 X43.892 Y72.173
G01 F60 X43.738 Y72.344
G01 F60 X43.552 Y72.479
G01 F60 X43.342 Y72.573
G01 F60 X43.117 Y72.620
G01 F60 X42.887 Y72.620
G01 F60 X42.662 Y72.573
G01 F60 X42.641 Y72.563
G01 F60 X40.804 Y74.400
G01 F60 X40.727 Y74.456
G01 F60 X40.636 Y74.496
G01 F60 X40.538 Y74.517
G01 F60 X17.685 Y74.543
G01 F60 X17.603 Y74.543
G00 F3000 Z3.000
G00 F3000 X26.468 Y73.171
G00 F1500 Z0
G01 F60 Z-0.200
G01 F60 X26.365 Y73.149
G01 F60 X26.309 Y73.120
G01 F60 X25.934 Y73.120
G01 F60 X25.832 Y73.098
G01 F60 X25.774 Y73.069
G01 F60 X25.604 Y73.069
G01 F60 X25.506 Y73.049
G01 F60 X25.496 Y73.044
G01 F60 X25.325 Y73.044
G01 F60 X25.227 Y73.023
G01 F60 X25.157 Y72.992
G01 F60 X25.142 Y72.987
G01 F60 X25.074 Y72.972
G01 F60 X25.064 Y72.968
G01 F60 X24.994 Y72.968
G01 F60 X24.896 Y72.947
G01 F60 X24.827 Y72.916
G01 F60 X24.812 Y72.910
G01 F60 X24.740 Y72.895
G01 F60 X24.682 Y72.866
G01 F60 X24.664 Y72.866
G01 F60 X24.566 Y72.845
G01 F60 X24.556 Y72.841
G01 F60 X24.512 Y72.841
G01 F60 X24.414 Y72.820
G01 F60 X24.327 Y72.781
G01 F60 X24.301 Y72.764
G01 F60 X24.258 Y72.764
G01 F60 X24.160 Y72.744
G01 F60 X24.068 Y72.703
G01 F60 X24.007 Y72.658
G01 F60 X23.994 Y72.650
G01 F60 X23.957 Y72.642
G01 F60 X23.946 Y72.638
G01 F60 X23.928 Y72.638
G01 F60 X23.830 Y72.617
G01 F60 X23.747 Y72.580
G01 F60 X23.700 Y72.553
G01 F60 X23.635 Y72.522
G01 F60 X23.593 Y72.499
G01 F60 X23.545 Y72.489
G01 F60 X23.467 Y72.448
G01 F60 X23.423 Y72.439
G01 F60 X23.384 Y72.421
G01 F60 X23.347 Y72.413
G01 F60 X23.257 Y72.374
G01 F60 X23.210 Y72.341
G01 F60 X23.195 Y72.337
G01 F60 X23.103 Y72.297
G01 F60 X23.046 Y72.255
G01 F60 X23.030 Y72.246
G01 F60 X22.992 Y72.225
G01 F60 X22.924 Y72.195
G01 F60 X22.883 Y72.163
G01 F60 X22.864 Y72.160
G01 F60 X22.773 Y72.119
G01 F60 X22.704 Y72.069
G01 F60 X22.645 Y72.042
G01 F60 X22.604 Y72.011
G01 F60 X22.585 Y72.007
G01 F60 X22.493 Y71.966
G01 F60 X22.425 Y71.916
G01 F60 X22.367 Y71.890
G01 F60 X22.309 Y71.849
G01 F60 X22.285 Y71.835
G01 F60 X22.210 Y71.781
G01 F60 X22.170 Y71.737
G01 F60 X22.128 Y71.728
G01 F60 X22.036 Y71.687
G01 F60 X21.951 Y71.625
G01 F60 X21.909 Y71.571
G01 F60 X21.884 Y71.560
G01 F60 X21.807 Y71.504
G01 F60 X21.746 Y71.443
G01 F60 X21.691 Y71.388
G01 F60 X21.652 Y71.343
G01 F60 X21.629 Y71.326
G01 F60 X21.600 Y71.297
G01 F60 X21.595 Y71.296
G01 F60 X21.503 Y71.255
G01 F60 X21.421 Y71.196
G01 F60 X21.389 Y71.160
G01 F60 X21.376 Y71.154
G01 F60 X21.295 Y71.095
G01 F60 X21.228 Y71.020
G01 F60 X21.213 Y70.993
G01 F60 X21.173 Y70.976
G01 F60 X21.090 Y70.916
G01 F60 X21.043 Y70.861
G01 F60 X21.014 Y70.840
G01 F60 X20.967 Y70.785
G01 F60 X20.943 Y70.767
G01 F60 X20.878 Y70.702
G01 F60 X20.840 Y70.657
G01 F60 X20.810 Y70.636
G01 F60 X20.764 Y70.582
G01 F60 X20.734 Y70.560
G01 F60 X20.687 Y70.505
G01 F60 X20.664 Y70.488
G01 F60 X20.600 Y70.424
G01 F60 X20.540 Y70.357
G01 F60 X20.512 Y70.303
G01 F60 X20.482 Y70.282
G01 F60 X20.415 Y70.208
G01 F60 X20.380 Y70.147
G01 F60 X20.360 Y70.138
G01 F60 X20.279 Y70.079
G01 F60 X20.212 Y70.004
G01 F60 X20.162 Y69.918
G01 F60 X20.156 Y69.900
G01 F60 X20.133 Y69.875
G01 F60 X20.104 Y69.818
G01 F60 X20.036 Y69.848
G01 F60 X19.938 Y69.869
G01 F60 X19.742 Y69.869
G01 F60 X19.731 Y69.874
G01 F60 X19.638 Y69.893
G01 F60 X19.421 Y69.904
G01 F60 X19.376 Y69.924
G01 F60 X19.278 Y69.945
G01 F60 X18.924 Y69.945
G01 F60 X18.822 Y69.923
G01 F60 X18.764 Y69.894
G01 F60 X18.289 Y69.894
G01 F60 X18.201 Y69.876
G01 F60 X18.179 Y69.869
G01 F60 X17.959 Y69.869
G01 F60 X17.856 Y69.847
G01 F60 X17.800 Y69.818
G01 F60 X17.755 Y69.818
G01 F60 X17.658 Y69.797
G01 F60 X17.647 Y69.793
G01 F60 X17.578 Y69.793
G01 F60 X17.480 Y69.772
G01 F60 X17.397 Y69.735
G01 F60 X17.348 Y69.707
G01 F60 X17.295 Y69.680
G01 F60 X17.251 Y69.670
G01 F60 X17.211 Y69.653
G01 F60 X17.172 Y69.644
G01 F60 X17.111 Y69.615
G01 F60 X17.095 Y69.615
G01 F60 X16.997 Y69.594
G01 F60 X16.957 Y69.577
G01 F60 X16.921 Y69.569
G01 F60 X16.829 Y69.528
G01 F60 X16.768 Y69.484
G01 F60 X16.754 Y69.475
G01 F60 X16.718 Y69.467
G01 F60 X16.678 Y69.450
G01 F60 X16.641 Y69.442
G01 F60 X16.559 Y69.405
G01 F60 X16.515 Y69.380
G01 F60 X16.447 Y69.350
G01 F60 X16.406 Y69.319
G01 F60 X16.387 Y69.315
G01 F60 X16.296 Y69.274
G01 F60 X16.227 Y69.224
G01 F60 X16.169 Y69.198
G01 F60 X16.112 Y69.156
G01 F60 X16.087 Y69.143
G01 F60 X16.024 Y69.097
G01 F60 X15.966 Y69.071
G01 F60 X15.897 Y69.020
G01 F60 X15.839 Y68.995
G01 F60 X15.758 Y68.936
G01 F60 X15.688 Y68.859
G01 F60 X15.666 Y68.816
G01 F60 X15.656 Y68.809
G01 F60 X15.644 Y68.795
G01 F60 X15.600 Y68.770
G01 F60 X15.534 Y68.741
G01 F60 X15.453 Y68.682
G01 F60 X15.388 Y68.609
G01 F60 X15.382 Y68.600
G01 F60 X15.356 Y68.588
G01 F60 X15.275 Y68.529
G01 F60 X15.216 Y68.464
G01 F60 X15.195 Y68.436
G01 F60 X15.146 Y68.401
G01 F60 X15.099 Y68.346
G01 F60 X15.072 Y68.326
G01 F60 X15.003 Y68.249
G01 F60 X14.958 Y68.163
G01 F60 X14.953 Y68.155
G01 F60 X14.940 Y68.142
G01 F60 X14.858 Y68.061
G01 F60 X14.820 Y68.016
G01 F60 X14.793 Y67.996
G01 F60 X14.726 Y67.922
G01 F60 X14.694 Y67.866
G01 F60 X14.674 Y67.844
G01 F60 X14.649 Y67.799
G01 F60 X14.640 Y67.793
G01 F60 X14.573 Y67.718
G01 F60 X14.547 Y67.673
G01 F60 X14.530 Y67.656
G01 F60 X14.472 Y67.591
G01 F60 X14.422 Y67.505
G01 F60 X14.416 Y67.487
G01 F60 X14.396 Y67.464
G01 F60 X14.345 Y67.378
G01 F60 X14.340 Y67.360
G01 F60 X14.319 Y67.337
G01 F60 X14.287 Y67.282
G01 F60 X14.269 Y67.261
G01 F60 X14.217 Y67.172
G01 F60 X14.202 Y67.119
G01 F60 X14.192 Y67.109
G01 F60 X14.143 Y67.023
G01 F60 X14.113 Y66.934
G01 F60 X14.101 Y66.905
G01 F60 X14.084 Y66.876
G01 F60 X14.065 Y66.855
G01 F60 X14.016 Y66.769
G01 F60 X13.983 Y66.672
G01 F60 X13.967 Y66.613
G01 F60 X13.957 Y66.597
G01 F60 X13.938 Y66.576
G01 F60 X13.888 Y66.489
G01 F60 X13.857 Y66.393
G01 F60 X13.850 Y66.319
G01 F60 X13.840 Y66.283
G01 F60 X13.812 Y66.235
G01 F60 X13.781 Y66.139
G01 F60 X13.772 Y66.049
G01 F60 X13.772 Y66.032
G01 F60 X13.764 Y66.004
G01 F60 X13.736 Y65.955
G01 F60 X13.705 Y65.860
G01 F60 X13.695 Y65.769
G01 F60 X13.696 Y65.720
G01 F60 X13.685 Y65.701
G01 F60 X13.654 Y65.606
G01 F60 X13.645 Y65.516
G01 F60 X13.645 Y65.472
G01 F60 X13.648 Y65.441
G01 F60 X13.647 Y65.434
G01 F60 X13.629 Y65.377
G01 F60 X13.619 Y65.287
G01 F60 X13.619 Y65.211
G01 F60 X13.609 Y65.193
G01 F60 X13.578 Y65.098
G01 F60 X13.568 Y65.008
G01 F60 X13.568 Y64.609
G01 F60 X13.578 Y64.518
G01 F60 X13.591 Y64.478
G01 F60 X13.578 Y64.438
G01 F60 X13.568 Y64.347
G01 F60 X13.568 Y64.278
G01 F60 X13.571 Y64.255
G01 F60 X13.437 Y64.255
G01 F60 X13.340 Y64.235
G01 F60 X13.248 Y64.194
G01 F60 X13.167 Y64.135
G01 F60 X13.100 Y64.061
G01 F60 X13.050 Y63.974
G01 F60 X13.019 Y63.879
G01 F60 X13.010 Y63.789
G01 F60 X13.010 Y63.669
G01 F60 X13.019 Y63.578
G01 F60 X13.050 Y63.483
G01 F60 X13.100 Y63.396
G01 F60 X13.167 Y63.322
G01 F60 X13.248 Y63.263
G01 F60 X13.340 Y63.223
G01 F60 X13.379 Y63.214
G01 F60 X11.964 Y63.214
G01 F60 X11.866 Y63.193
G01 F60 X11.775 Y63.153
G01 F60 X11.697 Y63.097
G01 F60 X11.659 Y63.058
G01 F60 X11.601 Y62.994
G01 F60 X11.551 Y62.907
G01 F60 X11.521 Y62.812
G01 F60 X11.511 Y62.722
G01 F60 X11.511 Y62.653
G01 F60 X11.521 Y62.562
G01 F60 X11.551 Y62.467
G01 F60 X11.601 Y62.380
G01 F60 X11.668 Y62.306
G01 F60 X11.749 Y62.247
G01 F60 X11.841 Y62.207
G01 F60 X11.939 Y62.186
G01 F60 X12.064 Y62.186
G01 F60 X12.166 Y62.207
G01 F60 X12.223 Y62.236
G01 F60 X14.111 Y62.225
G01 F60 X14.156 Y62.205
G01 F60 X14.172 Y62.202
G01 F60 X14.194 Y62.137
G01 F60 X14.218 Y62.061
G01 F60 X14.269 Y61.974
G01 F60 X14.287 Y61.953
G01 F60 X14.319 Y61.898
G01 F60 X14.340 Y61.875
G01 F60 X14.345 Y61.858
G01 F60 X14.396 Y61.771
G01 F60 X14.416 Y61.748
G01 F60 X14.422 Y61.731
G01 F60 X14.472 Y61.644
G01 F60 X14.532 Y61.577
G01 F60 X14.588 Y61.526
G01 F60 X14.609 Y61.499
G01 F60 X14.625 Y61.451
G01 F60 X14.675 Y61.364
G01 F60 X14.744 Y61.288
G01 F60 X14.792 Y61.255
G01 F60 X14.803 Y61.236
G01 F60 X14.849 Y61.186
G01 F60 X14.880 Y61.132
G01 F60 X14.949 Y61.063
G01 F60 X14.991 Y61.016
G01 F60 X15.028 Y60.984
G01 F60 X15.079 Y60.933
G01 F60 X15.119 Y60.891
G01 F60 X15.150 Y60.856
G01 F60 X15.198 Y60.824
G01 F60 X15.208 Y60.806
G01 F60 X15.277 Y60.730
G01 F60 X15.325 Y60.696
G01 F60 X15.337 Y60.675
G01 F60 X15.412 Y60.600
G01 F60 X15.448 Y60.561
G01 F60 X15.478 Y60.528
G01 F60 X15.556 Y60.472
G01 F60 X15.572 Y60.464
G01 F60 X15.606 Y60.426
G01 F60 X15.686 Y60.368
G01 F60 X15.741 Y60.343
G01 F60 X15.758 Y60.325
G01 F60 X15.839 Y60.266
G01 F60 X15.930 Y60.225
G01 F60 X15.936 Y60.224
G01 F60 X15.965 Y60.199
G01 F60 X16.012 Y60.147
G01 F60 X16.093 Y60.088
G01 F60 X16.170 Y60.054
G01 F60 X16.193 Y60.044
G01 F60 X16.215 Y60.020
G01 F60 X16.296 Y59.961
G01 F60 X16.381 Y59.923
G01 F60 X16.406 Y59.916
G01 F60 X16.448 Y59.885
G01 F60 X16.541 Y59.844
G01 F60 X16.592 Y59.834
G01 F60 X16.626 Y59.809
G01 F60 X16.707 Y59.773
G01 F60 X16.739 Y59.761
G01 F60 X16.779 Y59.733
G01 F60 X16.859 Y59.697
G01 F60 X16.927 Y59.672
G01 F60 X16.997 Y59.641
G01 F60 X17.095 Y59.620
G01 F60 X17.165 Y59.620
G01 F60 X17.185 Y59.606
G01 F60 X17.265 Y59.570
G01 F60 X17.334 Y59.545
G01 F60 X17.404 Y59.514
G01 F60 X17.501 Y59.493
G01 F60 X17.520 Y59.493
G01 F60 X17.588 Y59.469
G01 F60 X17.658 Y59.438
G01 F60 X17.755 Y59.417
G01 F60 X17.850 Y59.417
G01 F60 X17.861 Y59.413
G01 F60 X17.949 Y59.394
G01 F60 X18.039 Y59.384
G01 F60 X18.089 Y59.362
G01 F60 X18.187 Y59.341
G01 F60 X18.244 Y59.341
G01 F60 X18.291 Y59.334
G01 F60 X18.343 Y59.311
G01 F60 X18.441 Y59.290
G01 F60 X19.430 Y59.290
G01 F60 X19.531 Y59.312
G01 F60 X19.591 Y59.341
G01 F60 X19.684 Y59.341
G01 F60 X19.782 Y59.362
G01 F60 X19.850 Y59.392
G01 F60 X19.964 Y59.392
G01 F60 X20.062 Y59.413
G01 F60 X20.070 Y59.417
G01 F60 X20.076 Y59.410
G01 F60 X20.157 Y59.352
G01 F60 X20.160 Y59.350
G01 F60 X20.162 Y59.343
G01 F60 X20.212 Y59.256
G01 F60 X20.231 Y59.235
G01 F60 X20.264 Y59.179
G01 F60 X20.310 Y59.129
G01 F60 X20.339 Y59.078
G01 F60 X20.401 Y59.009
G01 F60 X20.435 Y58.980
G01 F60 X20.482 Y58.928
G01 F60 X20.560 Y58.871
G01 F60 X20.571 Y58.866
G01 F60 X20.578 Y58.858
G01 F60 X20.591 Y58.846
G01 F60 X20.619 Y58.799
G01 F60 X20.678 Y58.733
G01 F60 X20.717 Y58.696
G01 F60 X20.748 Y58.643
G01 F60 X20.816 Y58.574
G01 F60 X20.863 Y58.522
G01 F60 X20.944 Y58.463
G01 F60 X20.961 Y58.455
G01 F60 X21.016 Y58.394
G01 F60 X21.094 Y58.338
G01 F60 X21.117 Y58.326
G01 F60 X21.152 Y58.266
G01 F60 X21.214 Y58.197
G01 F60 X21.248 Y58.167
G01 F60 X21.295 Y58.115
G01 F60 X21.376 Y58.056
G01 F60 X21.384 Y58.052
G01 F60 X21.397 Y58.039
G01 F60 X21.472 Y57.984
G01 F60 X21.490 Y57.974
G01 F60 X21.502 Y57.964
G01 F60 X21.549 Y57.912
G01 F60 X21.615 Y57.864
G01 F60 X21.659 Y57.832
G01 F60 X21.701 Y57.785
G01 F60 X21.782 Y57.726
G01 F60 X21.875 Y57.685
G01 F60 X21.917 Y57.677
G01 F60 X21.960 Y57.632
G01 F60 X22.006 Y57.582
G01 F60 X22.087 Y57.523
G01 F60 X22.171 Y57.486
G01 F60 X22.188 Y57.480
G01 F60 X22.203 Y57.464
G01 F60 X22.235 Y57.429
G01 F60 X22.318 Y57.369
G01 F60 X22.390 Y57.340
G01 F60 X22.418 Y57.320
G01 F60 X22.426 Y57.316
G01 F60 X22.438 Y57.302
G01 F60 X22.522 Y57.242
G01 F60 X22.593 Y57.213
G01 F60 X22.621 Y57.193
G01 F60 X22.629 Y57.189
G01 F60 X22.641 Y57.175
G01 F60 X22.722 Y57.116
G01 F60 X22.816 Y57.075
G01 F60 X22.882 Y57.063
G01 F60 X22.895 Y57.048
G01 F60 X22.976 Y56.989
G01 F60 X23.068 Y56.949
G01 F60 X23.157 Y56.930
G01 F60 X23.179 Y56.913
G01 F60 X23.263 Y56.876
G01 F60 X23.278 Y56.871
G01 F60 X23.302 Y56.845
G01 F60 X23.383 Y56.786
G01 F60 X23.474 Y56.745
G01 F60 X23.563 Y56.727
G01 F60 X23.586 Y56.710
G01 F60 X23.677 Y56.669
G01 F60 X23.775 Y56.649
G01 F60 X23.794 Y56.649
G01 F60 X23.804 Y56.644
G01 F60 X23.872 Y56.630
G01 F60 X23.881 Y56.626
G01 F60 X23.884 Y56.625
G01 F60 X23.941 Y56.583
G01 F60 X24.036 Y56.541
G01 F60 X24.115 Y56.527
G01 F60 X24.119 Y56.526
G01 F60 X24.145 Y56.507
G01 F60 X24.236 Y56.466
G01 F60 X24.334 Y56.445
G01 F60 X24.353 Y56.445
G01 F60 X24.363 Y56.441
G01 F60 X24.454 Y56.421
G01 F60 X24.557 Y56.412
G01 F60 X24.602 Y56.380
G01 F60 X24.693 Y56.339
G01 F60 X24.791 Y56.318
G01 F60 X24.886 Y56.318
G01 F60 X24.954 Y56.294
G01 F60 X25.024 Y56.263
G01 F60 X25.121 Y56.242
G01 F60 X25.294 Y56.242
G01 F60 X25.348 Y56.251
G01 F60 X25.368 Y56.242
G01 F60 X25.436 Y56.218
G01 F60 X25.506 Y56.187
G01 F60 X25.604 Y56.166
G01 F60 X25.694 Y56.166
G01 F60 X25.944 Y56.156
G01 F60 X25.989 Y56.136
G01 F60 X26.087 Y56.115
G01 F60 X26.283 Y56.115
G01 F60 X26.294 Y56.111
G01 F60 X26.391 Y56.090
G01 F60 X27.047 Y56.090
G01 F60 X27.106 Y56.100
G01 F60 X27.153 Y56.090
G01 F60 X27.380 Y56.090
G01 F60 X27.478 Y56.111
G01 F60 X27.489 Y56.115
G01 F60 X27.635 Y56.115
G01 F60 X27.661 Y56.121
G01 F60 X27.687 Y56.115
G01 F60 X27.863 Y56.115
G01 F60 X27.965 Y56.137
G01 F60 X28.023 Y56.166
G01 F60 X28.117 Y56.166
G01 F60 X28.219 Y56.188
G01 F60 X28.277 Y56.217
G01 F60 X28.396 Y56.217
G01 F60 X28.497 Y56.238
G01 F60 X28.505 Y56.242
G01 F60 X28.549 Y56.242
G01 F60 X28.652 Y56.264
G01 F60 X28.730 Y56.304
G01 F60 X28.774 Y56.314
G01 F60 X28.784 Y56.318
G01 F60 X28.930 Y56.318
G01 F60 X29.028 Y56.339
G01 F60 X29.097 Y56.370
G01 F60 X29.112 Y56.376
G01 F60 X29.180 Y56.390
G01 F60 X29.260 Y56.426
G01 F60 X29.277 Y56.434
G01 F60 X29.307 Y56.441
G01 F60 X29.318 Y56.445
G01 F60 X29.362 Y56.445
G01 F60 X29.465 Y56.467
G01 F60 X29.543 Y56.508
G01 F60 X29.587 Y56.517
G01 F60 X29.678 Y56.558
G01 F60 X29.701 Y56.574
G01 F60 X29.795 Y56.594
G01 F60 X29.873 Y56.635
G01 F60 X29.917 Y56.644
G01 F60 X29.956 Y56.662
G01 F60 X29.993 Y56.669
G01 F60 X30.076 Y56.706
G01 F60 X30.108 Y56.725
G01 F60 X30.149 Y56.725
G01 F60 X30.247 Y56.745
G01 F60 X30.338 Y56.786
G01 F60 X30.396 Y56.828
G01 F60 X30.416 Y56.839
G01 F60 X30.452 Y56.862
G01 F60 X30.501 Y56.873
G01 F60 X30.593 Y56.914
G01 F60 X30.636 Y56.945
G01 F60 X30.653 Y56.949
G01 F60 X30.745 Y56.989
G01 F60 X30.802 Y57.031
G01 F60 X30.822 Y57.042
G01 F60 X30.859 Y57.065
G01 F60 X30.907 Y57.076
G01 F60 X30.999 Y57.116
G01 F60 X31.056 Y57.158
G01 F60 X31.081 Y57.171
G01 F60 X31.144 Y57.218
G01 F60 X31.202 Y57.243
G01 F60 X31.259 Y57.285
G01 F60 X31.284 Y57.298
G01 F60 X31.347 Y57.345
G01 F60 X31.405 Y57.370
G01 F60 X31.483 Y57.427
G01 F60 X31.500 Y57.444
G01 F60 X31.504 Y57.446
G01 F60 X31.542 Y57.468
G01 F60 X31.608 Y57.497
G01 F60 X31.686 Y57.553
G01 F60 X31.703 Y57.571
G01 F60 X31.715 Y57.578
G01 F60 X31.791 Y57.632
G01 F60 X31.829 Y57.674
G01 F60 X31.888 Y57.701
G01 F60 X31.957 Y57.751
G01 F60 X32.015 Y57.777
G01 F60 X32.092 Y57.833
G01 F60 X32.130 Y57.871
G01 F60 X32.159 Y57.903
G01 F60 X32.218 Y57.929
G01 F60 X32.299 Y57.988
G01 F60 X32.359 Y58.054
G01 F60 X32.387 Y58.092
G01 F60 X32.421 Y58.107
G01 F60 X32.498 Y58.163
G01 F60 X32.537 Y58.201
G01 F60 X32.587 Y58.257
G01 F60 X32.608 Y58.285
G01 F60 X32.656 Y58.320
G01 F60 X32.703 Y58.375
G01 F60 X32.727 Y58.392
G01 F60 X32.791 Y58.455
G01 F60 X32.840 Y58.511
G01 F60 X32.862 Y58.539
G01 F60 X32.905 Y58.570
G01 F60 X32.940 Y58.605
G01 F60 X32.995 Y58.660
G01 F60 X33.034 Y58.705
G01 F60 X33.057 Y58.722
G01 F60 X33.122 Y58.787
G01 F60 X33.161 Y58.832
G01 F60 X33.184 Y58.849
G01 F60 X33.245 Y58.909
G01 F60 X33.349 Y59.014
G01 F60 X33.409 Y59.080
G01 F60 X33.433 Y59.125
G01 F60 X33.442 Y59.131
G01 F60 X33.511 Y59.208
G01 F60 X33.557 Y59.295
G01 F60 X33.569 Y59.315
G01 F60 X33.591 Y59.332
G01 F60 X33.654 Y59.395
G01 F60 X33.712 Y59.459
G01 F60 X33.754 Y59.532
G01 F60 X33.773 Y59.566
G01 F60 X33.814 Y59.612
G01 F60 X33.846 Y59.667
G01 F60 X33.863 Y59.686
G01 F60 X33.896 Y59.740
G01 F60 X33.939 Y59.788
G01 F60 X33.973 Y59.842
G01 F60 X34.017 Y59.891
G01 F60 X34.064 Y59.972
G01 F60 X34.083 Y60.019
G01 F60 X34.115 Y60.074
G01 F60 X34.134 Y60.120
G01 F60 X34.169 Y60.181
G01 F60 X34.175 Y60.202
G01 F60 X34.176 Y60.203
G01 F60 X34.204 Y60.223
G01 F60 X34.271 Y60.298
G01 F60 X34.318 Y60.379
G01 F60 X34.337 Y60.425
G01 F60 X34.371 Y60.485
G01 F60 X34.391 Y60.544
G01 F60 X34.398 Y60.552
G01 F60 X34.448 Y60.638
G01 F60 X34.454 Y60.656
G01 F60 X34.474 Y60.679
G01 F60 X34.506 Y60.733
G01 F60 X34.525 Y60.755
G01 F60 X34.575 Y60.842
G01 F60 X34.606 Y60.937
G01 F60 X34.610 Y60.973
G01 F60 X34.651 Y61.044
G01 F60 X34.680 Y61.132
G01 F60 X34.692 Y61.162
G01 F60 X34.709 Y61.191
G01 F60 X34.728 Y61.212
G01 F60 X34.778 Y61.299
G01 F60 X34.809 Y61.394
G01 F60 X34.813 Y61.430
G01 F60 X34.854 Y61.502
G01 F60 X34.885 Y61.597
G01 F60 X34.892 Y61.664
G01 F60 X34.931 Y61.731
G01 F60 X34.962 Y61.826
G01 F60 X34.965 Y61.862
G01 F60 X35.007 Y61.934
G01 F60 X35.038 Y62.030
G01 F60 X35.043 Y62.086
G01 F60 X35.058 Y62.111
G01 F60 X35.089 Y62.207
G01 F60 X35.098 Y62.299
G01 F60 X35.098 Y62.314
G01 F60 X35.106 Y62.343
G01 F60 X35.134 Y62.391
G01 F60 X35.165 Y62.486
G01 F60 X35.174 Y62.578
G01 F60 X35.174 Y62.626
G01 F60 X35.185 Y62.645
G01 F60 X35.215 Y62.737
G01 F60 X35.220 Y62.778
G01 F60 X35.241 Y62.842
G01 F60 X35.250 Y62.932
G01 F60 X35.250 Y63.033
G01 F60 X35.261 Y63.051
G01 F60 X35.292 Y63.147
G01 F60 X35.301 Y63.236
G01 F60 X35.312 Y63.255
G01 F60 X35.343 Y63.350
G01 F60 X35.352 Y63.441
G01 F60 X35.352 Y63.503
G01 F60 X35.368 Y63.553
G01 F60 X35.377 Y63.643
G01 F60 X35.377 Y63.687
G01 F60 X35.376 Y63.703
G01 F60 X35.377 Y63.719
G01 F60 X35.377 Y63.814
G01 F60 X35.376 Y63.830
G01 F60 X35.377 Y63.847
G01 F60 X35.377 Y63.890
G01 F60 X35.368 Y63.981
G01 F60 X35.368 Y63.982
G01 F60 X35.388 Y64.016
G01 F60 X35.419 Y64.112
G01 F60 X35.428 Y64.202
G01 F60 X35.428 Y64.347
G01 F60 X35.427 Y64.364
G01 F60 X35.428 Y64.380
G01 F60 X35.428 Y64.627
G01 F60 X35.427 Y64.643
G01 F60 X35.428 Y64.659
G01 F60 X35.428 Y64.703
G01 F60 X35.427 Y64.719
G01 F60 X35.428 Y64.735
G01 F60 X35.428 Y64.881
G01 F60 X35.422 Y64.935
G01 F60 X35.428 Y64.990
G01 F60 X35.428 Y65.084
G01 F60 X35.419 Y65.174
G01 F60 X35.388 Y65.270
G01 F60 X35.377 Y65.289
G01 F60 X35.377 Y65.294
G01 F60 X35.377 Y65.490
G01 F60 X35.368 Y65.578
G01 F60 X35.349 Y65.642
G01 F60 X35.348 Y65.659
G01 F60 X35.352 Y65.701
G01 F60 X35.352 Y65.821
G01 F60 X35.343 Y65.911
G01 F60 X35.313 Y66.002
G01 F60 X35.301 Y66.025
G01 F60 X35.301 Y66.100
G01 F60 X35.292 Y66.190
G01 F60 X35.261 Y66.285
G01 F60 X35.250 Y66.304
G01 F60 X35.241 Y66.394
G01 F60 X35.212 Y66.484
G01 F60 X35.178 Y66.551
G01 F60 X35.174 Y66.558
G01 F60 X35.165 Y66.648
G01 F60 X35.134 Y66.743
G01 F60 X35.123 Y66.761
G01 F60 X35.114 Y66.851
G01 F60 X35.098 Y66.900
G01 F60 X35.098 Y66.963
G01 F60 X35.089 Y67.054
G01 F60 X35.057 Y67.151
G01 F60 X35.021 Y67.210
G01 F60 X35.020 Y67.215
G01 F60 X35.012 Y67.282
G01 F60 X34.981 Y67.378
G01 F60 X34.931 Y67.465
G01 F60 X34.910 Y67.488
G01 F60 X34.879 Y67.581
G01 F60 X34.854 Y67.659
G01 F60 X34.819 Y67.716
G01 F60 X34.819 Y67.725
G01 F60 X34.809 Y67.816
G01 F60 X34.778 Y67.911
G01 F60 X34.728 Y67.998
G01 F60 X34.709 Y68.019
G01 F60 X34.683 Y68.065
G01 F60 X34.682 Y68.070
G01 F60 X34.651 Y68.165
G01 F60 X34.607 Y68.241
G01 F60 X34.593 Y68.263
G01 F60 X34.575 Y68.318
G01 F60 X34.525 Y68.404
G01 F60 X34.506 Y68.425
G01 F60 X34.483 Y68.466
G01 F60 X34.479 Y68.502
G01 F60 X34.448 Y68.597
G01 F60 X34.398 Y68.684
G01 F60 X34.379 Y68.705
G01 F60 X34.347 Y68.760
G01 F60 X34.327 Y68.783
G01 F60 X34.321 Y68.800
G01 F60 X34.269 Y68.890
G01 F60 X34.212 Y68.948
G01 F60 X34.194 Y69.003
G01 F60 X34.143 Y69.091
G01 F60 X34.095 Y69.143
G01 F60 X34.079 Y69.169
G01 F60 X34.069 Y69.202
G01 F60 X34.035 Y69.269
G01 F60 X33.992 Y69.344
G01 F60 X33.973 Y69.365
G01 F60 X33.941 Y69.420
G01 F60 X33.879 Y69.489
G01 F60 X33.845 Y69.518
G01 F60 X33.844 Y69.519
G01 F60 X33.838 Y69.537
G01 F60 X33.788 Y69.623
G01 F60 X33.768 Y69.646
G01 F60 X33.762 Y69.664
G01 F60 X33.712 Y69.750
G01 F60 X33.651 Y69.818
G01 F60 X33.638 Y69.830
G01 F60 X33.609 Y69.879
G01 F60 X33.545 Y69.947
G01 F60 X33.537 Y69.955
G01 F60 X33.509 Y70.004
G01 F60 X33.442 Y70.079
G01 F60 X33.379 Y70.124
G01 F60 X33.330 Y70.209
G01 F60 X33.258 Y70.286
G01 F60 X33.231 Y70.310
G01 F60 X33.196 Y70.350
G01 F60 X33.156 Y70.387
G01 F60 X33.128 Y70.436
G01 F60 X33.059 Y70.513
G01 F60 X33.018 Y70.541
G01 F60 X32.976 Y70.614
G01 F60 X32.909 Y70.688
G01 F60 X32.831 Y70.745
G01 F60 X32.770 Y70.776
G01 F60 X32.764 Y70.779
