( PCB Contour )
( Generated by Rapid-PCB.com )
( Material Size)
( X= 160.000, Y= 100.000, Z= 1.580)
()
G00
G17
G21
G40
G49
G54
G80
G90
G94
G00 F3000 Z3.000
M03 S9000
G00 F3000 X137.699 Y89.545
G00 F1500 Z0
G01 F60 Z-0.200
G01 F60 X137.561 Y89.516
G01 F60 X137.433 Y89.458
G01 F60 X137.319 Y89.375
G01 F60 X137.296 Y89.351
G01 F60 X137.255 Y89.351
G01 F60 X19.218 Y88.944
G01 F60 X19.196 Y88.969
G01 F60 X19.082 Y89.052
G01 F60 X18.954 Y89.109
G01 F60 X18.816 Y89.139
G01 F60 X18.675 Y89.139
G01 F60 X18.537 Y89.109
G01 F60 X18.408 Y89.052
G01 F60 X18.294 Y88.969
G01 F60 X18.200 Y88.864
G01 F60 X18.130 Y88.742
G01 F60 X18.086 Y88.608
G01 F60 X18.071 Y88.468
G01 F60 X18.086 Y88.328
G01 F60 X18.130 Y88.194
G01 F60 X18.200 Y88.072
G01 F60 X18.268 Y87.997
G01 F60 X18.267 Y87.995
G01 F60 X18.267 Y15.279
G01 F60 X18.200 Y15.204
G01 F60 X18.130 Y15.082
G01 F60 X18.086 Y14.948
G01 F60 X18.071 Y14.808
G01 F60 X18.086 Y14.668
G01 F60 X18.130 Y14.534
G01 F60 X18.200 Y14.412
G01 F60 X18.294 Y14.307
G01 F60 X18.408 Y14.225
G01 F60 X18.537 Y14.167
G01 F60 X18.675 Y14.138
G01 F60 X18.816 Y14.138
G01 F60 X18.954 Y14.167
G01 F60 X19.082 Y14.225
G01 F60 X19.196 Y14.307
G01 F60 X19.218 Y14.332
G01 F60 X137.652 Y14.332
G01 F60 X137.674 Y14.307
G01 F60 X137.788 Y14.225
G01 F60 X137.917 Y14.167
G01 F60 X138.055 Y14.138
G01 F60 X138.196 Y14.138
G01 F60 X138.334 Y14.167
G01 F60 X138.462 Y14.225
G01 F60 X138.576 Y14.307
G01 F60 X138.670 Y14.412
G01 F60 X138.741 Y14.534
G01 F60 X138.784 Y14.668
G01 F60 X138.799 Y14.808
G01 F60 X138.784 Y14.948
G01 F60 X138.741 Y15.082
G01 F60 X138.670 Y15.204
G01 F60 X138.603 Y15.280
G01 F60 X138.603 Y15.282
G01 F60 X138.247 Y88.404
G01 F60 X138.315 Y88.479
G01 F60 X138.385 Y88.601
G01 F60 X138.429 Y88.735
G01 F60 X138.444 Y88.875
G01 F60 X138.429 Y89.015
G01 F60 X138.385 Y89.149
G01 F60 X138.315 Y89.271
G01 F60 X138.221 Y89.375
G01 F60 X138.107 Y89.458
G01 F60 X137.978 Y89.516
G01 F60 X137.840 Y89.545
G01 F60 X137.699 Y89.545
G00 F3000 Z3.000
G00 F3000 X137.292 Y88.398
G00 F1500 Z0
G01 F60 Z-0.200
G01 F60 X137.648 Y15.284
G01 F60 X19.223 Y15.284
G01 F60 X19.223 Y87.992
G01 F60 X19.260 Y87.992
G01 F60 X137.292 Y88.398
G00 F3000 Z3.000
G00 F3000 X36.501 Y86.404
G00 F1500 Z0
G01 F60 Z-0.200
G01 F60 X36.403 Y86.383
G01 F60 X36.311 Y86.343
G01 F60 X36.242 Y86.292
G01 F60 X23.502 Y76.096
G01 F60 X23.438 Y76.024
G01 F60 X23.388 Y75.938
G01 F60 X23.357 Y75.842
G01 F60 X23.347 Y75.752
G01 F60 X23.347 Y32.579
G01 F60 X23.357 Y32.489
G01 F60 X23.388 Y32.394
G01 F60 X23.438 Y32.307
G01 F60 X23.505 Y32.232
G01 F60 X23.586 Y32.174
G01 F60 X23.677 Y32.133
G01 F60 X23.775 Y32.112
G01 F60 X38.587 Y32.112
G01 F60 X38.587 Y22.419
G01 F60 X38.597 Y22.329
G01 F60 X38.628 Y22.233
G01 F60 X38.678 Y22.147
G01 F60 X38.745 Y22.072
G01 F60 X38.826 Y22.014
G01 F60 X38.917 Y21.973
G01 F60 X39.015 Y21.952
G01 F60 X71.037 Y21.928
G01 F60 X71.143 Y21.744
G01 F60 X71.306 Y21.563
G01 F60 X71.393 Y21.500
G01 F60 X71.394 Y21.497
G01 F60 X71.444 Y21.410
G01 F60 X71.511 Y21.336
G01 F60 X71.592 Y21.277
G01 F60 X71.683 Y21.236
G01 F60 X71.781 Y21.216
G01 F60 X71.881 Y21.216
G01 F60 X71.979 Y21.236
G01 F60 X72.055 Y21.270
G01 F60 X72.207 Y21.270
G01 F60 X72.445 Y21.321
G01 F60 X72.668 Y21.420
G01 F60 X72.864 Y21.563
G01 F60 X73.027 Y21.744
G01 F60 X73.149 Y21.954
G01 F60 X73.224 Y22.186
G01 F60 X73.250 Y22.428
G01 F60 X73.224 Y22.670
G01 F60 X73.149 Y22.902
G01 F60 X73.027 Y23.113
G01 F60 X72.864 Y23.294
G01 F60 X72.668 Y23.437
G01 F60 X72.445 Y23.536
G01 F60 X72.207 Y23.586
G01 F60 X71.964 Y23.586
G01 F60 X71.725 Y23.536
G01 F60 X71.503 Y23.437
G01 F60 X71.306 Y23.294
G01 F60 X71.143 Y23.113
G01 F60 X71.021 Y22.902
G01 F60 X71.014 Y22.880
G01 F60 X39.543 Y22.904
G01 F60 X39.543 Y32.597
G01 F60 X39.534 Y32.688
G01 F60 X39.503 Y32.783
G01 F60 X39.453 Y32.870
G01 F60 X39.386 Y32.944
G01 F60 X39.305 Y33.003
G01 F60 X39.213 Y33.044
G01 F60 X39.115 Y33.064
G01 F60 X24.308 Y33.064
G01 F60 X24.329 Y35.111
G01 F60 X24.319 Y35.202
G01 F60 X24.303 Y35.251
G01 F60 X24.303 Y75.514
G01 F60 X36.719 Y85.452
G01 F60 X59.213 Y85.402
G01 F60 X60.891 Y83.745
G01 F60 X60.849 Y83.617
G01 F60 X60.825 Y83.388
G01 F60 X60.849 Y83.160
G01 F60 X60.920 Y82.941
G01 F60 X61.035 Y82.742
G01 F60 X61.189 Y82.571
G01 F60 X61.375 Y82.436
G01 F60 X61.444 Y82.405
G01 F60 X61.422 Y80.840
G01 F60 X61.431 Y80.749
G01 F60 X61.462 Y80.654
G01 F60 X61.513 Y80.567
G01 F60 X61.579 Y80.492
G01 F60 X61.660 Y80.434
G01 F60 X61.739 Y80.398
G01 F60 X62.227 Y80.210
G01 F60 X62.246 Y80.030
G01 F60 X62.319 Y79.806
G01 F60 X62.436 Y79.602
G01 F60 X62.594 Y79.427
G01 F60 X62.784 Y79.288
G01 F60 X63.000 Y79.193
G01 F60 X63.230 Y79.144
G01 F60 X63.465 Y79.144
G01 F60 X63.696 Y79.193
G01 F60 X63.911 Y79.288
G01 F60 X64.101 Y79.427
G01 F60 X64.259 Y79.602
G01 F60 X64.377 Y79.806
G01 F60 X64.449 Y80.030
G01 F60 X64.474 Y80.264
G01 F60 X64.449 Y80.498
G01 F60 X64.377 Y80.722
G01 F60 X64.259 Y80.926
G01 F60 X64.101 Y81.101
G01 F60 X63.911 Y81.240
G01 F60 X63.696 Y81.335
G01 F60 X63.465 Y81.384
G01 F60 X63.230 Y81.384
G01 F60 X63.000 Y81.335
G01 F60 X62.784 Y81.240
G01 F60 X62.594 Y81.101
G01 F60 X62.587 Y81.094
G01 F60 X62.382 Y81.173
G01 F60 X62.400 Y82.402
G01 F60 X62.475 Y82.436
G01 F60 X62.661 Y82.571
G01 F60 X62.815 Y82.742
G01 F60 X62.930 Y82.941
G01 F60 X63.001 Y83.160
G01 F60 X63.025 Y83.388
G01 F60 X63.001 Y83.617
G01 F60 X62.930 Y83.836
G01 F60 X62.815 Y84.035
G01 F60 X62.661 Y84.206
G01 F60 X62.475 Y84.341
G01 F60 X62.265 Y84.434
G01 F60 X62.040 Y84.482
G01 F60 X61.810 Y84.482
G01 F60 X61.585 Y84.434
G01 F60 X61.562 Y84.424
G01 F60 X59.727 Y86.236
G01 F60 X59.650 Y86.292
G01 F60 X59.559 Y86.333
G01 F60 X59.461 Y86.354
G01 F60 X36.583 Y86.404
G01 F60 X36.501 Y86.404
G00 F3000 Z3.000
G00 F3000 X23.546 Y86.047
G00 F1500 Z0
G01 F60 Z-0.200
G01 F60 X22.999 Y85.931
G01 F60 X22.488 Y85.704
G01 F60 X22.036 Y85.375
G01 F60 X21.662 Y84.960
G01 F60 X21.382 Y84.476
G01 F60 X21.210 Y83.944
G01 F60 X21.151 Y83.388
G01 F60 X21.210 Y82.832
G01 F60 X21.382 Y82.301
G01 F60 X21.662 Y81.817
G01 F60 X22.036 Y81.401
G01 F60 X22.488 Y81.073
G01 F60 X22.999 Y80.845
G01 F60 X23.546 Y80.729
G01 F60 X24.105 Y80.729
G01 F60 X24.652 Y80.845
G01 F60 X25.162 Y81.073
G01 F60 X25.614 Y81.401
G01 F60 X25.989 Y81.817
G01 F60 X26.268 Y82.301
G01 F60 X26.441 Y82.832
G01 F60 X26.499 Y83.388
G01 F60 X26.441 Y83.944
G01 F60 X26.268 Y84.476
G01 F60 X25.989 Y84.960
G01 F60 X25.614 Y85.375
G01 F60 X25.162 Y85.704
G01 F60 X24.652 Y85.931
G01 F60 X24.105 Y86.047
G01 F60 X23.546 Y86.047
G00 F3000 Z3.000
G00 F3000 X132.766 Y86.047
G00 F1500 Z0
G01 F60 Z-0.200
G01 F60 X132.219 Y85.931
G01 F60 X131.708 Y85.704
G01 F60 X131.256 Y85.375
G01 F60 X130.882 Y84.960
G01 F60 X130.602 Y84.476
G01 F60 X130.430 Y83.944
G01 F60 X130.371 Y83.388
G01 F60 X130.430 Y82.832
G01 F60 X130.602 Y82.301
G01 F60 X130.882 Y81.817
G01 F60 X131.256 Y81.401
G01 F60 X131.708 Y81.073
G01 F60 X132.219 Y80.845
G01 F60 X132.766 Y80.729
G01 F60 X133.325 Y80.729
G01 F60 X133.871 Y80.845
G01 F60 X134.382 Y81.073
G01 F60 X134.834 Y81.401
G01 F60 X135.209 Y81.817
G01 F60 X135.488 Y82.301
G01 F60 X135.661 Y82.832
G01 F60 X135.719 Y83.388
G01 F60 X135.661 Y83.944
G01 F60 X135.488 Y84.476
G01 F60 X135.209 Y84.960
G01 F60 X134.834 Y85.375
G01 F60 X134.382 Y85.704
G01 F60 X133.871 Y85.931
G01 F60 X133.325 Y86.047
G01 F60 X132.766 Y86.047
G00 F3000 Z3.000
G00 F3000 X45.391 Y85.007
G00 F1500 Z0
G01 F60 Z-0.200
G01 F60 X45.303 Y84.989
G01 F60 X45.281 Y84.982
G01 F60 X45.010 Y84.982
G01 F60 X44.996 Y84.979
G01 F60 X44.983 Y84.982
G01 F60 X44.857 Y84.982
G01 F60 X44.755 Y84.960
G01 F60 X44.698 Y84.931
G01 F60 X44.527 Y84.931
G01 F60 X44.429 Y84.910
G01 F60 X44.419 Y84.906
G01 F60 X44.248 Y84.906
G01 F60 X44.145 Y84.884
G01 F60 X44.088 Y84.855
G01 F60 X44.070 Y84.855
G01 F60 X43.972 Y84.834
G01 F60 X43.903 Y84.803
G01 F60 X43.887 Y84.798
G01 F60 X43.820 Y84.783
G01 F60 X43.809 Y84.779
G01 F60 X43.740 Y84.779
G01 F60 X43.642 Y84.758
G01 F60 X43.572 Y84.727
G01 F60 X43.557 Y84.722
G01 F60 X43.486 Y84.707
G01 F60 X43.478 Y84.703
G01 F60 X43.435 Y84.703
G01 F60 X43.337 Y84.682
G01 F60 X43.254 Y84.645
G01 F60 X43.210 Y84.620
G01 F60 X43.166 Y84.600
G01 F60 X43.151 Y84.595
G01 F60 X43.083 Y84.580
G01 F60 X43.043 Y84.563
G01 F60 X43.002 Y84.554
G01 F60 X42.924 Y84.513
G01 F60 X42.880 Y84.504
G01 F60 X42.869 Y84.499
G01 F60 X42.851 Y84.499
G01 F60 X42.748 Y84.478
G01 F60 X42.669 Y84.437
G01 F60 X42.626 Y84.428
G01 F60 X42.533 Y84.386
G01 F60 X42.492 Y84.355
G01 F60 X42.468 Y84.350
G01 F60 X42.390 Y84.310
G01 F60 X42.346 Y84.301
G01 F60 X42.307 Y84.283
G01 F60 X42.270 Y84.275
G01 F60 X42.179 Y84.235
G01 F60 X42.121 Y84.193
G01 F60 X42.105 Y84.184
G01 F60 X42.067 Y84.162
G01 F60 X42.053 Y84.156
G01 F60 X42.016 Y84.148
G01 F60 X41.923 Y84.107
G01 F60 X41.862 Y84.061
G01 F60 X41.853 Y84.056
G01 F60 X41.806 Y84.035
G01 F60 X41.762 Y84.010
G01 F60 X41.696 Y83.981
G01 F60 X41.627 Y83.930
G01 F60 X41.573 Y83.906
G01 F60 X41.532 Y83.879
G01 F60 X41.483 Y83.869
G01 F60 X41.391 Y83.828
G01 F60 X41.306 Y83.766
G01 F60 X41.288 Y83.744
G01 F60 X41.279 Y83.742
G01 F60 X41.188 Y83.701
G01 F60 X41.107 Y83.642
G01 F60 X41.040 Y83.567
G01 F60 X41.033 Y83.556
G01 F60 X40.963 Y83.522
G01 F60 X40.908 Y83.498
G01 F60 X40.840 Y83.448
G01 F60 X40.782 Y83.422
G01 F60 X40.701 Y83.363
G01 F60 X40.636 Y83.291
G01 F60 X40.601 Y83.236
G01 F60 X40.592 Y83.225
G01 F60 X40.578 Y83.219
G01 F60 X40.505 Y83.165
G01 F60 X40.476 Y83.139
G01 F60 X40.426 Y83.117
G01 F60 X40.344 Y83.058
G01 F60 X40.312 Y83.021
G01 F60 X40.299 Y83.015
G01 F60 X40.218 Y82.957
G01 F60 X40.159 Y82.891
G01 F60 X40.137 Y82.863
G01 F60 X40.115 Y82.847
G01 F60 X40.090 Y82.834
G01 F60 X40.013 Y82.778
G01 F60 X39.966 Y82.723
G01 F60 X39.942 Y82.705
G01 F60 X39.882 Y82.645
G01 F60 X39.856 Y82.619
G01 F60 X39.801 Y82.564
G01 F60 X39.763 Y82.519
G01 F60 X39.739 Y82.502
G01 F60 X39.679 Y82.442
G01 F60 X39.647 Y82.410
G01 F60 X39.601 Y82.353
G01 F60 X39.561 Y82.324
G01 F60 X39.472 Y82.235
G01 F60 X39.415 Y82.171
G01 F60 X39.364 Y82.084
G01 F60 X39.359 Y82.067
G01 F60 X39.340 Y82.046
G01 F60 X39.321 Y82.016
G01 F60 X39.257 Y81.969
G01 F60 X39.193 Y81.905
G01 F60 X39.137 Y81.843
G01 F60 X39.106 Y81.792
G01 F60 X39.066 Y81.753
G01 F60 X39.006 Y81.686
G01 F60 X39.004 Y81.682
G01 F60 X38.991 Y81.684
G01 F60 X38.934 Y81.710
G01 F60 X38.836 Y81.731
G01 F60 X38.665 Y81.731
G01 F60 X38.654 Y81.735
G01 F60 X38.561 Y81.755
G01 F60 X38.344 Y81.766
G01 F60 X38.299 Y81.786
G01 F60 X38.201 Y81.807
G01 F60 X37.847 Y81.807
G01 F60 X37.745 Y81.785
G01 F60 X37.687 Y81.756
G01 F60 X37.186 Y81.756
G01 F60 X37.089 Y81.735
G01 F60 X37.078 Y81.731
G01 F60 X36.856 Y81.731
G01 F60 X36.756 Y81.709
G01 F60 X36.694 Y81.680
G01 F60 X36.653 Y81.680
G01 F60 X36.555 Y81.659
G01 F60 X36.486 Y81.628
G01 F60 X36.471 Y81.623
G01 F60 X36.403 Y81.608
G01 F60 X36.392 Y81.604
G01 F60 X36.374 Y81.604
G01 F60 X36.271 Y81.582
G01 F60 X36.192 Y81.541
G01 F60 X36.149 Y81.532
G01 F60 X36.109 Y81.514
G01 F60 X36.072 Y81.507
G01 F60 X36.003 Y81.476
G01 F60 X35.988 Y81.470
G01 F60 X35.920 Y81.456
G01 F60 X35.833 Y81.417
G01 F60 X35.791 Y81.390
G01 F60 X35.742 Y81.380
G01 F60 X35.659 Y81.343
G01 F60 X35.625 Y81.323
G01 F60 X35.611 Y81.319
G01 F60 X35.539 Y81.303
G01 F60 X35.448 Y81.263
G01 F60 X35.390 Y81.221
G01 F60 X35.365 Y81.207
G01 F60 X35.329 Y81.181
G01 F60 X35.310 Y81.177
G01 F60 X35.219 Y81.136
G01 F60 X35.150 Y81.086
G01 F60 X35.092 Y81.060
G01 F60 X35.035 Y81.018
G01 F60 X35.010 Y81.005
G01 F60 X34.947 Y80.958
G01 F60 X34.889 Y80.933
G01 F60 X34.820 Y80.882
G01 F60 X34.762 Y80.856
G01 F60 X34.684 Y80.800
G01 F60 X34.619 Y80.735
G01 F60 X34.581 Y80.690
G01 F60 X34.552 Y80.669
G01 F60 X34.531 Y80.645
G01 F60 X34.523 Y80.643
G01 F60 X34.432 Y80.602
G01 F60 X34.351 Y80.544
G01 F60 X34.284 Y80.469
G01 F60 X34.268 Y80.442
G01 F60 X34.202 Y80.394
G01 F60 X34.137 Y80.329
G01 F60 X34.099 Y80.284
G01 F60 X34.069 Y80.263
G01 F60 X34.022 Y80.208
G01 F60 X33.999 Y80.191
G01 F60 X33.935 Y80.127
G01 F60 X33.877 Y80.063
G01 F60 X33.827 Y79.976
G01 F60 X33.824 Y79.965
G01 F60 X33.781 Y79.922
G01 F60 X33.743 Y79.878
G01 F60 X33.716 Y79.858
G01 F60 X33.649 Y79.783
G01 F60 X33.602 Y79.703
G01 F60 X33.601 Y79.701
G01 F60 X33.538 Y79.655
G01 F60 X33.471 Y79.580
G01 F60 X33.421 Y79.493
G01 F60 X33.415 Y79.476
G01 F60 X33.395 Y79.453
G01 F60 X33.363 Y79.398
G01 F60 X33.341 Y79.374
G01 F60 X33.296 Y79.288
G01 F60 X33.287 Y79.271
G01 F60 X33.265 Y79.247
G01 F60 X33.220 Y79.160
G01 F60 X33.210 Y79.144
G01 F60 X33.192 Y79.123
G01 F60 X33.140 Y79.034
G01 F60 X33.125 Y78.981
G01 F60 X33.115 Y78.971
G01 F60 X33.068 Y78.889
G01 F60 X33.049 Y78.843
G01 F60 X33.015 Y78.783
G01 F60 X32.995 Y78.724
G01 F60 X32.988 Y78.717
G01 F60 X32.957 Y78.662
G01 F60 X32.938 Y78.641
G01 F60 X32.887 Y78.554
G01 F60 X32.856 Y78.458
G01 F60 X32.853 Y78.422
G01 F60 X32.811 Y78.350
G01 F60 X32.780 Y78.255
G01 F60 X32.773 Y78.182
G01 F60 X32.763 Y78.145
G01 F60 X32.735 Y78.097
G01 F60 X32.704 Y78.001
G01 F60 X32.701 Y77.974
G01 F60 X32.684 Y77.944
G01 F60 X32.653 Y77.848
G01 F60 X32.646 Y77.779
G01 F60 X32.628 Y77.722
G01 F60 X32.618 Y77.630
G01 F60 X32.619 Y77.582
G01 F60 X32.608 Y77.563
G01 F60 X32.577 Y77.468
G01 F60 X32.568 Y77.377
G01 F60 X32.568 Y77.334
G01 F60 X32.571 Y77.303
G01 F60 X32.570 Y77.296
G01 F60 X32.552 Y77.239
G01 F60 X32.542 Y77.149
G01 F60 X32.542 Y77.048
G01 F60 X32.532 Y77.030
G01 F60 X32.501 Y76.934
G01 F60 X32.491 Y76.844
G01 F60 X32.491 Y76.470
G01 F60 X32.501 Y76.380
G01 F60 X32.514 Y76.340
G01 F60 X32.501 Y76.300
G01 F60 X32.491 Y76.209
G01 F60 X32.491 Y76.140
G01 F60 X32.497 Y76.092
G01 F60 X32.335 Y76.092
G01 F60 X32.237 Y76.071
G01 F60 X32.146 Y76.030
G01 F60 X32.065 Y75.972
G01 F60 X31.998 Y75.897
G01 F60 X31.948 Y75.811
G01 F60 X31.917 Y75.715
G01 F60 X31.907 Y75.625
G01 F60 X31.907 Y75.531
G01 F60 X31.917 Y75.440
G01 F60 X31.948 Y75.345
G01 F60 X31.998 Y75.258
G01 F60 X32.065 Y75.184
G01 F60 X32.146 Y75.125
G01 F60 X32.237 Y75.084
G01 F60 X32.277 Y75.076
G01 F60 X30.887 Y75.076
G01 F60 X30.786 Y75.055
G01 F60 X30.702 Y75.013
G01 F60 X30.647 Y74.989
G01 F60 X30.566 Y74.930
G01 F60 X30.499 Y74.856
G01 F60 X30.449 Y74.769
G01 F60 X30.418 Y74.674
G01 F60 X30.409 Y74.584
G01 F60 X30.409 Y74.514
G01 F60 X30.418 Y74.424
G01 F60 X30.449 Y74.329
G01 F60 X30.499 Y74.242
G01 F60 X30.566 Y74.168
G01 F60 X30.647 Y74.109
G01 F60 X30.739 Y74.068
G01 F60 X30.836 Y74.047
G01 F60 X30.987 Y74.047
G01 F60 X31.089 Y74.069
G01 F60 X31.146 Y74.098
G01 F60 X33.034 Y74.087
G01 F60 X33.067 Y74.072
G01 F60 X33.091 Y73.999
G01 F60 X33.141 Y73.912
G01 F60 X33.160 Y73.891
G01 F60 X33.192 Y73.836
G01 F60 X33.207 Y73.819
G01 F60 X33.224 Y73.784
G01 F60 X33.268 Y73.709
G01 F60 X33.283 Y73.692
G01 F60 X33.300 Y73.657
G01 F60 X33.344 Y73.582
G01 F60 X33.363 Y73.561
G01 F60 X33.395 Y73.506
G01 F60 X33.415 Y73.483
G01 F60 X33.421 Y73.465
G01 F60 X33.471 Y73.379
G01 F60 X33.530 Y73.313
G01 F60 X33.569 Y73.276
G01 F60 X33.600 Y73.222
G01 F60 X33.674 Y73.148
G01 F60 X33.718 Y73.102
G01 F60 X33.745 Y73.076
G01 F60 X33.751 Y73.059
G01 F60 X33.801 Y72.972
G01 F60 X33.868 Y72.898
G01 F60 X33.938 Y72.847
G01 F60 X33.956 Y72.816
G01 F60 X34.025 Y72.746
G01 F60 X34.071 Y72.695
G01 F60 X34.148 Y72.639
G01 F60 X34.165 Y72.630
G01 F60 X34.200 Y72.591
G01 F60 X34.241 Y72.563
G01 F60 X34.284 Y72.490
G01 F60 X34.351 Y72.415
G01 F60 X34.428 Y72.359
G01 F60 X34.492 Y72.327
G01 F60 X34.495 Y72.325
G01 F60 X34.529 Y72.288
G01 F60 X34.610 Y72.229
G01 F60 X34.618 Y72.226
G01 F60 X34.630 Y72.212
G01 F60 X34.708 Y72.156
G01 F60 X34.775 Y72.122
G01 F60 X34.853 Y72.087
G01 F60 X34.859 Y72.086
G01 F60 X34.888 Y72.061
G01 F60 X34.935 Y72.009
G01 F60 X35.016 Y71.950
G01 F60 X35.093 Y71.916
G01 F60 X35.116 Y71.906
G01 F60 X35.138 Y71.882
G01 F60 X35.219 Y71.823
G01 F60 X35.304 Y71.785
G01 F60 X35.329 Y71.778
G01 F60 X35.371 Y71.747
G01 F60 X35.463 Y71.706
G01 F60 X35.504 Y71.697
G01 F60 X35.522 Y71.690
G01 F60 X35.552 Y71.669
G01 F60 X35.623 Y71.640
G01 F60 X35.648 Y71.622
G01 F60 X35.715 Y71.589
G01 F60 X35.782 Y71.559
G01 F60 X35.850 Y71.534
G01 F60 X35.920 Y71.503
G01 F60 X35.988 Y71.489
G01 F60 X36.003 Y71.483
G01 F60 X36.073 Y71.452
G01 F60 X36.170 Y71.431
G01 F60 X36.189 Y71.431
G01 F60 X36.257 Y71.407
G01 F60 X36.327 Y71.376
G01 F60 X36.424 Y71.355
G01 F60 X36.443 Y71.355
G01 F60 X36.464 Y71.340
G01 F60 X36.555 Y71.300
G01 F60 X36.641 Y71.281
G01 F60 X36.706 Y71.272
G01 F60 X36.758 Y71.249
G01 F60 X36.856 Y71.228
G01 F60 X37.002 Y71.228
G01 F60 X37.012 Y71.224
G01 F60 X37.110 Y71.203
G01 F60 X37.167 Y71.203
G01 F60 X37.214 Y71.196
G01 F60 X37.266 Y71.173
G01 F60 X37.364 Y71.152
G01 F60 X38.353 Y71.152
G01 F60 X38.454 Y71.173
G01 F60 X38.515 Y71.203
G01 F60 X38.607 Y71.203
G01 F60 X38.705 Y71.224
G01 F60 X38.715 Y71.228
G01 F60 X38.887 Y71.228
G01 F60 X38.989 Y71.250
G01 F60 X39.012 Y71.262
G01 F60 X39.028 Y71.249
G01 F60 X39.067 Y71.205
G01 F60 X39.108 Y71.166
G01 F60 X39.124 Y71.141
G01 F60 X39.136 Y71.103
G01 F60 X39.186 Y71.016
G01 F60 X39.248 Y70.947
G01 F60 X39.283 Y70.917
G01 F60 X39.331 Y70.867
G01 F60 X39.364 Y70.836
G01 F60 X39.414 Y70.786
G01 F60 X39.452 Y70.746
G01 F60 X39.477 Y70.719
G01 F60 X39.514 Y70.687
G01 F60 X39.566 Y70.634
G01 F60 X39.616 Y70.584
G01 F60 X39.635 Y70.565
G01 F60 X39.650 Y70.533
G01 F60 X39.694 Y70.458
G01 F60 X39.761 Y70.383
G01 F60 X39.844 Y70.323
G01 F60 X39.899 Y70.300
G01 F60 X39.939 Y70.256
G01 F60 X40.008 Y70.206
G01 F60 X40.026 Y70.175
G01 F60 X40.098 Y70.102
G01 F60 X40.137 Y70.058
G01 F60 X40.171 Y70.029
G01 F60 X40.213 Y69.982
G01 F60 X40.247 Y69.953
G01 F60 X40.294 Y69.901
G01 F60 X40.375 Y69.842
G01 F60 X40.434 Y69.816
G01 F60 X40.472 Y69.774
G01 F60 X40.538 Y69.725
G01 F60 X40.582 Y69.694
G01 F60 X40.625 Y69.647
G01 F60 X40.705 Y69.588
G01 F60 X40.797 Y69.547
G01 F60 X40.823 Y69.541
G01 F60 X40.837 Y69.518
G01 F60 X40.904 Y69.443
G01 F60 X40.985 Y69.385
G01 F60 X41.068 Y69.347
G01 F60 X41.084 Y69.343
G01 F60 X41.107 Y69.316
G01 F60 X41.185 Y69.260
G01 F60 X41.246 Y69.229
G01 F60 X41.258 Y69.223
G01 F60 X41.311 Y69.184
G01 F60 X41.387 Y69.145
G01 F60 X41.437 Y69.109
G01 F60 X41.461 Y69.096
G01 F60 X41.514 Y69.057
G01 F60 X41.590 Y69.018
G01 F60 X41.640 Y68.982
G01 F60 X41.664 Y68.969
G01 F60 X41.721 Y68.927
G01 F60 X41.814 Y68.886
G01 F60 X41.865 Y68.876
G01 F60 X41.899 Y68.851
G01 F60 X41.991 Y68.811
G01 F60 X42.080 Y68.792
G01 F60 X42.097 Y68.779
G01 F60 X42.121 Y68.766
G01 F60 X42.175 Y68.727
G01 F60 X42.250 Y68.688
G01 F60 X42.306 Y68.648
G01 F60 X42.397 Y68.607
G01 F60 X42.486 Y68.588
G01 F60 X42.509 Y68.572
G01 F60 X42.589 Y68.536
G01 F60 X42.659 Y68.511
G01 F60 X42.727 Y68.480
G01 F60 X42.825 Y68.460
G01 F60 X42.844 Y68.460
G01 F60 X42.864 Y68.445
G01 F60 X42.956 Y68.404
G01 F60 X42.992 Y68.396
G01 F60 X43.021 Y68.383
G01 F60 X43.089 Y68.359
G01 F60 X43.148 Y68.333
G01 F60 X43.216 Y68.308
G01 F60 X43.286 Y68.277
G01 F60 X43.384 Y68.256
G01 F60 X43.505 Y68.256
G01 F60 X43.525 Y68.242
G01 F60 X43.616 Y68.201
G01 F60 X43.714 Y68.180
G01 F60 X43.809 Y68.180
G01 F60 X43.877 Y68.156
G01 F60 X43.947 Y68.125
G01 F60 X44.044 Y68.104
G01 F60 X44.221 Y68.104
G01 F60 X44.230 Y68.106
G01 F60 X44.302 Y68.074
G01 F60 X44.400 Y68.053
G01 F60 X44.419 Y68.053
G01 F60 X44.429 Y68.049
G01 F60 X44.527 Y68.028
G01 F60 X44.844 Y68.028
G01 F60 X44.912 Y67.998
G01 F60 X45.010 Y67.977
G01 F60 X45.181 Y67.977
G01 F60 X45.191 Y67.972
G01 F60 X45.289 Y67.952
G01 F60 X45.970 Y67.952
G01 F60 X46.029 Y67.962
G01 F60 X46.076 Y67.952
G01 F60 X46.303 Y67.952
G01 F60 X46.401 Y67.972
G01 F60 X46.412 Y67.977
G01 F60 X46.532 Y67.977
G01 F60 X46.571 Y67.985
G01 F60 X46.610 Y67.977
G01 F60 X46.786 Y67.977
G01 F60 X46.888 Y67.999
G01 F60 X46.946 Y68.028
G01 F60 X47.015 Y68.028
G01 F60 X47.097 Y68.045
G01 F60 X47.131 Y68.053
G01 F60 X47.319 Y68.053
G01 F60 X47.417 Y68.074
G01 F60 X47.487 Y68.105
G01 F60 X47.502 Y68.110
G01 F60 X47.575 Y68.126
G01 F60 X47.653 Y68.166
G01 F60 X47.697 Y68.175
G01 F60 X47.707 Y68.180
G01 F60 X47.853 Y68.180
G01 F60 X47.951 Y68.201
G01 F60 X48.020 Y68.232
G01 F60 X48.035 Y68.237
G01 F60 X48.103 Y68.252
G01 F60 X48.114 Y68.256
G01 F60 X48.132 Y68.256
G01 F60 X48.230 Y68.277
G01 F60 X48.300 Y68.308
G01 F60 X48.315 Y68.314
G01 F60 X48.388 Y68.329
G01 F60 X48.466 Y68.369
G01 F60 X48.510 Y68.379
G01 F60 X48.601 Y68.419
G01 F60 X48.624 Y68.436
G01 F60 X48.713 Y68.455
G01 F60 X48.723 Y68.460
G01 F60 X48.742 Y68.460
G01 F60 X48.840 Y68.480
G01 F60 X48.931 Y68.521
G01 F60 X48.989 Y68.563
G01 F60 X49.013 Y68.576
G01 F60 X49.028 Y68.587
G01 F60 X49.072 Y68.587
G01 F60 X49.170 Y68.607
G01 F60 X49.262 Y68.648
G01 F60 X49.305 Y68.680
G01 F60 X49.322 Y68.684
G01 F60 X49.414 Y68.724
G01 F60 X49.471 Y68.766
G01 F60 X49.491 Y68.777
G01 F60 X49.528 Y68.800
G01 F60 X49.576 Y68.811
G01 F60 X49.668 Y68.852
G01 F60 X49.711 Y68.883
G01 F60 X49.729 Y68.887
G01 F60 X49.820 Y68.927
G01 F60 X49.877 Y68.969
G01 F60 X49.904 Y68.983
G01 F60 X49.958 Y69.025
G01 F60 X49.969 Y69.030
G01 F60 X50.023 Y69.054
G01 F60 X50.081 Y69.096
G01 F60 X50.107 Y69.110
G01 F60 X50.161 Y69.152
G01 F60 X50.172 Y69.157
G01 F60 X50.229 Y69.182
G01 F60 X50.288 Y69.228
G01 F60 X50.299 Y69.233
G01 F60 X50.354 Y69.258
G01 F60 X50.411 Y69.299
G01 F60 X50.437 Y69.313
G01 F60 X50.492 Y69.355
G01 F60 X50.502 Y69.360
G01 F60 X50.557 Y69.385
G01 F60 X50.614 Y69.426
G01 F60 X50.638 Y69.439
G01 F60 X50.714 Y69.494
G01 F60 X50.752 Y69.536
G01 F60 X50.811 Y69.562
G01 F60 X50.892 Y69.621
G01 F60 X50.908 Y69.639
G01 F60 X50.910 Y69.640
G01 F60 X50.963 Y69.664
G01 F60 X51.044 Y69.723
G01 F60 X51.099 Y69.784
G01 F60 X51.116 Y69.791
G01 F60 X51.197 Y69.850
G01 F60 X51.209 Y69.863
G01 F60 X51.217 Y69.867
G01 F60 X51.298 Y69.926
G01 F60 X51.353 Y69.987
G01 F60 X51.370 Y69.994
G01 F60 X51.451 Y70.053
G01 F60 X51.510 Y70.118
G01 F60 X51.531 Y70.146
G01 F60 X51.579 Y70.181
G01 F60 X51.626 Y70.236
G01 F60 X51.650 Y70.254
G01 F60 X51.714 Y70.317
G01 F60 X51.773 Y70.383
G01 F60 X51.787 Y70.409
G01 F60 X51.853 Y70.457
G01 F60 X51.918 Y70.522
G01 F60 X51.957 Y70.567
G01 F60 X51.984 Y70.586
G01 F60 X52.043 Y70.652
G01 F60 X52.065 Y70.680
G01 F60 X52.107 Y70.711
G01 F60 X52.142 Y70.746
G01 F60 X52.198 Y70.802
G01 F60 X52.235 Y70.846
G01 F60 X52.263 Y70.866
G01 F60 X52.330 Y70.940
G01 F60 X52.362 Y70.995
G01 F60 X52.379 Y71.014
G01 F60 X52.413 Y71.069
G01 F60 X52.456 Y71.116
G01 F60 X52.487 Y71.166
G01 F60 X52.527 Y71.206
G01 F60 X52.586 Y71.273
G01 F60 X52.630 Y71.355
G01 F60 X52.639 Y71.370
G01 F60 X52.679 Y71.409
G01 F60 X52.737 Y71.474
G01 F60 X52.771 Y71.532
G01 F60 X52.771 Y71.533
G01 F60 X52.797 Y71.552
G01 F60 X52.864 Y71.626
G01 F60 X52.914 Y71.713
G01 F60 X52.919 Y71.730
G01 F60 X52.940 Y71.753
G01 F60 X52.987 Y71.834
G01 F60 X53.006 Y71.881
G01 F60 X53.041 Y71.941
G01 F60 X53.071 Y72.034
G01 F60 X53.072 Y72.045
G01 F60 X53.127 Y72.085
G01 F60 X53.194 Y72.159
G01 F60 X53.244 Y72.246
G01 F60 X53.274 Y72.339
G01 F60 X53.275 Y72.346
G01 F60 X53.302 Y72.392
G01 F60 X53.321 Y72.413
G01 F60 X53.371 Y72.500
G01 F60 X53.377 Y72.518
G01 F60 X53.397 Y72.540
G01 F60 X53.447 Y72.627
G01 F60 X53.479 Y72.723
G01 F60 X53.496 Y72.782
G01 F60 X53.505 Y72.799
G01 F60 X53.524 Y72.820
G01 F60 X53.574 Y72.906
G01 F60 X53.593 Y72.964
G01 F60 X53.600 Y72.972
G01 F60 X53.650 Y73.059
G01 F60 X53.680 Y73.151
G01 F60 X53.685 Y73.186
G01 F60 X53.692 Y73.201
G01 F60 X53.723 Y73.257
G01 F60 X53.742 Y73.303
G01 F60 X53.777 Y73.364
G01 F60 X53.808 Y73.459
G01 F60 X53.815 Y73.526
G01 F60 X53.854 Y73.592
G01 F60 X53.885 Y73.688
G01 F60 X53.888 Y73.723
G01 F60 X53.930 Y73.796
G01 F60 X53.961 Y73.892
G01 F60 X53.966 Y73.948
G01 F60 X53.981 Y73.973
G01 F60 X54.012 Y74.069
G01 F60 X54.021 Y74.160
G01 F60 X54.021 Y74.176
G01 F60 X54.029 Y74.205
G01 F60 X54.057 Y74.253
G01 F60 X54.088 Y74.348
G01 F60 X54.097 Y74.438
G01 F60 X54.097 Y74.526
G01 F60 X54.097 Y74.531
G01 F60 X54.105 Y74.560
G01 F60 X54.133 Y74.608
G01 F60 X54.164 Y74.704
G01 F60 X54.173 Y74.794
G01 F60 X54.173 Y74.895
G01 F60 X54.184 Y74.913
G01 F60 X54.215 Y75.008
G01 F60 X54.224 Y75.099
G01 F60 X54.224 Y75.163
G01 F60 X54.240 Y75.211
G01 F60 X54.250 Y75.301
G01 F60 X54.260 Y75.320
G01 F60 X54.291 Y75.415
G01 F60 X54.300 Y75.505
G01 F60 X54.300 Y75.549
G01 F60 X54.299 Y75.565
G01 F60 X54.300 Y75.581
G01 F60 X54.300 Y75.676
G01 F60 X54.299 Y75.692
G01 F60 X54.300 Y75.708
G01 F60 X54.300 Y75.752
G01 F60 X54.291 Y75.842
G01 F60 X54.290 Y75.844
G01 F60 X54.291 Y75.847
G01 F60 X54.298 Y75.917
G01 F60 X54.316 Y75.974
G01 F60 X54.326 Y76.064
G01 F60 X54.326 Y76.489
G01 F60 X54.324 Y76.505
G01 F60 X54.326 Y76.521
G01 F60 X54.326 Y76.565
G01 F60 X54.324 Y76.581
G01 F60 X54.326 Y76.597
G01 F60 X54.326 Y76.742
G01 F60 X54.322 Y76.784
G01 F60 X54.326 Y76.826
G01 F60 X54.326 Y76.946
G01 F60 X54.316 Y77.036
G01 F60 X54.296 Y77.100
G01 F60 X54.295 Y77.105
G01 F60 X54.300 Y77.156
G01 F60 X54.300 Y77.352
G01 F60 X54.291 Y77.443
G01 F60 X54.262 Y77.531
G01 F60 X54.249 Y77.559
G01 F60 X54.250 Y77.563
G01 F60 X54.250 Y77.682
G01 F60 X54.240 Y77.773
G01 F60 X54.224 Y77.822
G01 F60 X54.224 Y77.835
G01 F60 X54.223 Y77.851
G01 F60 X54.224 Y77.867
G01 F60 X54.224 Y77.962
G01 F60 X54.215 Y78.052
G01 F60 X54.184 Y78.147
G01 F60 X54.173 Y78.165
G01 F60 X54.164 Y78.255
G01 F60 X54.133 Y78.350
G01 F60 X54.095 Y78.417
G01 F60 X54.088 Y78.484
G01 F60 X54.057 Y78.579
G01 F60 X54.046 Y78.597
G01 F60 X54.037 Y78.687
G01 F60 X54.021 Y78.736
G01 F60 X54.021 Y78.800
G01 F60 X54.012 Y78.890
G01 F60 X53.983 Y78.978
G01 F60 X53.952 Y79.045
G01 F60 X53.932 Y79.105
G01 F60 X53.901 Y79.172
G01 F60 X53.879 Y79.240
G01 F60 X53.838 Y79.311
G01 F60 X53.834 Y79.348
G01 F60 X53.802 Y79.442
G01 F60 X53.777 Y79.519
G01 F60 X53.727 Y79.606
G01 F60 X53.714 Y79.620
G01 F60 X53.712 Y79.624
G01 F60 X53.707 Y79.678
G01 F60 X53.675 Y79.773
G01 F60 X53.650 Y79.849
G01 F60 X53.606 Y79.927
G01 F60 X53.605 Y79.932
G01 F60 X53.574 Y80.027
G01 F60 X53.524 Y80.114
G01 F60 X53.505 Y80.135
G01 F60 X53.480 Y80.179
G01 F60 X53.465 Y80.201
G01 F60 X53.447 Y80.255
G01 F60 X53.406 Y80.327
G01 F60 X53.402 Y80.364
G01 F60 X53.371 Y80.459
G01 F60 X53.321 Y80.546
G01 F60 X53.302 Y80.566
G01 F60 X53.270 Y80.622
G01 F60 X53.250 Y80.644
G01 F60 X53.244 Y80.662
G01 F60 X53.192 Y80.752
G01 F60 X53.135 Y80.810
G01 F60 X53.117 Y80.865
G01 F60 X53.067 Y80.952
G01 F60 X53.006 Y81.020
G01 F60 X52.990 Y81.068
G01 F60 X52.938 Y81.159
G01 F60 X52.920 Y81.177
G01 F60 X52.914 Y81.195
G01 F60 X52.864 Y81.282
G01 F60 X52.802 Y81.351
G01 F60 X52.768 Y81.380
G01 F60 X52.727 Y81.426
G01 F60 X52.713 Y81.438
G01 F60 X52.686 Y81.485
G01 F60 X52.666 Y81.508
G01 F60 X52.660 Y81.526
G01 F60 X52.610 Y81.612
G01 F60 X52.589 Y81.635
G01 F60 X52.584 Y81.653
G01 F60 X52.534 Y81.739
G01 F60 X52.471 Y81.808
G01 F60 X52.438 Y81.837
G01 F60 X52.395 Y81.885
G01 F60 X52.358 Y81.916
G01 F60 X52.309 Y81.966
G01 F60 X52.282 Y81.995
G01 F60 X52.254 Y82.045
G01 F60 X52.207 Y82.095
G01 F60 X52.178 Y82.146
G01 F60 X52.119 Y82.212
G01 F60 X52.079 Y82.249
G01 F60 X52.051 Y82.298
G01 F60 X51.982 Y82.375
G01 F60 X51.935 Y82.407
G01 F60 X51.924 Y82.425
G01 F60 X51.862 Y82.494
G01 F60 X51.828 Y82.523
G01 F60 X51.781 Y82.576
G01 F60 X51.705 Y82.630
G01 F60 X51.678 Y82.645
G01 F60 X51.655 Y82.661
G01 F60 X51.645 Y82.679
G01 F60 X51.582 Y82.748
G01 F60 X51.549 Y82.777
G01 F60 X51.501 Y82.830
G01 F60 X51.423 Y82.887
G01 F60 X51.400 Y82.898
G01 F60 X51.365 Y82.958
G01 F60 X51.298 Y83.033
G01 F60 X51.217 Y83.092
G01 F60 X51.154 Y83.120
G01 F60 X51.095 Y83.185
G01 F60 X51.020 Y83.240
G01 F60 X50.946 Y83.280
G01 F60 X50.917 Y83.312
G01 F60 X50.840 Y83.368
G01 F60 X50.765 Y83.407
G01 F60 X50.717 Y83.442
G01 F60 X50.694 Y83.455
G01 F60 X50.682 Y83.466
G01 F60 X50.638 Y83.515
G01 F60 X50.561 Y83.571
G01 F60 X50.485 Y83.610
G01 F60 X50.435 Y83.646
G01 F60 X50.411 Y83.660
G01 F60 X50.358 Y83.698
G01 F60 X50.282 Y83.737
G01 F60 X50.232 Y83.773
G01 F60 X50.208 Y83.787
G01 F60 X50.150 Y83.828
G01 F60 X50.061 Y83.868
G01 F60 X50.016 Y83.879
G01 F60 X49.977 Y83.922
G01 F60 X49.902 Y83.977
G01 F60 X49.878 Y83.990
G01 F60 X49.820 Y84.031
G01 F60 X49.735 Y84.069
G01 F60 X49.710 Y84.077
G01 F60 X49.668 Y84.108
G01 F60 X49.576 Y84.148
G01 F60 X49.478 Y84.169
G01 F60 X49.460 Y84.169
G01 F60 X49.447 Y84.175
G01 F60 X49.411 Y84.181
G01 F60 X49.341 Y84.232
G01 F60 X49.280 Y84.263
G01 F60 X49.268 Y84.269
G01 F60 X49.211 Y84.311
G01 F60 X49.119 Y84.352
G01 F60 X49.083 Y84.359
G01 F60 X49.054 Y84.372
G01 F60 X48.992 Y84.395
G01 F60 X48.988 Y84.396
G01 F60 X48.931 Y84.438
G01 F60 X48.840 Y84.479
G01 F60 X48.742 Y84.499
G01 F60 X48.723 Y84.499
G01 F60 X48.656 Y84.524
G01 F60 X48.586 Y84.555
G01 F60 X48.497 Y84.574
G01 F60 X48.474 Y84.590
G01 F60 X48.383 Y84.631
G01 F60 X48.315 Y84.645
G01 F60 X48.300 Y84.651
G01 F60 X48.230 Y84.682
G01 F60 X48.132 Y84.703
G01 F60 X48.062 Y84.703
G01 F60 X48.042 Y84.717
G01 F60 X47.951 Y84.758
G01 F60 X47.853 Y84.779
G01 F60 X47.720 Y84.779
G01 F60 X47.682 Y84.779
G01 F60 X47.661 Y84.793
G01 F60 X47.570 Y84.834
G01 F60 X47.502 Y84.849
G01 F60 X47.487 Y84.854
G01 F60 X47.417 Y84.885
G01 F60 X47.319 Y84.906
G01 F60 X47.118 Y84.906
G01 F60 X47.104 Y84.903
G01 F60 X47.087 Y84.910
G01 F60 X46.997 Y84.930
G01 F60 X46.882 Y84.940
G01 F60 X46.833 Y84.961
G01 F60 X46.735 Y84.982
G01 F60 X46.559 Y84.982
G01 F60 X46.533 Y84.976
G01 F60 X46.507 Y84.982
G01 F60 X46.234 Y84.982
G01 F60 X46.224 Y84.987
G01 F60 X46.126 Y85.007
G01 F60 X45.949 Y85.007
G01 F60 X45.936 Y85.005
G01 F60 X45.922 Y85.007
G01 F60 X45.797 Y85.007
G01 F60 X45.715 Y84.990
G01 F60 X45.694 Y84.985
G01 F60 X45.690 Y84.987
G01 F60 X45.592 Y85.007
G01 F60 X45.391 Y85.007
G00 F3000 Z3.000
G00 F3000 X66.890 Y84.482
G00 F1500 Z0
G01 F60 Z-0.200
G01 F60 X66.665 Y84.434
G01 F60 X66.455 Y84.341
G01 F60 X66.269 Y84.206
G01 F60 X66.115 Y84.035
G01 F60 X66.000 Y83.836
G01 F60 X65.929 Y83.617
G01 F60 X65.905 Y83.388
G01 F60 X65.929 Y83.160
G01 F60 X66.000 Y82.941
G01 F60 X66.115 Y82.742
G01 F60 X66.269 Y82.571
G01 F60 X66.455 Y82.436
G01 F60 X66.527 Y82.403
G01 F60 X66.527 Y81.862
G01 F60 X66.442 Y81.824
G01 F60 X66.252 Y81.685
G01 F60 X66.094 Y81.510
G01 F60 X65.976 Y81.306
G01 F60 X65.903 Y81.082
G01 F60 X65.879 Y80.848
G01 F60 X65.903 Y80.614
G01 F60 X65.976 Y80.390
G01 F60 X66.094 Y80.186
G01 F60 X66.252 Y80.011
G01 F60 X66.442 Y79.873
G01 F60 X66.657 Y79.777
G01 F60 X66.888 Y79.728
G01 F60 X67.123 Y79.728
G01 F60 X67.353 Y79.777
G01 F60 X67.568 Y79.873
G01 F60 X67.759 Y80.011
G01 F60 X67.916 Y80.186
G01 F60 X68.034 Y80.390
G01 F60 X68.107 Y80.614
G01 F60 X68.132 Y80.848
G01 F60 X68.107 Y81.082
G01 F60 X68.034 Y81.306
G01 F60 X67.916 Y81.510
G01 F60 X67.759 Y81.685
G01 F60 X67.568 Y81.824
G01 F60 X67.483 Y81.862
G01 F60 X67.483 Y82.403
G01 F60 X67.555 Y82.436
G01 F60 X67.741 Y82.571
G01 F60 X67.895 Y82.742
G01 F60 X68.010 Y82.941
G01 F60 X68.081 Y83.160
G01 F60 X68.105 Y83.388
G01 F60 X68.081 Y83.617
G01 F60 X68.010 Y83.836
G01 F60 X67.895 Y84.035
G01 F60 X67.741 Y84.206
G01 F60 X67.555 Y84.341
G01 F60 X67.345 Y84.434
G01 F60 X67.120 Y84.482
G01 F60 X66.890 Y84.482
G00 F3000 Z3.000
G00 F3000 X71.970 Y84.482
G00 F1500 Z0
G01 F60 Z-0.200
G01 F60 X71.745 Y84.434
G01 F60 X71.535 Y84.341
G01 F60 X71.349 Y84.206
G01 F60 X71.195 Y84.035
G01 F60 X71.080 Y83.836
G01 F60 X71.009 Y83.617
G01 F60 X70.985 Y83.388
G01 F60 X71.009 Y83.160
G01 F60 X71.080 Y82.941
G01 F60 X71.195 Y82.742
G01 F60 X71.349 Y82.571
G01 F60 X71.535 Y82.436
G01 F60 X71.745 Y82.342
G01 F60 X71.970 Y82.294
G01 F60 X72.200 Y82.294
G01 F60 X72.425 Y82.342
G01 F60 X72.635 Y82.436
G01 F60 X72.821 Y82.571
G01 F60 X72.975 Y82.742
G01 F60 X73.090 Y82.941
G01 F60 X73.161 Y83.160
G01 F60 X73.185 Y83.388
G01 F60 X73.161 Y83.617
G01 F60 X73.090 Y83.836
G01 F60 X72.975 Y84.035
G01 F60 X72.821 Y84.206
G01 F60 X72.635 Y84.341
G01 F60 X72.425 Y84.434
G01 F60 X72.200 Y84.482
G01 F60 X71.970 Y84.482
G00 F3000 Z3.000
G00 F3000 X102.450 Y84.482
G00 F1500 Z0
G01 F60 Z-0.200
G01 F60 X102.225 Y84.434
G01 F60 X102.015 Y84.341
G01 F60 X101.829 Y84.206
G01 F60 X101.675 Y84.035
G01 F60 X101.560 Y83.836
G01 F60 X101.489 Y83.617
G01 F60 X101.465 Y83.388
G01 F60 X101.489 Y83.160
G01 F60 X101.560 Y82.941
G01 F60 X101.675 Y82.742
G01 F60 X101.829 Y82.571
G01 F60 X102.015 Y82.436
G01 F60 X102.225 Y82.342
G01 F60 X102.450 Y82.294
G01 F60 X102.680 Y82.294
G01 F60 X102.905 Y82.342
G01 F60 X103.115 Y82.436
G01 F60 X103.301 Y82.571
G01 F60 X103.455 Y82.742
G01 F60 X103.570 Y82.941
G01 F60 X103.641 Y83.160
G01 F60 X103.665 Y83.388
G01 F60 X103.641 Y83.617
G01 F60 X103.570 Y83.836
G01 F60 X103.455 Y84.035
G01 F60 X103.301 Y84.206
G01 F60 X103.115 Y84.341
G01 F60 X102.905 Y84.434
G01 F60 X102.680 Y84.482
G01 F60 X102.450 Y84.482
G00 F3000 Z3.000
G00 F3000 X59.270 Y84.482
G00 F1500 Z0
G01 F60 Z-0.200
G01 F60 X59.045 Y84.434
G01 F60 X58.835 Y84.341
G01 F60 X58.649 Y84.206
G01 F60 X58.495 Y84.035
G01 F60 X58.380 Y83.836
G01 F60 X58.309 Y83.617
G01 F60 X58.285 Y83.388
G01 F60 X58.309 Y83.160
G01 F60 X58.380 Y82.941
G01 F60 X58.495 Y82.742
G01 F60 X58.649 Y82.571
G01 F60 X58.835 Y82.436
G01 F60 X59.045 Y82.342
G01 F60 X59.270 Y82.294
G01 F60 X59.500 Y82.294
G01 F60 X59.725 Y82.342
G01 F60 X59.935 Y82.436
G01 F60 X60.121 Y82.571
G01 F60 X60.275 Y82.742
G01 F60 X60.390 Y82.941
G01 F60 X60.461 Y83.160
G01 F60 X60.485 Y83.388
G01 F60 X60.461 Y83.617
G01 F60 X60.390 Y83.836
G01 F60 X60.275 Y84.035
G01 F60 X60.121 Y84.206
G01 F60 X59.935 Y84.341
G01 F60 X59.725 Y84.434
G01 F60 X59.500 Y84.482
G01 F60 X59.270 Y84.482
G00 F3000 Z3.000
G00 F3000 X69.430 Y84.482
G00 F1500 Z0
G01 F60 Z-0.200
G01 F60 X69.205 Y84.434
G01 F60 X68.995 Y84.341
G01 F60 X68.809 Y84.206
G01 F60 X68.655 Y84.035
G01 F60 X68.540 Y83.836
G01 F60 X68.469 Y83.617
G01 F60 X68.445 Y83.388
G01 F60 X68.469 Y83.160
G01 F60 X68.540 Y82.941
G01 F60 X68.655 Y82.742
G01 F60 X68.809 Y82.571
G01 F60 X68.995 Y82.436
G01 F60 X69.067 Y82.403
G01 F60 X69.067 Y78.530
G01 F60 X64.291 Y73.730
G01 F60 X59.609 Y73.730
G01 F60 X57.913 Y75.428
G01 F60 X57.947 Y75.534
G01 F60 X57.972 Y75.768
G01 F60 X57.947 Y76.002
G01 F60 X57.874 Y76.226
G01 F60 X57.757 Y76.430
G01 F60 X57.599 Y76.605
G01 F60 X57.408 Y76.744
G01 F60 X57.193 Y76.840
G01 F60 X56.963 Y76.889
G01 F60 X56.728 Y76.889
G01 F60 X56.497 Y76.840
G01 F60 X56.282 Y76.744
G01 F60 X56.092 Y76.605
G01 F60 X55.934 Y76.430
G01 F60 X55.816 Y76.226
G01 F60 X55.743 Y76.002
G01 F60 X55.719 Y75.768
G01 F60 X55.743 Y75.534
G01 F60 X55.816 Y75.310
G01 F60 X55.934 Y75.106
G01 F60 X56.092 Y74.931
G01 F60 X56.282 Y74.793
G01 F60 X56.497 Y74.697
G01 F60 X56.728 Y74.648
G01 F60 X56.963 Y74.648
G01 F60 X57.193 Y74.697
G01 F60 X57.246 Y74.720
G01 F60 X59.094 Y72.895
G01 F60 X59.171 Y72.839
G01 F60 X59.263 Y72.798
G01 F60 X59.361 Y72.778
G01 F60 X64.541 Y72.778
G01 F60 X64.639 Y72.798
G01 F60 X64.730 Y72.839
G01 F60 X64.807 Y72.895
G01 F60 X69.875 Y77.988
G01 F60 X69.933 Y78.052
G01 F60 X69.983 Y78.139
G01 F60 X70.014 Y78.234
G01 F60 X70.023 Y78.325
G01 F60 X70.023 Y82.403
G01 F60 X70.095 Y82.436
G01 F60 X70.281 Y82.571
G01 F60 X70.435 Y82.742
G01 F60 X70.550 Y82.941
G01 F60 X70.621 Y83.160
G01 F60 X70.645 Y83.388
G01 F60 X70.621 Y83.617
G01 F60 X70.550 Y83.836
G01 F60 X70.435 Y84.035
G01 F60 X70.281 Y84.206
G01 F60 X70.095 Y84.341
G01 F60 X69.885 Y84.434
G01 F60 X69.660 Y84.482
G01 F60 X69.430 Y84.482
G00 F3000 Z3.000
G00 F3000 X56.730 Y84.482
G00 F1500 Z0
G01 F60 Z-0.200
G01 F60 X56.505 Y84.434
G01 F60 X56.295 Y84.341
G01 F60 X56.109 Y84.206
G01 F60 X55.955 Y84.035
G01 F60 X55.840 Y83.836
G01 F60 X55.769 Y83.617
G01 F60 X55.745 Y83.388
G01 F60 X55.769 Y83.160
G01 F60 X55.840 Y82.941
G01 F60 X55.955 Y82.742
G01 F60 X56.109 Y82.571
G01 F60 X56.295 Y82.436
G01 F60 X56.505 Y82.342
G01 F60 X56.730 Y82.294
G01 F60 X56.960 Y82.294
G01 F60 X57.185 Y82.342
G01 F60 X57.395 Y82.436
G01 F60 X57.581 Y82.571
G01 F60 X57.735 Y82.742
G01 F60 X57.850 Y82.941
G01 F60 X57.921 Y83.160
G01 F60 X57.945 Y83.388
G01 F60 X57.921 Y83.617
G01 F60 X57.850 Y83.836
G01 F60 X57.735 Y84.035
G01 F60 X57.581 Y84.206
G01 F60 X57.395 Y84.341
G01 F60 X57.185 Y84.434
G01 F60 X56.960 Y84.482
G01 F60 X56.730 Y84.482
G00 F3000 Z3.000
G00 F3000 X117.690 Y84.482
G00 F1500 Z0
G01 F60 Z-0.200
G01 F60 X117.465 Y84.434
G01 F60 X117.255 Y84.341
G01 F60 X117.069 Y84.206
G01 F60 X116.915 Y84.035
G01 F60 X116.800 Y83.836
G01 F60 X116.729 Y83.617
G01 F60 X116.705 Y83.388
G01 F60 X116.729 Y83.160
G01 F60 X116.800 Y82.941
G01 F60 X116.915 Y82.742
G01 F60 X117.069 Y82.571
G01 F60 X117.255 Y82.436
G01 F60 X117.327 Y82.404
G01 F60 X117.326 Y81.903
G01 F60 X117.223 Y81.857
G01 F60 X117.026 Y81.714
G01 F60 X116.863 Y81.533
G01 F60 X116.741 Y81.322
G01 F60 X116.666 Y81.090
G01 F60 X116.641 Y80.848
G01 F60 X116.666 Y80.606
G01 F60 X116.741 Y80.374
G01 F60 X116.863 Y80.164
G01 F60 X117.026 Y79.983
G01 F60 X117.223 Y79.840
G01 F60 X117.445 Y79.741
G01 F60 X117.684 Y79.690
G01 F60 X117.927 Y79.690
G01 F60 X118.165 Y79.741
G01 F60 X118.388 Y79.840
G01 F60 X118.584 Y79.983
G01 F60 X118.747 Y80.164
G01 F60 X118.869 Y80.374
G01 F60 X118.944 Y80.606
G01 F60 X118.970 Y80.848
G01 F60 X118.944 Y81.090
G01 F60 X118.869 Y81.322
G01 F60 X118.747 Y81.533
G01 F60 X118.584 Y81.714
G01 F60 X118.387 Y81.857
G01 F60 X118.283 Y81.903
G01 F60 X118.283 Y82.403
G01 F60 X118.355 Y82.436
G01 F60 X118.541 Y82.571
G01 F60 X118.695 Y82.742
G01 F60 X118.810 Y82.941
G01 F60 X118.881 Y83.160
G01 F60 X118.905 Y83.388
G01 F60 X118.881 Y83.617
G01 F60 X118.810 Y83.836
G01 F60 X118.695 Y84.035
G01 F60 X118.541 Y84.206
G01 F60 X118.355 Y84.341
G01 F60 X118.145 Y84.434
G01 F60 X117.920 Y84.482
G01 F60 X117.690 Y84.482
G00 F3000 Z3.000
G00 F3000 X120.230 Y84.482
G00 F1500 Z0
G01 F60 Z-0.200
G01 F60 X120.005 Y84.434
G01 F60 X119.795 Y84.341
G01 F60 X119.609 Y84.206
G01 F60 X119.455 Y84.035
G01 F60 X119.340 Y83.836
G01 F60 X119.269 Y83.617
G01 F60 X119.245 Y83.388
G01 F60 X119.269 Y83.160
G01 F60 X119.340 Y82.941
G01 F60 X119.455 Y82.742
G01 F60 X119.609 Y82.571
G01 F60 X119.795 Y82.436
G01 F60 X119.867 Y82.404
G01 F60 X119.866 Y81.903
G01 F60 X119.763 Y81.857
G01 F60 X119.566 Y81.714
G01 F60 X119.403 Y81.533
G01 F60 X119.281 Y81.322
G01 F60 X119.206 Y81.090
G01 F60 X119.181 Y80.848
G01 F60 X119.206 Y80.606
G01 F60 X119.281 Y80.374
G01 F60 X119.403 Y80.164
G01 F60 X119.566 Y79.983
G01 F60 X119.763 Y79.840
G01 F60 X119.985 Y79.741
G01 F60 X120.224 Y79.690
G01 F60 X120.467 Y79.690
G01 F60 X120.705 Y79.741
G01 F60 X120.928 Y79.840
G01 F60 X121.124 Y79.983
G01 F60 X121.287 Y80.164
G01 F60 X121.409 Y80.374
G01 F60 X121.484 Y80.606
G01 F60 X121.510 Y80.848
G01 F60 X121.484 Y81.090
G01 F60 X121.409 Y81.322
G01 F60 X121.287 Y81.533
G01 F60 X121.124 Y81.714
G01 F60 X120.927 Y81.857
G01 F60 X120.823 Y81.903
G01 F60 X120.823 Y82.403
G01 F60 X120.895 Y82.436
G01 F60 X121.081 Y82.571
G01 F60 X121.235 Y82.742
G01 F60 X121.350 Y82.941
G01 F60 X121.421 Y83.160
G01 F60 X121.445 Y83.388
G01 F60 X121.421 Y83.617
G01 F60 X121.350 Y83.836
G01 F60 X121.235 Y84.035
G01 F60 X121.081 Y84.206
G01 F60 X120.895 Y84.341
G01 F60 X120.685 Y84.434
G01 F60 X120.460 Y84.482
G01 F60 X120.230 Y84.482
G00 F3000 Z3.000
G00 F3000 X115.150 Y84.482
G00 F1500 Z0
G01 F60 Z-0.200
G01 F60 X114.925 Y84.434
G01 F60 X114.715 Y84.341
G01 F60 X114.529 Y84.206
G01 F60 X114.375 Y84.035
G01 F60 X114.260 Y83.836
G01 F60 X114.189 Y83.617
G01 F60 X114.165 Y83.388
G01 F60 X114.189 Y83.160
G01 F60 X114.260 Y82.941
G01 F60 X114.375 Y82.742
G01 F60 X114.529 Y82.571
G01 F60 X114.715 Y82.436
G01 F60 X114.787 Y82.404
G01 F60 X114.786 Y81.903
G01 F60 X114.683 Y81.857
G01 F60 X114.486 Y81.714
G01 F60 X114.323 Y81.533
G01 F60 X114.201 Y81.322
G01 F60 X114.126 Y81.090
G01 F60 X114.101 Y80.848
G01 F60 X114.126 Y80.606
G01 F60 X114.201 Y80.374
G01 F60 X114.323 Y80.164
G01 F60 X114.486 Y79.983
G01 F60 X114.683 Y79.840
G01 F60 X114.905 Y79.741
G01 F60 X115.144 Y79.690
G01 F60 X115.387 Y79.690
G01 F60 X115.625 Y79.741
G01 F60 X115.848 Y79.840
G01 F60 X116.044 Y79.983
G01 F60 X116.207 Y80.164
G01 F60 X116.329 Y80.374
G01 F60 X116.404 Y80.606
G01 F60 X116.430 Y80.848
G01 F60 X116.404 Y81.090
G01 F60 X116.329 Y81.322
G01 F60 X116.207 Y81.533
G01 F60 X116.044 Y81.714
G01 F60 X115.847 Y81.857
G01 F60 X115.743 Y81.903
G01 F60 X115.743 Y82.403
G01 F60 X115.815 Y82.436
G01 F60 X116.001 Y82.571
G01 F60 X116.155 Y82.742
G01 F60 X116.270 Y82.941
G01 F60 X116.341 Y83.160
G01 F60 X116.365 Y83.388
G01 F60 X116.341 Y83.617
G01 F60 X116.270 Y83.836
G01 F60 X116.155 Y84.035
G01 F60 X116.001 Y84.206
G01 F60 X115.815 Y84.341
G01 F60 X115.605 Y84.434
G01 F60 X115.380 Y84.482
G01 F60 X115.150 Y84.482
G00 F3000 Z3.000
G00 F3000 X82.130 Y84.482
G00 F1500 Z0
G01 F60 Z-0.200
G01 F60 X81.905 Y84.434
G01 F60 X81.695 Y84.341
G01 F60 X81.509 Y84.206
G01 F60 X81.355 Y84.035
G01 F60 X81.240 Y83.836
G01 F60 X81.169 Y83.617
G01 F60 X81.145 Y83.388
G01 F60 X81.169 Y83.160
G01 F60 X81.240 Y82.941
G01 F60 X81.355 Y82.742
G01 F60 X81.509 Y82.571
G01 F60 X81.695 Y82.436
G01 F60 X81.905 Y82.342
G01 F60 X82.130 Y82.294
G01 F60 X82.360 Y82.294
G01 F60 X82.585 Y82.342
G01 F60 X82.795 Y82.436
G01 F60 X82.981 Y82.571
G01 F60 X83.135 Y82.742
G01 F60 X83.250 Y82.941
G01 F60 X83.321 Y83.160
G01 F60 X83.345 Y83.388
G01 F60 X83.321 Y83.617
G01 F60 X83.250 Y83.836
G01 F60 X83.135 Y84.035
G01 F60 X82.981 Y84.206
G01 F60 X82.795 Y84.341
G01 F60 X82.585 Y84.434
G01 F60 X82.360 Y84.482
G01 F60 X82.130 Y84.482
G00 F3000 Z3.000
G00 F3000 X84.670 Y84.482
G00 F1500 Z0
G01 F60 Z-0.200
G01 F60 X84.445 Y84.434
G01 F60 X84.235 Y84.341
G01 F60 X84.049 Y84.206
G01 F60 X83.895 Y84.035
G01 F60 X83.780 Y83.836
G01 F60 X83.709 Y83.617
G01 F60 X83.685 Y83.388
G01 F60 X83.709 Y83.160
G01 F60 X83.780 Y82.941
G01 F60 X83.895 Y82.742
G01 F60 X84.049 Y82.571
G01 F60 X84.235 Y82.436
G01 F60 X84.445 Y82.342
G01 F60 X84.670 Y82.294
G01 F60 X84.900 Y82.294
G01 F60 X85.125 Y82.342
G01 F60 X85.335 Y82.436
G01 F60 X85.521 Y82.571
G01 F60 X85.675 Y82.742
G01 F60 X85.790 Y82.941
G01 F60 X85.861 Y83.160
G01 F60 X85.885 Y83.388
G01 F60 X85.861 Y83.617
G01 F60 X85.790 Y83.836
G01 F60 X85.675 Y84.035
G01 F60 X85.521 Y84.206
G01 F60 X85.335 Y84.341
G01 F60 X85.125 Y84.434
G01 F60 X84.900 Y84.482
G01 F60 X84.670 Y84.482
G00 F3000 Z3.000
G00 F3000 X79.590 Y84.482
G00 F1500 Z0
G01 F60 Z-0.200
G01 F60 X79.365 Y84.434
G01 F60 X79.155 Y84.341
G01 F60 X78.969 Y84.206
G01 F60 X78.815 Y84.035
G01 F60 X78.700 Y83.836
G01 F60 X78.629 Y83.617
G01 F60 X78.605 Y83.388
G01 F60 X78.629 Y83.160
G01 F60 X78.700 Y82.941
G01 F60 X78.815 Y82.742
G01 F60 X78.969 Y82.571
G01 F60 X79.155 Y82.436
G01 F60 X79.365 Y82.342
G01 F60 X79.590 Y82.294
G01 F60 X79.820 Y82.294
G01 F60 X80.045 Y82.342
G01 F60 X80.255 Y82.436
G01 F60 X80.441 Y82.571
G01 F60 X80.595 Y82.742
G01 F60 X80.710 Y82.941
G01 F60 X80.781 Y83.160
G01 F60 X80.805 Y83.388
G01 F60 X80.781 Y83.617
G01 F60 X80.710 Y83.836
G01 F60 X80.595 Y84.035
G01 F60 X80.441 Y84.206
G01 F60 X80.255 Y84.341
G01 F60 X80.045 Y84.434
G01 F60 X79.820 Y84.482
G01 F60 X79.590 Y84.482
G00 F3000 Z3.000
G00 F3000 X104.990 Y84.482
G00 F1500 Z0
G01 F60 Z-0.200
G01 F60 X104.765 Y84.434
G01 F60 X104.555 Y84.341
G01 F60 X104.369 Y84.206
G01 F60 X104.215 Y84.035
G01 F60 X104.100 Y83.836
G01 F60 X104.029 Y83.617
G01 F60 X104.005 Y83.388
G01 F60 X104.029 Y83.160
G01 F60 X104.100 Y82.941
G01 F60 X104.215 Y82.742
G01 F60 X104.369 Y82.571
G01 F60 X104.555 Y82.436
G01 F60 X104.765 Y82.342
G01 F60 X104.990 Y82.294
G01 F60 X105.220 Y82.294
G01 F60 X105.445 Y82.342
G01 F60 X105.655 Y82.436
G01 F60 X105.841 Y82.571
G01 F60 X105.995 Y82.742
G01 F60 X106.110 Y82.941
G01 F60 X106.181 Y83.160
G01 F60 X106.205 Y83.388
G01 F60 X106.181 Y83.617
G01 F60 X106.110 Y83.836
G01 F60 X105.995 Y84.035
G01 F60 X105.841 Y84.206
G01 F60 X105.655 Y84.341
G01 F60 X105.445 Y84.434
G01 F60 X105.220 Y84.482
G01 F60 X104.990 Y84.482
G00 F3000 Z3.000
G00 F3000 X110.070 Y84.482
G00 F1500 Z0
G01 F60 Z-0.200
G01 F60 X109.845 Y84.434
G01 F60 X109.635 Y84.341
G01 F60 X109.449 Y84.206
G01 F60 X109.295 Y84.035
G01 F60 X109.180 Y83.836
G01 F60 X109.109 Y83.617
G01 F60 X109.085 Y83.388
G01 F60 X109.109 Y83.160
G01 F60 X109.180 Y82.941
G01 F60 X109.295 Y82.742
G01 F60 X109.449 Y82.571
G01 F60 X109.635 Y82.436
G01 F60 X109.845 Y82.342
G01 F60 X110.070 Y82.294
G01 F60 X110.300 Y82.294
G01 F60 X110.525 Y82.342
G01 F60 X110.735 Y82.436
G01 F60 X110.921 Y82.571
G01 F60 X111.075 Y82.742
G01 F60 X111.190 Y82.941
G01 F60 X111.261 Y83.160
G01 F60 X111.285 Y83.388
G01 F60 X111.261 Y83.617
G01 F60 X111.190 Y83.836
G01 F60 X111.075 Y84.035
G01 F60 X110.921 Y84.206
G01 F60 X110.735 Y84.341
G01 F60 X110.525 Y84.434
G01 F60 X110.300 Y84.482
G01 F60 X110.070 Y84.482
G00 F3000 Z3.000
G00 F3000 X112.610 Y84.482
G00 F1500 Z0
G01 F60 Z-0.200
G01 F60 X112.385 Y84.434
G01 F60 X112.175 Y84.341
G01 F60 X111.989 Y84.206
G01 F60 X111.835 Y84.035
G01 F60 X111.720 Y83.836
G01 F60 X111.649 Y83.617
G01 F60 X111.625 Y83.388
G01 F60 X111.649 Y83.160
G01 F60 X111.720 Y82.941
G01 F60 X111.835 Y82.742
G01 F60 X111.989 Y82.571
G01 F60 X112.175 Y82.436
G01 F60 X112.247 Y82.404
G01 F60 X112.246 Y81.903
G01 F60 X112.143 Y81.857
G01 F60 X111.946 Y81.714
G01 F60 X111.783 Y81.533
G01 F60 X111.661 Y81.322
G01 F60 X111.586 Y81.090
G01 F60 X111.561 Y80.848
G01 F60 X111.586 Y80.606
G01 F60 X111.661 Y80.374
G01 F60 X111.783 Y80.164
G01 F60 X111.946 Y79.983
G01 F60 X112.143 Y79.840
G01 F60 X112.365 Y79.741
G01 F60 X112.604 Y79.690
G01 F60 X112.847 Y79.690
G01 F60 X113.085 Y79.741
G01 F60 X113.308 Y79.840
G01 F60 X113.504 Y79.983
G01 F60 X113.667 Y80.164
G01 F60 X113.789 Y80.374
G01 F60 X113.864 Y80.606
G01 F60 X113.890 Y80.848
G01 F60 X113.864 Y81.090
G01 F60 X113.789 Y81.322
G01 F60 X113.667 Y81.533
G01 F60 X113.504 Y81.714
G01 F60 X113.307 Y81.857
G01 F60 X113.203 Y81.903
G01 F60 X113.203 Y82.403
G01 F60 X113.275 Y82.436
G01 F60 X113.461 Y82.571
G01 F60 X113.615 Y82.742
G01 F60 X113.730 Y82.941
G01 F60 X113.801 Y83.160
G01 F60 X113.825 Y83.388
G01 F60 X113.801 Y83.617
G01 F60 X113.730 Y83.836
G01 F60 X113.615 Y84.035
G01 F60 X113.461 Y84.206
G01 F60 X113.275 Y84.341
G01 F60 X113.065 Y84.434
G01 F60 X112.840 Y84.482
G01 F60 X112.610 Y84.482
G00 F3000 Z3.000
G00 F3000 X64.350 Y84.482
G00 F1500 Z0
G01 F60 Z-0.200
G01 F60 X64.125 Y84.434
G01 F60 X63.915 Y84.341
G01 F60 X63.729 Y84.206
G01 F60 X63.575 Y84.035
G01 F60 X63.460 Y83.836
G01 F60 X63.389 Y83.617
G01 F60 X63.365 Y83.388
G01 F60 X63.389 Y83.160
G01 F60 X63.460 Y82.941
G01 F60 X63.575 Y82.742
G01 F60 X63.729 Y82.571
G01 F60 X63.915 Y82.436
G01 F60 X64.125 Y82.342
G01 F60 X64.350 Y82.294
G01 F60 X64.580 Y82.294
G01 F60 X64.805 Y82.342
G01 F60 X65.015 Y82.436
G01 F60 X65.201 Y82.571
G01 F60 X65.355 Y82.742
G01 F60 X65.470 Y82.941
G01 F60 X65.541 Y83.160
G01 F60 X65.565 Y83.388
G01 F60 X65.541 Y83.617
G01 F60 X65.470 Y83.836
G01 F60 X65.355 Y84.035
G01 F60 X65.201 Y84.206
G01 F60 X65.015 Y84.341
G01 F60 X64.805 Y84.434
G01 F60 X64.580 Y84.482
G01 F60 X64.350 Y84.482
G00 F3000 Z3.000
G00 F3000 X107.530 Y84.482
G00 F1500 Z0
G01 F60 Z-0.200
G01 F60 X107.305 Y84.434
G01 F60 X107.095 Y84.341
G01 F60 X106.909 Y84.206
G01 F60 X106.755 Y84.035
G01 F60 X106.640 Y83.836
G01 F60 X106.569 Y83.617
G01 F60 X106.545 Y83.388
G01 F60 X106.569 Y83.160
G01 F60 X106.640 Y82.941
G01 F60 X106.755 Y82.742
G01 F60 X106.909 Y82.571
G01 F60 X107.095 Y82.436
G01 F60 X107.305 Y82.342
G01 F60 X107.530 Y82.294
G01 F60 X107.760 Y82.294
G01 F60 X107.985 Y82.342
G01 F60 X108.195 Y82.436
G01 F60 X108.381 Y82.571
G01 F60 X108.535 Y82.742
G01 F60 X108.650 Y82.941
G01 F60 X108.721 Y83.160
G01 F60 X108.745 Y83.388
G01 F60 X108.721 Y83.617
G01 F60 X108.650 Y83.836
G01 F60 X108.535 Y84.035
G01 F60 X108.381 Y84.206
G01 F60 X108.195 Y84.341
G01 F60 X107.985 Y84.434
G01 F60 X107.760 Y84.482
G01 F60 X107.530 Y84.482
G00 F3000 Z3.000
G00 F3000 X74.510 Y84.482
G00 F1500 Z0
G01 F60 Z-0.200
G01 F60 X74.285 Y84.434
G01 F60 X74.075 Y84.341
G01 F60 X73.889 Y84.206
G01 F60 X73.735 Y84.035
G01 F60 X73.620 Y83.836
G01 F60 X73.549 Y83.617
G01 F60 X73.525 Y83.388
G01 F60 X73.549 Y83.160
G01 F60 X73.620 Y82.941
G01 F60 X73.735 Y82.742
G01 F60 X73.889 Y82.571
G01 F60 X74.075 Y82.436
G01 F60 X74.147 Y82.403
G01 F60 X74.147 Y81.021
G01 F60 X61.699 Y68.647
G01 F60 X60.401 Y68.629
G01 F60 X60.297 Y68.810
G01 F60 X60.139 Y68.985
G01 F60 X59.948 Y69.124
G01 F60 X59.733 Y69.219
G01 F60 X59.503 Y69.269
G01 F60 X59.268 Y69.269
G01 F60 X59.037 Y69.219
G01 F60 X58.822 Y69.124
G01 F60 X58.632 Y68.985
G01 F60 X58.474 Y68.810
G01 F60 X58.356 Y68.606
G01 F60 X58.283 Y68.382
G01 F60 X58.259 Y68.148
G01 F60 X58.283 Y67.914
G01 F60 X58.356 Y67.690
G01 F60 X58.474 Y67.486
G01 F60 X58.632 Y67.311
G01 F60 X58.822 Y67.173
G01 F60 X59.037 Y67.077
G01 F60 X59.268 Y67.028
G01 F60 X59.503 Y67.028
G01 F60 X59.733 Y67.077
G01 F60 X59.948 Y67.173
G01 F60 X60.139 Y67.311
G01 F60 X60.297 Y67.486
G01 F60 X60.406 Y67.676
G01 F60 X61.951 Y67.698
G01 F60 X62.048 Y67.718
G01 F60 X62.139 Y67.759
G01 F60 X62.216 Y67.815
G01 F60 X74.980 Y80.502
G01 F60 X75.038 Y80.567
G01 F60 X75.088 Y80.654
G01 F60 X75.119 Y80.749
G01 F60 X75.129 Y80.848
G01 F60 X75.119 Y80.948
G01 F60 X75.103 Y80.997
G01 F60 X75.103 Y82.403
G01 F60 X75.175 Y82.436
G01 F60 X75.361 Y82.571
G01 F60 X75.515 Y82.742
G01 F60 X75.630 Y82.941
G01 F60 X75.701 Y83.160
G01 F60 X75.725 Y83.388
G01 F60 X75.701 Y83.617
G01 F60 X75.630 Y83.836
G01 F60 X75.515 Y84.035
G01 F60 X75.361 Y84.206
G01 F60 X75.175 Y84.341
G01 F60 X74.965 Y84.434
G01 F60 X74.740 Y84.482
G01 F60 X74.510 Y84.482
G00 F3000 Z3.000
G00 F3000 X89.750 Y84.482
G00 F1500 Z0
G01 F60 Z-0.200
G01 F60 X89.525 Y84.434
G01 F60 X89.315 Y84.341
G01 F60 X89.129 Y84.206
G01 F60 X88.975 Y84.035
G01 F60 X88.860 Y83.836
G01 F60 X88.789 Y83.617
G01 F60 X88.765 Y83.388
G01 F60 X88.789 Y83.160
G01 F60 X88.860 Y82.941
G01 F60 X88.975 Y82.742
G01 F60 X89.129 Y82.571
G01 F60 X89.315 Y82.436
G01 F60 X89.525 Y82.342
G01 F60 X89.750 Y82.294
G01 F60 X89.980 Y82.294
G01 F60 X90.205 Y82.342
G01 F60 X90.415 Y82.436
G01 F60 X90.601 Y82.571
G01 F60 X90.755 Y82.742
G01 F60 X90.870 Y82.941
G01 F60 X90.941 Y83.160
G01 F60 X90.965 Y83.388
G01 F60 X90.941 Y83.617
G01 F60 X90.870 Y83.836
G01 F60 X90.755 Y84.035
G01 F60 X90.601 Y84.206
G01 F60 X90.415 Y84.341
G01 F60 X90.205 Y84.434
G01 F60 X89.980 Y84.482
G01 F60 X89.750 Y84.482
G00 F3000 Z3.000
G00 F3000 X92.290 Y84.482
G00 F1500 Z0
G01 F60 Z-0.200
G01 F60 X92.065 Y84.434
G01 F60 X91.855 Y84.341
G01 F60 X91.669 Y84.206
G01 F60 X91.515 Y84.035
G01 F60 X91.400 Y83.836
G01 F60 X91.329 Y83.617
G01 F60 X91.305 Y83.388
G01 F60 X91.329 Y83.160
G01 F60 X91.400 Y82.941
G01 F60 X91.515 Y82.742
G01 F60 X91.669 Y82.571
G01 F60 X91.855 Y82.436
G01 F60 X92.065 Y82.342
G01 F60 X92.290 Y82.294
G01 F60 X92.520 Y82.294
G01 F60 X92.745 Y82.342
G01 F60 X92.955 Y82.436
G01 F60 X93.141 Y82.571
G01 F60 X93.295 Y82.742
G01 F60 X93.410 Y82.941
G01 F60 X93.481 Y83.160
G01 F60 X93.505 Y83.388
G01 F60 X93.481 Y83.617
G01 F60 X93.410 Y83.836
G01 F60 X93.295 Y84.035
G01 F60 X93.141 Y84.206
G01 F60 X92.955 Y84.341
G01 F60 X92.745 Y84.434
G01 F60 X92.520 Y84.482
G01 F60 X92.290 Y84.482
G00 F3000 Z3.000
G00 F3000 X87.210 Y84.482
G00 F1500 Z0
G01 F60 Z-0.200
G01 F60 X86.985 Y84.434
G01 F60 X86.775 Y84.341
G01 F60 X86.589 Y84.206
G01 F60 X86.435 Y84.035
G01 F60 X86.320 Y83.836
G01 F60 X86.249 Y83.617
G01 F60 X86.225 Y83.388
G01 F60 X86.249 Y83.160
G01 F60 X86.320 Y82.941
G01 F60 X86.435 Y82.742
G01 F60 X86.589 Y82.571
G01 F60 X86.775 Y82.436
G01 F60 X86.985 Y82.342
G01 F60 X87.210 Y82.294
G01 F60 X87.440 Y82.294
G01 F60 X87.665 Y82.342
G01 F60 X87.875 Y82.436
G01 F60 X88.061 Y82.571
G01 F60 X88.215 Y82.742
G01 F60 X88.330 Y82.941
G01 F60 X88.401 Y83.160
G01 F60 X88.425 Y83.388
G01 F60 X88.401 Y83.617
G01 F60 X88.330 Y83.836
G01 F60 X88.215 Y84.035
G01 F60 X88.061 Y84.206
G01 F60 X87.875 Y84.341
G01 F60 X87.665 Y84.434
G01 F60 X87.440 Y84.482
G01 F60 X87.210 Y84.482
G00 F3000 Z3.000
G00 F3000 X94.830 Y84.482
G00 F1500 Z0
G01 F60 Z-0.200
G01 F60 X94.605 Y84.434
G01 F60 X94.395 Y84.341
G01 F60 X94.209 Y84.206
G01 F60 X94.055 Y84.035
G01 F60 X93.940 Y83.836
G01 F60 X93.869 Y83.617
G01 F60 X93.845 Y83.388
G01 F60 X93.869 Y83.160
G01 F60 X93.940 Y82.941
G01 F60 X94.055 Y82.742
G01 F60 X94.209 Y82.571
G01 F60 X94.395 Y82.436
G01 F60 X94.467 Y82.404
G01 F60 X94.466 Y81.903
G01 F60 X94.363 Y81.857
G01 F60 X94.166 Y81.714
G01 F60 X94.003 Y81.533
G01 F60 X93.881 Y81.322
G01 F60 X93.806 Y81.090
G01 F60 X93.781 Y80.848
G01 F60 X93.806 Y80.606
G01 F60 X93.881 Y80.374
G01 F60 X94.003 Y80.164
G01 F60 X94.166 Y79.983
G01 F60 X94.363 Y79.840
G01 F60 X94.585 Y79.741
G01 F60 X94.824 Y79.690
G01 F60 X95.067 Y79.690
G01 F60 X95.305 Y79.741
G01 F60 X95.528 Y79.840
G01 F60 X95.724 Y79.983
G01 F60 X95.887 Y80.164
G01 F60 X96.009 Y80.374
G01 F60 X96.084 Y80.606
G01 F60 X96.110 Y80.848
G01 F60 X96.084 Y81.090
G01 F60 X96.009 Y81.322
G01 F60 X95.887 Y81.533
G01 F60 X95.724 Y81.714
G01 F60 X95.527 Y81.857
G01 F60 X95.423 Y81.903
G01 F60 X95.423 Y82.403
G01 F60 X95.495 Y82.436
G01 F60 X95.681 Y82.571
G01 F60 X95.835 Y82.742
G01 F60 X95.950 Y82.941
G01 F60 X96.021 Y83.160
G01 F60 X96.045 Y83.388
G01 F60 X96.021 Y83.617
G01 F60 X95.950 Y83.836
G01 F60 X95.835 Y84.035
G01 F60 X95.681 Y84.206
G01 F60 X95.495 Y84.341
G01 F60 X95.285 Y84.434
G01 F60 X95.060 Y84.482
G01 F60 X94.830 Y84.482
G00 F3000 Z3.000
G00 F3000 X97.370 Y84.482
G00 F1500 Z0
G01 F60 Z-0.200
G01 F60 X97.145 Y84.434
G01 F60 X96.935 Y84.341
G01 F60 X96.749 Y84.206
G01 F60 X96.595 Y84.035
G01 F60 X96.480 Y83.836
G01 F60 X96.409 Y83.617
G01 F60 X96.385 Y83.388
G01 F60 X96.409 Y83.160
G01 F60 X96.480 Y82.941
G01 F60 X96.595 Y82.742
G01 F60 X96.749 Y82.571
G01 F60 X96.935 Y82.436
G01 F60 X97.007 Y82.404
G01 F60 X97.006 Y81.903
G01 F60 X96.903 Y81.857
G01 F60 X96.706 Y81.714
G01 F60 X96.543 Y81.533
G01 F60 X96.421 Y81.322
G01 F60 X96.346 Y81.090
G01 F60 X96.321 Y80.848
G01 F60 X96.346 Y80.606
G01 F60 X96.421 Y80.374
G01 F60 X96.543 Y80.164
G01 F60 X96.706 Y79.983
G01 F60 X96.903 Y79.840
G01 F60 X97.125 Y79.741
G01 F60 X97.364 Y79.690
G01 F60 X97.607 Y79.690
G01 F60 X97.845 Y79.741
G01 F60 X98.068 Y79.840
G01 F60 X98.264 Y79.983
G01 F60 X98.427 Y80.164
G01 F60 X98.549 Y80.374
G01 F60 X98.624 Y80.606
G01 F60 X98.650 Y80.848
G01 F60 X98.624 Y81.090
G01 F60 X98.549 Y81.322
G01 F60 X98.427 Y81.533
G01 F60 X98.264 Y81.714
G01 F60 X98.067 Y81.857
G01 F60 X97.963 Y81.903
G01 F60 X97.963 Y82.403
G01 F60 X98.035 Y82.436
G01 F60 X98.221 Y82.571
G01 F60 X98.375 Y82.742
G01 F60 X98.490 Y82.941
G01 F60 X98.561 Y83.160
G01 F60 X98.585 Y83.388
G01 F60 X98.561 Y83.617
G01 F60 X98.490 Y83.836
G01 F60 X98.375 Y84.035
G01 F60 X98.221 Y84.206
G01 F60 X98.035 Y84.341
G01 F60 X97.825 Y84.434
G01 F60 X97.600 Y84.482
G01 F60 X97.370 Y84.482
G00 F3000 Z3.000
G00 F3000 X45.796 Y83.781
G00 F1500 Z0
G01 F60 Z-0.200
G01 F60 X45.822 Y83.776
G01 F60 X45.994 Y83.776
G01 F60 X46.004 Y83.771
G01 F60 X46.100 Y83.751
G01 F60 X46.570 Y83.740
G01 F60 X46.614 Y83.720
G01 F60 X46.711 Y83.700
G01 F60 X46.800 Y83.700
G01 F60 X46.867 Y83.669
G01 F60 X46.965 Y83.649
G01 F60 X47.060 Y83.649
G01 F60 X47.071 Y83.644
G01 F60 X47.161 Y83.625
G01 F60 X47.276 Y83.615
G01 F60 X47.325 Y83.593
G01 F60 X47.423 Y83.573
G01 F60 X47.492 Y83.573
G01 F60 X47.513 Y83.558
G01 F60 X47.604 Y83.517
G01 F60 X47.690 Y83.499
G01 F60 X47.755 Y83.490
G01 F60 X47.807 Y83.466
G01 F60 X47.905 Y83.446
G01 F60 X47.924 Y83.446
G01 F60 X47.934 Y83.441
G01 F60 X48.002 Y83.427
G01 F60 X48.014 Y83.422
G01 F60 X48.059 Y83.400
G01 F60 X48.127 Y83.370
G01 F60 X48.198 Y83.344
G01 F60 X48.247 Y83.324
G01 F60 X48.275 Y83.304
G01 F60 X48.366 Y83.263
G01 F60 X48.464 Y83.242
G01 F60 X48.483 Y83.242
G01 F60 X48.551 Y83.218
G01 F60 X48.614 Y83.190
G01 F60 X48.639 Y83.182
G01 F60 X48.684 Y83.150
G01 F60 X48.755 Y83.121
G01 F60 X48.783 Y83.101
G01 F60 X48.867 Y83.063
G01 F60 X48.893 Y83.055
G01 F60 X48.935 Y83.024
G01 F60 X49.027 Y82.984
G01 F60 X49.097 Y82.969
G01 F60 X49.108 Y82.956
G01 F60 X49.189 Y82.897
G01 F60 X49.274 Y82.860
G01 F60 X49.299 Y82.852
G01 F60 X49.338 Y82.824
G01 F60 X49.399 Y82.793
G01 F60 X49.411 Y82.787
G01 F60 X49.468 Y82.745
G01 F60 X49.546 Y82.711
G01 F60 X49.569 Y82.701
G01 F60 X49.591 Y82.677
G01 F60 X49.672 Y82.618
G01 F60 X49.757 Y82.580
G01 F60 X49.782 Y82.573
G01 F60 X49.819 Y82.546
G01 F60 X49.843 Y82.533
G01 F60 X49.896 Y82.494
G01 F60 X49.916 Y82.484
G01 F60 X49.950 Y82.450
G01 F60 X49.997 Y82.398
G01 F60 X50.073 Y82.343
G01 F60 X50.097 Y82.329
G01 F60 X50.151 Y82.290
G01 F60 X50.218 Y82.257
G01 F60 X50.222 Y82.255
G01 F60 X50.277 Y82.194
G01 F60 X50.352 Y82.139
G01 F60 X50.376 Y82.126
G01 F60 X50.430 Y82.087
G01 F60 X50.447 Y82.078
G01 F60 X50.460 Y82.065
G01 F60 X50.489 Y82.015
G01 F60 X50.556 Y81.940
G01 F60 X50.634 Y81.884
G01 F60 X50.645 Y81.878
G01 F60 X50.658 Y81.864
G01 F60 X50.738 Y81.805
G01 F60 X50.755 Y81.798
G01 F60 X50.805 Y81.742
G01 F60 X50.839 Y81.713
G01 F60 X50.888 Y81.659
G01 F60 X50.935 Y81.627
G01 F60 X50.946 Y81.608
G01 F60 X51.008 Y81.539
G01 F60 X51.045 Y81.508
G01 F60 X51.097 Y81.455
G01 F60 X51.136 Y81.414
G01 F60 X51.165 Y81.382
G01 F60 X51.171 Y81.377
G01 F60 X51.175 Y81.365
G01 F60 X51.226 Y81.278
G01 F60 X51.293 Y81.204
G01 F60 X51.370 Y81.147
G01 F60 X51.394 Y81.135
G01 F60 X51.429 Y81.075
G01 F60 X51.448 Y81.054
G01 F60 X51.481 Y80.997
G01 F60 X51.500 Y80.977
G01 F60 X51.506 Y80.958
G01 F60 X51.556 Y80.872
G01 F60 X51.618 Y80.803
G01 F60 X51.652 Y80.773
G01 F60 X51.694 Y80.726
G01 F60 X51.727 Y80.698
G01 F60 X51.761 Y80.639
G01 F60 X51.831 Y80.569
G01 F60 X51.831 Y80.569
G01 F60 X51.836 Y80.552
G01 F60 X51.861 Y80.476
G01 F60 X51.911 Y80.389
G01 F60 X51.930 Y80.368
G01 F60 X51.962 Y80.313
G01 F60 X52.014 Y80.255
G01 F60 X52.024 Y80.243
G01 F60 X52.037 Y80.201
G01 F60 X52.071 Y80.134
G01 F60 X52.114 Y80.059
G01 F60 X52.134 Y80.037
G01 F60 X52.165 Y79.983
G01 F60 X52.218 Y79.925
G01 F60 X52.227 Y79.913
G01 F60 X52.243 Y79.867
G01 F60 X52.265 Y79.797
G01 F60 X52.296 Y79.731
G01 F60 X52.318 Y79.663
G01 F60 X52.362 Y79.587
G01 F60 X52.377 Y79.566
G01 F60 X52.395 Y79.508
G01 F60 X52.433 Y79.447
G01 F60 X52.446 Y79.409
G01 F60 X52.487 Y79.337
G01 F60 X52.491 Y79.301
G01 F60 X52.522 Y79.206
G01 F60 X52.563 Y79.134
G01 F60 X52.567 Y79.098
G01 F60 X52.598 Y79.002
G01 F60 X52.649 Y78.915
G01 F60 X52.669 Y78.893
G01 F60 X52.690 Y78.830
G01 F60 X52.694 Y78.793
G01 F60 X52.726 Y78.696
G01 F60 X52.763 Y78.634
G01 F60 X52.776 Y78.596
G01 F60 X52.817 Y78.524
G01 F60 X52.821 Y78.488
G01 F60 X52.853 Y78.390
G01 F60 X52.862 Y78.375
G01 F60 X52.862 Y78.299
G01 F60 X52.872 Y78.211
G01 F60 X52.890 Y78.148
G01 F60 X52.897 Y78.082
G01 F60 X52.928 Y77.986
G01 F60 X52.945 Y77.957
G01 F60 X52.948 Y77.929
G01 F60 X52.964 Y77.880
G01 F60 X52.964 Y77.740
G01 F60 X52.973 Y77.650
G01 F60 X53.002 Y77.562
G01 F60 X53.015 Y77.534
G01 F60 X53.016 Y77.521
G01 F60 X53.015 Y77.505
G01 F60 X53.015 Y77.461
G01 F60 X53.024 Y77.371
G01 F60 X53.052 Y77.283
G01 F60 X53.069 Y77.246
G01 F60 X53.071 Y77.229
G01 F60 X53.065 Y77.174
G01 F60 X53.065 Y76.826
G01 F60 X53.075 Y76.734
G01 F60 X53.091 Y76.688
G01 F60 X53.091 Y76.597
G01 F60 X53.094 Y76.568
G01 F60 X53.091 Y76.539
G01 F60 X53.091 Y76.394
G01 F60 X53.100 Y76.304
G01 F60 X53.122 Y76.238
G01 F60 X53.100 Y76.172
G01 F60 X53.093 Y76.103
G01 F60 X53.075 Y76.046
G01 F60 X53.065 Y75.955
G01 F60 X53.065 Y75.861
G01 F60 X53.074 Y75.775
G01 F60 X53.083 Y75.741
G01 F60 X53.075 Y75.715
G01 F60 X53.065 Y75.625
G01 F60 X53.065 Y75.549
G01 F60 X53.053 Y75.528
G01 F60 X53.032 Y75.452
G01 F60 X53.004 Y75.404
G01 F60 X52.973 Y75.309
G01 F60 X52.964 Y75.219
G01 F60 X52.964 Y75.129
G01 F60 X52.948 Y75.080
G01 F60 X52.938 Y74.990
G01 F60 X52.928 Y74.972
G01 F60 X52.897 Y74.877
G01 F60 X52.888 Y74.787
G01 F60 X52.888 Y74.718
G01 F60 X52.889 Y74.706
G01 F60 X52.852 Y74.642
G01 F60 X52.821 Y74.547
G01 F60 X52.811 Y74.457
G01 F60 X52.811 Y74.425
G01 F60 X52.776 Y74.363
G01 F60 X52.745 Y74.267
G01 F60 X52.735 Y74.177
G01 F60 X52.735 Y74.171
G01 F60 X52.718 Y74.140
G01 F60 X52.699 Y74.119
G01 F60 X52.649 Y74.032
G01 F60 X52.617 Y73.936
G01 F60 X52.612 Y73.880
G01 F60 X52.597 Y73.853
G01 F60 X52.581 Y73.799
G01 F60 X52.572 Y73.789
G01 F60 X52.522 Y73.702
G01 F60 X52.491 Y73.606
G01 F60 X52.487 Y73.571
G01 F60 X52.444 Y73.496
G01 F60 X52.422 Y73.420
G01 F60 X52.395 Y73.372
G01 F60 X52.389 Y73.355
G01 F60 X52.369 Y73.332
G01 F60 X52.337 Y73.276
G01 F60 X52.318 Y73.256
G01 F60 X52.266 Y73.167
G01 F60 X52.251 Y73.114
G01 F60 X52.242 Y73.103
G01 F60 X52.192 Y73.017
G01 F60 X52.161 Y72.925
G01 F60 X52.148 Y72.889
G01 F60 X52.147 Y72.888
G01 F60 X52.089 Y72.824
G01 F60 X52.042 Y72.743
G01 F60 X52.024 Y72.699
G01 F60 X52.007 Y72.670
G01 F60 X51.962 Y72.621
G01 F60 X51.912 Y72.534
G01 F60 X51.906 Y72.516
G01 F60 X51.886 Y72.494
G01 F60 X51.854 Y72.438
G01 F60 X51.835 Y72.418
G01 F60 X51.785 Y72.331
G01 F60 X51.779 Y72.313
G01 F60 X51.759 Y72.290
G01 F60 X51.709 Y72.204
G01 F60 X51.705 Y72.192
G01 F60 X51.688 Y72.175
G01 F60 X51.650 Y72.131
G01 F60 X51.623 Y72.111
G01 F60 X51.556 Y72.036
G01 F60 X51.524 Y71.981
G01 F60 X51.505 Y71.960
G01 F60 X51.458 Y71.880
G01 F60 X51.447 Y71.851
G01 F60 X51.418 Y71.830
G01 F60 X51.370 Y71.775
G01 F60 X51.343 Y71.755
G01 F60 X51.278 Y71.683
G01 F60 X51.242 Y71.624
G01 F60 X51.209 Y71.584
G01 F60 X51.166 Y71.552
G01 F60 X51.100 Y71.480
G01 F60 X51.066 Y71.425
G01 F60 X51.056 Y71.413
G01 F60 X51.043 Y71.408
G01 F60 X50.962 Y71.349
G01 F60 X50.893 Y71.272
G01 F60 X50.870 Y71.229
G01 F60 X50.815 Y71.204
G01 F60 X50.737 Y71.148
G01 F60 X50.674 Y71.085
G01 F60 X50.613 Y71.018
G01 F60 X50.585 Y70.964
G01 F60 X50.552 Y70.940
G01 F60 X50.534 Y70.917
G01 F60 X50.525 Y70.915
G01 F60 X50.434 Y70.874
G01 F60 X50.351 Y70.814
G01 F60 X50.305 Y70.760
G01 F60 X50.281 Y70.742
G01 F60 X50.251 Y70.713
G01 F60 X50.246 Y70.712
G01 F60 X50.154 Y70.671
G01 F60 X50.071 Y70.611
G01 F60 X50.024 Y70.556
G01 F60 X50.021 Y70.553
G01 F60 X49.996 Y70.540
G01 F60 X49.921 Y70.485
G01 F60 X49.883 Y70.443
G01 F60 X49.824 Y70.417
G01 F60 X49.755 Y70.367
G01 F60 X49.697 Y70.341
G01 F60 X49.616 Y70.282
G01 F60 X49.604 Y70.268
G01 F60 X49.560 Y70.243
G01 F60 X49.546 Y70.237
G01 F60 X49.509 Y70.229
G01 F60 X49.418 Y70.188
G01 F60 X49.335 Y70.129
G01 F60 X49.314 Y70.104
G01 F60 X49.306 Y70.102
G01 F60 X49.214 Y70.061
G01 F60 X49.146 Y70.011
G01 F60 X49.087 Y69.985
G01 F60 X49.026 Y69.941
G01 F60 X49.013 Y69.932
G01 F60 X48.976 Y69.924
G01 F60 X48.936 Y69.907
G01 F60 X48.899 Y69.899
G01 F60 X48.808 Y69.858
G01 F60 X48.747 Y69.814
G01 F60 X48.733 Y69.805
G01 F60 X48.696 Y69.797
G01 F60 X48.604 Y69.756
G01 F60 X48.562 Y69.725
G01 F60 X48.544 Y69.721
G01 F60 X48.457 Y69.682
G01 F60 X48.431 Y69.666
G01 F60 X48.388 Y69.666
G01 F60 X48.285 Y69.644
G01 F60 X48.207 Y69.603
G01 F60 X48.163 Y69.594
G01 F60 X48.123 Y69.577
G01 F60 X48.082 Y69.568
G01 F60 X48.004 Y69.527
G01 F60 X47.960 Y69.518
G01 F60 X47.949 Y69.513
G01 F60 X47.905 Y69.513
G01 F60 X47.807 Y69.493
G01 F60 X47.738 Y69.462
G01 F60 X47.723 Y69.456
G01 F60 X47.651 Y69.441
G01 F60 X47.593 Y69.412
G01 F60 X47.575 Y69.412
G01 F60 X47.474 Y69.390
G01 F60 X47.466 Y69.386
G01 F60 X47.423 Y69.386
G01 F60 X47.325 Y69.365
G01 F60 X47.233 Y69.325
G01 F60 X47.210 Y69.308
G01 F60 X47.206 Y69.307
G01 F60 X47.193 Y69.310
G01 F60 X46.965 Y69.310
G01 F60 X46.863 Y69.288
G01 F60 X46.806 Y69.259
G01 F60 X46.686 Y69.259
G01 F60 X46.584 Y69.238
G01 F60 X46.526 Y69.209
G01 F60 X46.280 Y69.209
G01 F60 X46.182 Y69.188
G01 F60 X46.171 Y69.183
G01 F60 X45.619 Y69.183
G01 F60 X45.557 Y69.170
G01 F60 X45.553 Y69.170
G01 F60 X45.491 Y69.183
G01 F60 X45.472 Y69.183
G01 F60 X45.462 Y69.188
G01 F60 X45.364 Y69.209
G01 F60 X45.137 Y69.209
G01 F60 X45.098 Y69.200
G01 F60 X45.059 Y69.209
G01 F60 X44.996 Y69.209
G01 F60 X44.928 Y69.239
G01 F60 X44.838 Y69.258
G01 F60 X44.723 Y69.268
G01 F60 X44.674 Y69.289
G01 F60 X44.576 Y69.310
G01 F60 X44.456 Y69.310
G01 F60 X44.446 Y69.315
G01 F60 X44.360 Y69.333
G01 F60 X44.295 Y69.342
G01 F60 X44.242 Y69.365
G01 F60 X44.144 Y69.386
G01 F60 X44.126 Y69.386
G01 F60 X44.115 Y69.391
G01 F60 X44.029 Y69.409
G01 F60 X43.965 Y69.418
G01 F60 X43.923 Y69.437
G01 F60 X43.855 Y69.461
G01 F60 X43.785 Y69.493
G01 F60 X43.687 Y69.513
G01 F60 X43.617 Y69.513
G01 F60 X43.597 Y69.528
G01 F60 X43.506 Y69.569
G01 F60 X43.408 Y69.590
G01 F60 X43.389 Y69.590
G01 F60 X43.322 Y69.614
G01 F60 X43.263 Y69.640
G01 F60 X43.195 Y69.665
G01 F60 X43.125 Y69.696
G01 F60 X43.088 Y69.704
G01 F60 X43.049 Y69.721
G01 F60 X42.960 Y69.740
G01 F60 X42.937 Y69.757
G01 F60 X42.856 Y69.793
G01 F60 X42.794 Y69.815
G01 F60 X42.791 Y69.817
G01 F60 X42.734 Y69.858
G01 F60 X42.642 Y69.899
G01 F60 X42.572 Y69.914
G01 F60 X42.561 Y69.926
G01 F60 X42.480 Y69.985
G01 F60 X42.395 Y70.023
G01 F60 X42.370 Y70.031
G01 F60 X42.327 Y70.061
G01 F60 X42.250 Y70.096
G01 F60 X42.227 Y70.105
G01 F60 X42.205 Y70.130
G01 F60 X42.128 Y70.186
G01 F60 X42.052 Y70.224
G01 F60 X41.997 Y70.265
G01 F60 X41.920 Y70.299
G01 F60 X41.897 Y70.308
G01 F60 X41.875 Y70.333
G01 F60 X41.798 Y70.389
G01 F60 X41.722 Y70.428
G01 F60 X41.667 Y70.468
G01 F60 X41.650 Y70.475
G01 F60 X41.595 Y70.536
G01 F60 X41.514 Y70.595
G01 F60 X41.459 Y70.619
G01 F60 X41.443 Y70.638
G01 F60 X41.366 Y70.694
G01 F60 X41.349 Y70.702
G01 F60 X41.316 Y70.739
G01 F60 X41.238 Y70.796
G01 F60 X41.171 Y70.829
G01 F60 X41.167 Y70.831
G01 F60 X41.117 Y70.886
G01 F60 X41.080 Y70.918
G01 F60 X41.033 Y70.966
G01 F60 X40.986 Y71.019
G01 F60 X40.919 Y71.067
G01 F60 X40.876 Y71.098
G01 F60 X40.833 Y71.146
G01 F60 X40.752 Y71.205
G01 F60 X40.744 Y71.208
G01 F60 X40.738 Y71.215
G01 F60 X40.724 Y71.227
G01 F60 X40.697 Y71.274
G01 F60 X40.630 Y71.349
G01 F60 X40.549 Y71.408
G01 F60 X40.535 Y71.414
G01 F60 X40.519 Y71.429
G01 F60 X40.495 Y71.454
G01 F60 X40.447 Y71.502
G01 F60 X40.421 Y71.529
G01 F60 X40.392 Y71.579
G01 F60 X40.324 Y71.656
G01 F60 X40.282 Y71.684
G01 F60 X40.240 Y71.757
G01 F60 X40.178 Y71.826
G01 F60 X40.145 Y71.855
G01 F60 X40.113 Y71.909
G01 F60 X40.052 Y71.977
G01 F60 X40.040 Y71.988
G01 F60 X40.036 Y72.001
G01 F60 X39.985 Y72.089
G01 F60 X39.924 Y72.153
G01 F60 X39.900 Y72.180
G01 F60 X39.890 Y72.189
G01 F60 X39.877 Y72.215
G01 F60 X39.834 Y72.290
G01 F60 X39.813 Y72.313
G01 F60 X39.807 Y72.331
G01 F60 X39.757 Y72.417
G01 F60 X39.705 Y72.475
G01 F60 X39.696 Y72.487
G01 F60 X39.680 Y72.534
G01 F60 X39.630 Y72.622
G01 F60 X39.582 Y72.673
G01 F60 X39.566 Y72.700
G01 F60 X39.553 Y72.737
G01 F60 X39.503 Y72.824
G01 F60 X39.455 Y72.877
G01 F60 X39.432 Y72.916
G01 F60 X39.432 Y72.921
G01 F60 X39.401 Y73.017
G01 F60 X39.349 Y73.107
G01 F60 X39.305 Y73.151
G01 F60 X39.301 Y73.164
G01 F60 X39.272 Y73.222
G01 F60 X39.245 Y73.279
G01 F60 X39.223 Y73.347
G01 F60 X39.172 Y73.435
G01 F60 X39.125 Y73.484
G01 F60 X39.108 Y73.514
G01 F60 X39.106 Y73.519
G01 F60 X39.102 Y73.556
G01 F60 X39.073 Y73.644
G01 F60 X39.043 Y73.709
G01 F60 X39.032 Y73.745
G01 F60 X39.026 Y73.810
G01 F60 X38.995 Y73.906
G01 F60 X38.945 Y73.992
G01 F60 X38.931 Y74.008
G01 F60 X38.916 Y74.039
G01 F60 X38.905 Y74.075
G01 F60 X38.898 Y74.141
G01 F60 X38.868 Y74.236
G01 F60 X38.832 Y74.298
G01 F60 X38.832 Y74.330
G01 F60 X38.822 Y74.420
G01 F60 X38.791 Y74.515
G01 F60 X38.774 Y74.544
G01 F60 X38.772 Y74.572
G01 F60 X38.741 Y74.668
G01 F60 X38.705 Y74.729
G01 F60 X38.705 Y74.787
G01 F60 X38.695 Y74.877
G01 F60 X38.664 Y74.972
G01 F60 X38.654 Y74.990
G01 F60 X38.645 Y75.080
G01 F60 X38.629 Y75.129
G01 F60 X38.629 Y75.269
G01 F60 X38.619 Y75.360
G01 F60 X38.588 Y75.455
G01 F60 X38.578 Y75.473
G01 F60 X38.568 Y75.563
G01 F60 X38.539 Y75.653
G01 F60 X38.524 Y75.682
G01 F60 X38.527 Y75.708
G01 F60 X38.527 Y76.133
G01 F60 X38.517 Y76.223
G01 F60 X38.502 Y76.272
G01 F60 X38.502 Y76.565
G01 F60 X38.500 Y76.581
G01 F60 X38.502 Y76.597
G01 F60 X38.502 Y76.661
G01 F60 X38.517 Y76.710
G01 F60 X38.527 Y76.800
G01 F60 X38.527 Y76.844
G01 F60 X38.519 Y76.924
G01 F60 X38.527 Y77.004
G01 F60 X38.527 Y77.174
G01 F60 X38.519 Y77.254
G01 F60 X38.520 Y77.271
G01 F60 X38.537 Y77.301
G01 F60 X38.569 Y77.397
G01 F60 X38.574 Y77.453
G01 F60 X38.588 Y77.478
G01 F60 X38.619 Y77.574
G01 F60 X38.629 Y77.664
G01 F60 X38.629 Y77.708
G01 F60 X38.621 Y77.781
G01 F60 X38.645 Y77.853
G01 F60 X38.647 Y77.881
G01 F60 X38.664 Y77.910
G01 F60 X38.695 Y78.005
G01 F60 X38.705 Y78.096
G01 F60 X38.705 Y78.134
G01 F60 X38.721 Y78.183
G01 F60 X38.724 Y78.211
G01 F60 X38.741 Y78.240
G01 F60 X38.772 Y78.336
G01 F60 X38.774 Y78.364
G01 F60 X38.791 Y78.393
G01 F60 X38.822 Y78.488
G01 F60 X38.832 Y78.579
G01 F60 X38.832 Y78.635
G01 F60 X38.833 Y78.637
G01 F60 X38.868 Y78.698
G01 F60 X38.898 Y78.790
G01 F60 X38.902 Y78.825
G01 F60 X38.909 Y78.840
G01 F60 X38.941 Y78.895
G01 F60 X38.960 Y78.942
G01 F60 X38.995 Y79.002
G01 F60 X39.026 Y79.099
G01 F60 X39.033 Y79.172
G01 F60 X39.043 Y79.208
G01 F60 X39.070 Y79.256
G01 F60 X39.090 Y79.314
G01 F60 X39.097 Y79.322
G01 F60 X39.144 Y79.403
G01 F60 X39.163 Y79.450
G01 F60 X39.197 Y79.510
G01 F60 X39.229 Y79.606
G01 F60 X39.240 Y79.642
G01 F60 X39.249 Y79.652
G01 F60 X39.301 Y79.742
G01 F60 X39.322 Y79.818
G01 F60 X39.325 Y79.822
G01 F60 X39.350 Y79.866
G01 F60 X39.356 Y79.884
G01 F60 X39.376 Y79.906
G01 F60 X39.408 Y79.962
G01 F60 X39.427 Y79.983
G01 F60 X39.477 Y80.069
G01 F60 X39.483 Y80.087
G01 F60 X39.503 Y80.110
G01 F60 X39.555 Y80.198
G01 F60 X39.568 Y80.243
G01 F60 X39.630 Y80.313
G01 F60 X39.680 Y80.400
G01 F60 X39.711 Y80.495
G01 F60 X39.714 Y80.517
G01 F60 X39.801 Y80.604
G01 F60 X39.860 Y80.670
G01 F60 X39.885 Y80.715
G01 F60 X39.894 Y80.721
G01 F60 X39.961 Y80.795
G01 F60 X40.009 Y80.880
G01 F60 X40.032 Y80.942
G01 F60 X40.053 Y80.969
G01 F60 X40.097 Y81.000
G01 F60 X40.162 Y81.073
G01 F60 X40.193 Y81.123
G01 F60 X40.258 Y81.188
G01 F60 X40.319 Y81.255
G01 F60 X40.347 Y81.309
G01 F60 X40.376 Y81.331
G01 F60 X40.435 Y81.396
G01 F60 X40.457 Y81.424
G01 F60 X40.503 Y81.458
G01 F60 X40.562 Y81.523
G01 F60 X40.584 Y81.551
G01 F60 X40.627 Y81.582
G01 F60 X40.662 Y81.617
G01 F60 X40.717 Y81.672
G01 F60 X40.755 Y81.717
G01 F60 X40.779 Y81.734
G01 F60 X40.839 Y81.795
G01 F60 X40.920 Y81.876
G01 F60 X40.958 Y81.920
G01 F60 X40.982 Y81.938
G01 F60 X41.047 Y82.003
G01 F60 X41.087 Y82.050
G01 F60 X41.095 Y82.056
G01 F60 X41.104 Y82.060
G01 F60 X41.159 Y82.085
G01 F60 X41.240 Y82.143
G01 F60 X41.294 Y82.204
G01 F60 X41.312 Y82.212
G01 F60 X41.380 Y82.262
G01 F60 X41.438 Y82.288
G01 F60 X41.524 Y82.350
G01 F60 X41.566 Y82.404
G01 F60 X41.591 Y82.415
G01 F60 X41.666 Y82.469
G01 F60 X41.720 Y82.520
G01 F60 X41.768 Y82.542
G01 F60 X41.826 Y82.583
G01 F60 X41.850 Y82.597
G01 F60 X41.918 Y82.646
G01 F60 X41.947 Y82.672
G01 F60 X41.997 Y82.694
G01 F60 X42.054 Y82.736
G01 F60 X42.070 Y82.745
G01 F60 X42.108 Y82.766
G01 F60 X42.175 Y82.796
G01 F60 X42.252 Y82.852
G01 F60 X42.269 Y82.869
G01 F60 X42.278 Y82.874
G01 F60 X42.314 Y82.897
G01 F60 X42.363 Y82.907
G01 F60 X42.454 Y82.948
G01 F60 X42.537 Y83.008
G01 F60 X42.541 Y83.014
G01 F60 X42.544 Y83.014
G01 F60 X42.642 Y83.035
G01 F60 X42.682 Y83.052
G01 F60 X42.718 Y83.060
G01 F60 X42.810 Y83.101
G01 F60 X42.867 Y83.142
G01 F60 X42.883 Y83.151
G01 F60 X42.922 Y83.173
G01 F60 X42.936 Y83.179
G01 F60 X42.972 Y83.187
G01 F60 X43.064 Y83.228
G01 F60 X43.087 Y83.244
G01 F60 X43.175 Y83.263
G01 F60 X43.267 Y83.304
G01 F60 X43.328 Y83.348
G01 F60 X43.342 Y83.357
G01 F60 X43.379 Y83.365
G01 F60 X43.389 Y83.369
G01 F60 X43.433 Y83.369
G01 F60 X43.531 Y83.390
G01 F60 X43.614 Y83.427
G01 F60 X43.646 Y83.446
G01 F60 X43.738 Y83.446
G01 F60 X43.836 Y83.466
G01 F60 X43.919 Y83.503
G01 F60 X43.966 Y83.530
G01 F60 X43.999 Y83.547
G01 F60 X44.017 Y83.547
G01 F60 X44.115 Y83.568
G01 F60 X44.126 Y83.573
G01 F60 X44.170 Y83.573
G01 F60 X44.272 Y83.594
G01 F60 X44.330 Y83.623
G01 F60 X44.373 Y83.623
G01 F60 X44.474 Y83.645
G01 F60 X44.563 Y83.688
G01 F60 X44.585 Y83.700
G01 F60 X44.856 Y83.700
G01 F60 X44.958 Y83.721
G01 F60 X45.015 Y83.750
G01 F60 X45.034 Y83.750
G01 F60 X45.047 Y83.753
G01 F60 X45.060 Y83.750
G01 F60 X45.440 Y83.750
G01 F60 X45.538 Y83.771
G01 F60 X45.548 Y83.776
G01 F60 X45.770 Y83.776
G01 F60 X45.796 Y83.781
G00 F3000 Z3.000
G00 F3000 X89.743 Y82.006
G00 F1500 Z0
G01 F60 Z-0.200
G01 F60 X89.505 Y81.956
G01 F60 X89.283 Y81.857
G01 F60 X89.086 Y81.714
G01 F60 X88.923 Y81.533
G01 F60 X88.801 Y81.322
G01 F60 X88.726 Y81.090
G01 F60 X88.701 Y80.848
G01 F60 X88.726 Y80.606
G01 F60 X88.801 Y80.374
G01 F60 X88.923 Y80.164
G01 F60 X89.086 Y79.983
G01 F60 X89.283 Y79.840
G01 F60 X89.388 Y79.793
G01 F60 X89.412 Y66.084
G01 F60 X68.024 Y66.084
G01 F60 X67.916 Y66.270
G01 F60 X67.759 Y66.445
G01 F60 X67.568 Y66.584
G01 F60 X67.353 Y66.680
G01 F60 X67.123 Y66.728
G01 F60 X66.888 Y66.728
G01 F60 X66.657 Y66.680
G01 F60 X66.442 Y66.584
G01 F60 X66.252 Y66.445
G01 F60 X66.094 Y66.270
G01 F60 X65.986 Y66.084
G01 F60 X54.230 Y66.084
G01 F60 X54.132 Y66.064
G01 F60 X54.040 Y66.023
G01 F60 X53.960 Y65.964
G01 F60 X53.893 Y65.890
G01 F60 X53.842 Y65.803
G01 F60 X53.812 Y65.708
G01 F60 X53.802 Y65.617
G01 F60 X53.825 Y61.025
G01 F60 X52.839 Y61.015
G01 F60 X52.797 Y61.062
G01 F60 X52.717 Y61.120
G01 F60 X52.677 Y61.190
G01 F60 X52.519 Y61.365
G01 F60 X52.328 Y61.504
G01 F60 X52.113 Y61.600
G01 F60 X51.883 Y61.649
G01 F60 X51.648 Y61.649
G01 F60 X51.417 Y61.600
G01 F60 X51.202 Y61.504
G01 F60 X51.012 Y61.365
G01 F60 X50.854 Y61.190
G01 F60 X50.736 Y60.986
G01 F60 X50.663 Y60.762
G01 F60 X50.639 Y60.528
G01 F60 X50.663 Y60.294
G01 F60 X50.736 Y60.070
G01 F60 X50.854 Y59.866
G01 F60 X51.012 Y59.691
G01 F60 X51.202 Y59.553
G01 F60 X51.417 Y59.457
G01 F60 X51.648 Y59.408
G01 F60 X51.883 Y59.408
G01 F60 X52.113 Y59.457
G01 F60 X52.328 Y59.553
G01 F60 X52.519 Y59.691
G01 F60 X52.677 Y59.866
G01 F60 X52.790 Y60.062
G01 F60 X54.356 Y60.078
G01 F60 X54.453 Y60.098
G01 F60 X54.545 Y60.139
G01 F60 X54.626 Y60.198
G01 F60 X54.693 Y60.272
G01 F60 X54.743 Y60.359
G01 F60 X54.774 Y60.454
G01 F60 X54.783 Y60.545
G01 F60 X54.760 Y65.132
G01 F60 X65.987 Y65.132
G01 F60 X66.094 Y64.946
G01 F60 X66.252 Y64.771
G01 F60 X66.442 Y64.633
G01 F60 X66.657 Y64.537
G01 F60 X66.888 Y64.488
G01 F60 X67.123 Y64.488
G01 F60 X67.353 Y64.537
G01 F60 X67.568 Y64.633
G01 F60 X67.759 Y64.771
G01 F60 X67.916 Y64.946
G01 F60 X68.024 Y65.132
G01 F60 X74.147 Y65.132
G01 F60 X74.147 Y61.542
G01 F60 X74.062 Y61.504
G01 F60 X73.871 Y61.365
G01 F60 X73.714 Y61.190
G01 F60 X73.596 Y60.986
G01 F60 X73.523 Y60.762
G01 F60 X73.499 Y60.528
G01 F60 X73.523 Y60.294
G01 F60 X73.596 Y60.070
G01 F60 X73.714 Y59.866
G01 F60 X73.871 Y59.691
G01 F60 X74.062 Y59.553
G01 F60 X74.277 Y59.457
G01 F60 X74.508 Y59.408
G01 F60 X74.743 Y59.408
G01 F60 X74.973 Y59.457
G01 F60 X75.188 Y59.553
G01 F60 X75.379 Y59.691
G01 F60 X75.537 Y59.866
G01 F60 X75.654 Y60.070
G01 F60 X75.727 Y60.294
G01 F60 X75.752 Y60.528
G01 F60 X75.727 Y60.762
G01 F60 X75.654 Y60.986
G01 F60 X75.537 Y61.190
G01 F60 X75.379 Y61.365
G01 F60 X75.188 Y61.504
G01 F60 X75.105 Y61.541
G01 F60 X75.126 Y65.132
G01 F60 X91.927 Y65.132
G01 F60 X91.927 Y60.519
G01 F60 X91.937 Y60.429
G01 F60 X91.968 Y60.334
G01 F60 X92.018 Y60.247
G01 F60 X92.085 Y60.172
G01 F60 X92.166 Y60.114
G01 F60 X92.257 Y60.073
G01 F60 X92.355 Y60.052
G01 F60 X96.858 Y60.048
G01 F60 X96.936 Y58.970
G01 F60 X96.922 Y58.964
G01 F60 X96.732 Y58.825
G01 F60 X96.574 Y58.650
G01 F60 X96.456 Y58.446
G01 F60 X96.383 Y58.222
G01 F60 X96.359 Y57.988
G01 F60 X96.383 Y57.754
G01 F60 X96.456 Y57.530
G01 F60 X96.574 Y57.326
G01 F60 X96.732 Y57.151
G01 F60 X96.922 Y57.013
G01 F60 X97.137 Y56.917
G01 F60 X97.368 Y56.868
G01 F60 X97.603 Y56.868
G01 F60 X97.833 Y56.917
G01 F60 X98.048 Y57.013
G01 F60 X98.239 Y57.151
G01 F60 X98.397 Y57.326
G01 F60 X98.504 Y57.512
G01 F60 X102.087 Y57.512
G01 F60 X102.086 Y53.963
G01 F60 X101.983 Y53.917
G01 F60 X101.786 Y53.774
G01 F60 X101.623 Y53.593
G01 F60 X101.501 Y53.382
G01 F60 X101.426 Y53.150
G01 F60 X101.401 Y52.908
G01 F60 X101.426 Y52.666
G01 F60 X101.501 Y52.434
G01 F60 X101.623 Y52.224
G01 F60 X101.786 Y52.043
G01 F60 X101.983 Y51.900
G01 F60 X102.087 Y51.853
G01 F60 X102.086 Y51.423
G01 F60 X101.983 Y51.377
G01 F60 X101.786 Y51.234
G01 F60 X101.623 Y51.053
G01 F60 X101.501 Y50.842
G01 F60 X101.426 Y50.610
G01 F60 X101.401 Y50.368
G01 F60 X101.426 Y50.126
G01 F60 X101.501 Y49.895
G01 F60 X101.623 Y49.684
G01 F60 X101.786 Y49.503
G01 F60 X101.983 Y49.360
G01 F60 X102.087 Y49.313
G01 F60 X102.086 Y48.883
G01 F60 X101.983 Y48.837
G01 F60 X101.786 Y48.694
G01 F60 X101.623 Y48.513
G01 F60 X101.501 Y48.302
G01 F60 X101.426 Y48.070
G01 F60 X101.401 Y47.828
G01 F60 X101.426 Y47.586
G01 F60 X101.501 Y47.355
G01 F60 X101.623 Y47.144
G01 F60 X101.786 Y46.963
G01 F60 X101.983 Y46.820
G01 F60 X102.205 Y46.721
G01 F60 X102.444 Y46.670
G01 F60 X102.687 Y46.670
G01 F60 X102.925 Y46.721
G01 F60 X103.148 Y46.820
G01 F60 X103.344 Y46.963
G01 F60 X103.507 Y47.144
G01 F60 X103.629 Y47.355
G01 F60 X103.704 Y47.586
G01 F60 X103.730 Y47.828
G01 F60 X103.704 Y48.070
G01 F60 X103.629 Y48.302
G01 F60 X103.507 Y48.513
G01 F60 X103.344 Y48.694
G01 F60 X103.147 Y48.837
G01 F60 X103.043 Y48.883
G01 F60 X103.044 Y49.314
G01 F60 X103.148 Y49.360
G01 F60 X103.344 Y49.503
G01 F60 X103.507 Y49.684
G01 F60 X103.629 Y49.895
G01 F60 X103.704 Y50.126
G01 F60 X103.730 Y50.368
G01 F60 X103.704 Y50.610
G01 F60 X103.629 Y50.842
G01 F60 X103.507 Y51.053
G01 F60 X103.344 Y51.234
G01 F60 X103.147 Y51.377
G01 F60 X103.043 Y51.423
G01 F60 X103.044 Y51.854
G01 F60 X103.148 Y51.900
G01 F60 X103.344 Y52.043
G01 F60 X103.507 Y52.224
G01 F60 X103.629 Y52.434
G01 F60 X103.704 Y52.666
G01 F60 X103.730 Y52.908
G01 F60 X103.704 Y53.150
G01 F60 X103.629 Y53.382
G01 F60 X103.507 Y53.593
G01 F60 X103.344 Y53.774
G01 F60 X103.147 Y53.917
G01 F60 X103.043 Y53.963
G01 F60 X103.043 Y57.997
G01 F60 X103.034 Y58.088
G01 F60 X103.003 Y58.183
G01 F60 X102.953 Y58.270
G01 F60 X102.886 Y58.344
G01 F60 X102.805 Y58.403
G01 F60 X102.713 Y58.444
G01 F60 X102.615 Y58.464
G01 F60 X98.504 Y58.464
G01 F60 X98.397 Y58.650
G01 F60 X98.239 Y58.825
G01 F60 X98.048 Y58.964
G01 F60 X97.967 Y59.000
G01 F60 X97.982 Y60.052
G01 F60 X110.127 Y60.052
G01 F60 X111.627 Y59.698
G01 F60 X111.696 Y59.486
G01 F60 X111.814 Y59.282
G01 F60 X111.972 Y59.107
G01 F60 X112.162 Y58.969
G01 F60 X112.377 Y58.873
G01 F60 X112.608 Y58.824
G01 F60 X112.843 Y58.824
G01 F60 X113.073 Y58.873
G01 F60 X113.288 Y58.969
G01 F60 X113.479 Y59.107
G01 F60 X113.637 Y59.282
G01 F60 X113.754 Y59.486
G01 F60 X113.827 Y59.710
G01 F60 X113.852 Y59.944
G01 F60 X113.827 Y60.178
G01 F60 X113.754 Y60.402
G01 F60 X113.637 Y60.606
G01 F60 X113.479 Y60.781
G01 F60 X113.288 Y60.920
G01 F60 X113.073 Y61.015
G01 F60 X112.843 Y61.064
G01 F60 X112.608 Y61.064
G01 F60 X112.377 Y61.015
G01 F60 X112.162 Y60.920
G01 F60 X111.972 Y60.781
G01 F60 X111.834 Y60.629
G01 F60 X110.317 Y60.987
G01 F60 X110.235 Y61.004
G01 F60 X92.883 Y61.004
G01 F60 X92.883 Y65.617
G01 F60 X92.874 Y65.708
G01 F60 X92.843 Y65.803
G01 F60 X92.793 Y65.890
G01 F60 X92.726 Y65.964
G01 F60 X92.645 Y66.023
G01 F60 X92.553 Y66.064
G01 F60 X92.455 Y66.084
G01 F60 X90.368 Y66.084
G01 F60 X90.345 Y79.794
G01 F60 X90.448 Y79.840
G01 F60 X90.644 Y79.983
G01 F60 X90.807 Y80.164
G01 F60 X90.929 Y80.374
G01 F60 X91.004 Y80.606
G01 F60 X91.030 Y80.848
G01 F60 X91.004 Y81.090
G01 F60 X90.929 Y81.322
G01 F60 X90.807 Y81.533
G01 F60 X90.644 Y81.714
G01 F60 X90.448 Y81.857
G01 F60 X90.225 Y81.956
G01 F60 X89.987 Y82.006
G01 F60 X89.743 Y82.006
G00 F3000 Z3.000
G00 F3000 X92.284 Y82.006
G00 F1500 Z0
G01 F60 Z-0.200
G01 F60 X92.045 Y81.956
G01 F60 X91.823 Y81.857
G01 F60 X91.626 Y81.714
G01 F60 X91.463 Y81.533
G01 F60 X91.341 Y81.322
G01 F60 X91.266 Y81.090
G01 F60 X91.241 Y80.848
G01 F60 X91.266 Y80.606
G01 F60 X91.341 Y80.374
G01 F60 X91.463 Y80.164
G01 F60 X91.626 Y79.983
G01 F60 X91.823 Y79.840
G01 F60 X91.928 Y79.793
G01 F60 X91.953 Y70.665
G01 F60 X91.932 Y69.164
G01 F60 X91.842 Y69.124
G01 F60 X91.651 Y68.985
G01 F60 X91.494 Y68.810
G01 F60 X91.376 Y68.606
G01 F60 X91.303 Y68.382
G01 F60 X91.279 Y68.148
G01 F60 X91.303 Y67.914
G01 F60 X91.376 Y67.690
G01 F60 X91.494 Y67.486
G01 F60 X91.651 Y67.311
G01 F60 X91.842 Y67.173
G01 F60 X92.057 Y67.077
G01 F60 X92.288 Y67.028
G01 F60 X92.523 Y67.028
G01 F60 X92.753 Y67.077
G01 F60 X92.968 Y67.173
G01 F60 X93.159 Y67.311
G01 F60 X93.317 Y67.486
G01 F60 X93.434 Y67.690
G01 F60 X93.507 Y67.914
G01 F60 X93.532 Y68.148
G01 F60 X93.507 Y68.382
G01 F60 X93.434 Y68.606
G01 F60 X93.317 Y68.810
G01 F60 X93.159 Y68.985
G01 F60 X92.968 Y69.124
G01 F60 X92.893 Y69.157
G01 F60 X92.903 Y70.169
G01 F60 X96.773 Y70.031
G01 F60 X96.834 Y69.964
G01 F60 X96.977 Y69.860
G01 F60 X97.007 Y68.942
G01 F60 X97.007 Y66.456
G01 F60 X96.998 Y66.452
G01 F60 X96.834 Y66.332
G01 F60 X96.697 Y66.181
G01 F60 X96.596 Y66.004
G01 F60 X96.532 Y65.811
G01 F60 X96.511 Y65.608
G01 F60 X96.532 Y65.406
G01 F60 X96.596 Y65.212
G01 F60 X96.697 Y65.036
G01 F60 X96.834 Y64.884
G01 F60 X96.998 Y64.765
G01 F60 X97.010 Y64.760
G01 F60 X97.033 Y63.033
G01 F60 X97.042 Y62.943
G01 F60 X97.073 Y62.848
G01 F60 X97.123 Y62.761
G01 F60 X97.190 Y62.687
G01 F60 X97.271 Y62.628
G01 F60 X97.363 Y62.588
G01 F60 X97.461 Y62.567
G01 F60 X97.543 Y62.567
G01 F60 X101.735 Y62.570
G01 F60 X101.777 Y62.496
G01 F60 X101.913 Y62.344
G01 F60 X102.078 Y62.225
G01 F60 X102.264 Y62.142
G01 F60 X102.463 Y62.100
G01 F60 X102.667 Y62.100
G01 F60 X102.866 Y62.142
G01 F60 X103.052 Y62.225
G01 F60 X103.217 Y62.344
G01 F60 X103.353 Y62.496
G01 F60 X103.455 Y62.672
G01 F60 X103.518 Y62.866
G01 F60 X103.539 Y63.068
G01 F60 X103.518 Y63.271
G01 F60 X103.455 Y63.464
G01 F60 X103.353 Y63.641
G01 F60 X103.217 Y63.792
G01 F60 X103.052 Y63.912
G01 F60 X102.866 Y63.995
G01 F60 X102.667 Y64.037
G01 F60 X102.463 Y64.037
G01 F60 X102.264 Y63.995
G01 F60 X102.078 Y63.912
G01 F60 X101.913 Y63.792
G01 F60 X101.776 Y63.639
G01 F60 X101.724 Y63.544
G01 F60 X97.982 Y63.522
G01 F60 X97.965 Y64.762
G01 F60 X97.972 Y64.765
G01 F60 X98.137 Y64.884
G01 F60 X98.273 Y65.036
G01 F60 X98.375 Y65.212
G01 F60 X98.438 Y65.406
G01 F60 X98.459 Y65.608
G01 F60 X98.438 Y65.811
G01 F60 X98.375 Y66.004
G01 F60 X98.273 Y66.181
G01 F60 X98.137 Y66.332
G01 F60 X97.972 Y66.452
G01 F60 X97.963 Y66.456
G01 F60 X97.963 Y67.694
G01 F60 X101.734 Y67.651
G01 F60 X101.777 Y67.576
G01 F60 X101.913 Y67.424
G01 F60 X102.078 Y67.305
G01 F60 X102.264 Y67.222
G01 F60 X102.463 Y67.180
G01 F60 X102.667 Y67.180
G01 F60 X102.866 Y67.222
G01 F60 X103.052 Y67.305
G01 F60 X103.217 Y67.424
G01 F60 X103.353 Y67.576
G01 F60 X103.455 Y67.752
G01 F60 X103.518 Y67.946
G01 F60 X103.539 Y68.148
G01 F60 X103.518 Y68.351
G01 F60 X103.455 Y68.544
G01 F60 X103.353 Y68.721
G01 F60 X103.217 Y68.872
G01 F60 X103.052 Y68.992
G01 F60 X102.866 Y69.075
G01 F60 X102.667 Y69.117
G01 F60 X102.463 Y69.117
G01 F60 X102.264 Y69.075
G01 F60 X102.078 Y68.992
G01 F60 X101.913 Y68.872
G01 F60 X101.776 Y68.719
G01 F60 X101.725 Y68.625
G01 F60 X97.982 Y68.647
G01 F60 X97.965 Y69.842
G01 F60 X97.972 Y69.845
G01 F60 X98.137 Y69.964
G01 F60 X98.273 Y70.116
G01 F60 X98.375 Y70.292
G01 F60 X98.438 Y70.486
G01 F60 X98.459 Y70.688
G01 F60 X98.438 Y70.891
G01 F60 X98.375 Y71.084
G01 F60 X98.273 Y71.261
G01 F60 X98.137 Y71.412
G01 F60 X97.972 Y71.532
G01 F60 X97.963 Y71.536
G01 F60 X97.963 Y72.728
G01 F60 X101.735 Y72.730
G01 F60 X101.777 Y72.656
G01 F60 X101.913 Y72.504
G01 F60 X102.078 Y72.385
G01 F60 X102.264 Y72.302
G01 F60 X102.463 Y72.260
G01 F60 X102.667 Y72.260
G01 F60 X102.866 Y72.302
G01 F60 X103.052 Y72.385
G01 F60 X103.217 Y72.504
G01 F60 X103.353 Y72.656
G01 F60 X103.455 Y72.832
G01 F60 X103.518 Y73.026
G01 F60 X103.539 Y73.228
G01 F60 X103.518 Y73.431
G01 F60 X103.455 Y73.624
G01 F60 X103.353 Y73.801
G01 F60 X103.217 Y73.952
G01 F60 X103.052 Y74.072
G01 F60 X102.866 Y74.154
G01 F60 X102.667 Y74.197
G01 F60 X102.463 Y74.197
G01 F60 X102.264 Y74.154
G01 F60 X102.078 Y74.072
G01 F60 X101.913 Y73.952
G01 F60 X101.776 Y73.799
G01 F60 X101.724 Y73.704
G01 F60 X97.982 Y73.682
G01 F60 X97.965 Y74.922
G01 F60 X97.972 Y74.925
G01 F60 X98.137 Y75.044
G01 F60 X98.273 Y75.196
G01 F60 X98.375 Y75.372
G01 F60 X98.438 Y75.566
G01 F60 X98.459 Y75.768
G01 F60 X98.438 Y75.971
G01 F60 X98.375 Y76.164
G01 F60 X98.273 Y76.341
G01 F60 X98.137 Y76.492
G01 F60 X97.990 Y76.598
G01 F60 X98.007 Y77.808
G01 F60 X101.735 Y77.810
G01 F60 X101.777 Y77.736
G01 F60 X101.913 Y77.584
G01 F60 X102.078 Y77.465
G01 F60 X102.264 Y77.382
G01 F60 X102.463 Y77.340
G01 F60 X102.667 Y77.340
G01 F60 X102.866 Y77.382
G01 F60 X103.052 Y77.465
G01 F60 X103.217 Y77.584
G01 F60 X103.353 Y77.736
G01 F60 X103.455 Y77.912
G01 F60 X103.518 Y78.106
G01 F60 X103.539 Y78.308
G01 F60 X103.518 Y78.511
G01 F60 X103.455 Y78.704
G01 F60 X103.353 Y78.881
G01 F60 X103.217 Y79.032
G01 F60 X103.052 Y79.152
G01 F60 X102.866 Y79.234
G01 F60 X102.667 Y79.277
G01 F60 X102.463 Y79.277
G01 F60 X102.264 Y79.234
G01 F60 X102.078 Y79.152
G01 F60 X101.913 Y79.032
G01 F60 X101.776 Y78.879
G01 F60 X101.724 Y78.784
G01 F60 X97.486 Y78.759
G01 F60 X97.388 Y78.738
G01 F60 X97.297 Y78.697
G01 F60 X97.216 Y78.639
G01 F60 X97.149 Y78.564
G01 F60 X97.099 Y78.478
G01 F60 X97.068 Y78.382
G01 F60 X97.058 Y78.293
G01 F60 X97.035 Y76.628
G01 F60 X96.998 Y76.612
G01 F60 X96.834 Y76.492
G01 F60 X96.697 Y76.341
G01 F60 X96.596 Y76.164
G01 F60 X96.532 Y75.971
G01 F60 X96.511 Y75.768
G01 F60 X96.532 Y75.566
G01 F60 X96.596 Y75.372
G01 F60 X96.697 Y75.196
G01 F60 X96.834 Y75.044
G01 F60 X96.998 Y74.925
G01 F60 X97.007 Y74.921
G01 F60 X97.007 Y71.536
G01 F60 X96.998 Y71.532
G01 F60 X96.834 Y71.412
G01 F60 X96.697 Y71.261
G01 F60 X96.596 Y71.084
G01 F60 X96.566 Y70.993
G01 F60 X92.907 Y71.123
G01 F60 X92.885 Y79.794
G01 F60 X92.988 Y79.840
G01 F60 X93.184 Y79.983
G01 F60 X93.347 Y80.164
G01 F60 X93.469 Y80.374
G01 F60 X93.544 Y80.606
G01 F60 X93.570 Y80.848
G01 F60 X93.544 Y81.090
G01 F60 X93.469 Y81.322
G01 F60 X93.347 Y81.533
G01 F60 X93.184 Y81.714
G01 F60 X92.988 Y81.857
G01 F60 X92.765 Y81.956
G01 F60 X92.527 Y82.006
G01 F60 X92.284 Y82.006
G00 F3000 Z3.000
G00 F3000 X46.068 Y81.669
G00 F1500 Z0
G01 F60 Z-0.200
G01 F60 X46.068 Y79.494
G01 F60 X46.998 Y79.494
G01 F60 X46.998 Y79.520
G01 F60 X47.023 Y79.520
G01 F60 X47.023 Y79.545
G01 F60 X47.049 Y79.545
G01 F60 X47.049 Y79.570
G01 F60 X47.074 Y79.570
G01 F60 X47.074 Y80.094
G01 F60 X47.049 Y80.094
G01 F60 X47.049 Y80.145
G01 F60 X47.023 Y80.145
G01 F60 X47.023 Y80.170
G01 F60 X46.973 Y80.170
G01 F60 X46.973 Y80.196
G01 F60 X46.769 Y80.196
G01 F60 X46.769 Y80.205
G01 F60 X49.132 Y80.205
G01 F60 X49.132 Y80.231
G01 F60 X49.182 Y80.231
G01 F60 X49.182 Y80.256
G01 F60 X49.208 Y80.256
G01 F60 X49.208 Y80.282
G01 F60 X49.233 Y80.282
G01 F60 X49.233 Y80.307
G01 F60 X49.259 Y80.307
G01 F60 X49.259 Y80.831
G01 F60 X49.233 Y80.831
G01 F60 X49.233 Y80.856
G01 F60 X49.208 Y80.856
G01 F60 X49.208 Y80.882
G01 F60 X49.182 Y80.882
G01 F60 X49.182 Y80.907
G01 F60 X49.132 Y80.907
G01 F60 X49.132 Y80.932
G01 F60 X46.769 Y80.932
G01 F60 X46.769 Y80.942
G01 F60 X46.973 Y80.942
G01 F60 X46.973 Y80.967
G01 F60 X47.023 Y80.967
G01 F60 X47.023 Y80.993
G01 F60 X47.049 Y80.993
G01 F60 X47.049 Y81.044
G01 F60 X47.074 Y81.044
G01 F60 X47.074 Y81.567
G01 F60 X47.049 Y81.567
G01 F60 X47.049 Y81.593
G01 F60 X47.023 Y81.593
G01 F60 X47.023 Y81.618
G01 F60 X46.998 Y81.618
G01 F60 X46.998 Y81.644
G01 F60 X46.896 Y81.644
G01 F60 X46.896 Y81.669
G01 F60 X46.068 Y81.669
G00 F3000 Z3.000
G00 F3000 X80.747 Y81.604
G00 F1500 Z0
G01 F60 Z-0.200
G01 F60 X80.650 Y81.583
G01 F60 X80.639 Y81.578
G01 F60 X80.366 Y81.578
G01 F60 X80.279 Y81.560
G01 F60 X80.257 Y81.553
G01 F60 X80.189 Y81.553
G01 F60 X80.088 Y81.532
G01 F60 X80.080 Y81.528
G01 F60 X79.909 Y81.528
G01 F60 X79.821 Y81.509
G01 F60 X79.782 Y81.496
G01 F60 X79.710 Y81.481
G01 F60 X79.699 Y81.477
G01 F60 X79.604 Y81.477
G01 F60 X79.517 Y81.458
G01 F60 X79.495 Y81.451
G01 F60 X79.477 Y81.451
G01 F60 X79.380 Y81.431
G01 F60 X79.369 Y81.426
G01 F60 X79.350 Y81.426
G01 F60 X79.263 Y81.407
G01 F60 X79.223 Y81.395
G01 F60 X79.151 Y81.380
G01 F60 X79.141 Y81.375
G01 F60 X79.122 Y81.375
G01 F60 X79.021 Y81.354
G01 F60 X79.013 Y81.350
G01 F60 X78.995 Y81.350
G01 F60 X78.899 Y81.329
G01 F60 X78.854 Y81.311
G01 F60 X78.831 Y81.306
G01 F60 X78.791 Y81.293
G01 F60 X78.719 Y81.278
G01 F60 X78.650 Y81.247
G01 F60 X78.635 Y81.242
G01 F60 X78.567 Y81.227
G01 F60 X78.524 Y81.209
G01 F60 X78.491 Y81.202
G01 F60 X78.451 Y81.184
G01 F60 X78.414 Y81.177
G01 F60 X78.375 Y81.159
G01 F60 X78.338 Y81.151
G01 F60 X78.299 Y81.133
G01 F60 X78.262 Y81.126
G01 F60 X78.181 Y81.090
G01 F60 X78.165 Y81.081
G01 F60 X78.131 Y81.074
G01 F60 X78.065 Y81.041
G01 F60 X78.044 Y81.032
G01 F60 X78.008 Y81.024
G01 F60 X77.928 Y80.988
G01 F60 X77.911 Y80.980
G01 F60 X77.881 Y80.973
G01 F60 X77.798 Y80.936
G01 F60 X77.751 Y80.909
G01 F60 X77.686 Y80.877
G01 F60 X77.637 Y80.853
G01 F60 X77.583 Y80.826
G01 F60 X77.535 Y80.802
G01 F60 X77.481 Y80.775
G01 F60 X77.432 Y80.751
G01 F60 X77.384 Y80.727
G01 F60 X77.332 Y80.701
G01 F60 X77.284 Y80.677
G01 F60 X77.231 Y80.653
G01 F60 X77.174 Y80.612
G01 F60 X77.148 Y80.598
G01 F60 X77.090 Y80.555
G01 F60 X77.081 Y80.550
G01 F60 X77.027 Y80.526
G01 F60 X76.959 Y80.477
G01 F60 X76.914 Y80.442
G01 F60 X76.875 Y80.425
G01 F60 X76.818 Y80.383
G01 F60 X76.793 Y80.370
G01 F60 X76.722 Y80.318
G01 F60 X76.702 Y80.298
G01 F60 X76.695 Y80.294
G01 F60 X76.646 Y80.272
G01 F60 X76.569 Y80.216
G01 F60 X76.526 Y80.173
G01 F60 X76.514 Y80.167
G01 F60 X76.448 Y80.119
G01 F60 X76.372 Y80.054
G01 F60 X76.315 Y80.013
G01 F60 X76.247 Y79.945
G01 F60 X76.234 Y79.938
G01 F60 X76.163 Y79.886
G01 F60 X76.128 Y79.851
G01 F60 X75.968 Y79.691
G01 F60 X75.955 Y79.684
G01 F60 X75.880 Y79.629
G01 F60 X75.815 Y79.557
G01 F60 X75.786 Y79.511
G01 F60 X75.777 Y79.506
G01 F60 X75.702 Y79.451
G01 F60 X75.637 Y79.379
G01 F60 X75.606 Y79.329
G01 F60 X75.464 Y79.187
G01 F60 X75.408 Y79.125
G01 F60 X75.373 Y79.069
G01 F60 X75.348 Y79.039
G01 F60 X75.321 Y79.020
G01 F60 X75.256 Y78.947
G01 F60 X75.225 Y78.897
G01 F60 X75.210 Y78.882
G01 F60 X75.154 Y78.820
G01 F60 X75.123 Y78.770
G01 F60 X75.109 Y78.755
G01 F60 X75.053 Y78.693
G01 F60 X75.019 Y78.639
G01 F60 X74.976 Y78.592
G01 F60 X74.943 Y78.537
G01 F60 X74.900 Y78.490
G01 F60 X74.869 Y78.440
G01 F60 X74.855 Y78.425
G01 F60 X74.794 Y78.358
G01 F60 X74.770 Y78.311
G01 F60 X74.743 Y78.282
G01 F60 X74.719 Y78.235
G01 F60 X74.697 Y78.211
G01 F60 X74.663 Y78.156
G01 F60 X74.619 Y78.107
G01 F60 X74.569 Y78.020
G01 F60 X74.538 Y77.925
G01 F60 X74.528 Y77.835
G01 F60 X74.528 Y77.740
G01 F60 X74.538 Y77.650
G01 F60 X74.569 Y77.555
G01 F60 X74.619 Y77.468
G01 F60 X74.686 Y77.394
G01 F60 X74.767 Y77.335
G01 F60 X74.858 Y77.294
G01 F60 X74.956 Y77.273
G01 F60 X75.082 Y77.273
G01 F60 X75.180 Y77.294
G01 F60 X75.271 Y77.335
G01 F60 X75.348 Y77.391
G01 F60 X75.383 Y77.426
G01 F60 X75.416 Y77.459
G01 F60 X75.429 Y77.466
G01 F60 X75.501 Y77.518
G01 F60 X75.543 Y77.561
G01 F60 X75.556 Y77.567
G01 F60 X75.628 Y77.620
G01 F60 X75.663 Y77.655
G01 F60 X75.670 Y77.662
G01 F60 X75.683 Y77.669
G01 F60 X75.755 Y77.721
G01 F60 X75.772 Y77.739
G01 F60 X75.784 Y77.745
G01 F60 X75.856 Y77.797
G01 F60 X75.876 Y77.817
G01 F60 X75.883 Y77.822
G01 F60 X75.931 Y77.843
G01 F60 X76.009 Y77.899
G01 F60 X76.069 Y77.959
G01 F60 X76.079 Y77.969
G01 F60 X76.087 Y77.974
G01 F60 X76.135 Y77.995
G01 F60 X76.192 Y78.037
G01 F60 X76.216 Y78.050
G01 F60 X76.269 Y78.088
G01 F60 X76.305 Y78.108
G01 F60 X76.335 Y78.124
G01 F60 X76.389 Y78.148
G01 F60 X76.446 Y78.189
G01 F60 X76.471 Y78.203
G01 F60 X76.508 Y78.230
G01 F60 X76.526 Y78.234
G01 F60 X76.614 Y78.273
G01 F60 X76.697 Y78.329
G01 F60 X76.707 Y78.334
G01 F60 X76.736 Y78.347
G01 F60 X76.757 Y78.359
G01 F60 X76.786 Y78.372
G01 F60 X76.808 Y78.385
G01 F60 X76.837 Y78.398
G01 F60 X76.887 Y78.426
G01 F60 X76.891 Y78.428
G01 F60 X76.932 Y78.437
G01 F60 X77.015 Y78.474
G01 F60 X77.059 Y78.499
G01 F60 X77.074 Y78.507
G01 F60 X77.126 Y78.531
G01 F60 X77.161 Y78.539
G01 F60 X77.230 Y78.570
G01 F60 X77.245 Y78.575
G01 F60 X77.313 Y78.590
G01 F60 X77.394 Y78.625
G01 F60 X77.410 Y78.634
G01 F60 X77.430 Y78.638
G01 F60 X77.470 Y78.650
G01 F60 X77.545 Y78.666
G01 F60 X77.605 Y78.696
G01 F60 X77.622 Y78.696
G01 F60 X77.720 Y78.717
G01 F60 X77.759 Y78.734
G01 F60 X77.796 Y78.742
G01 F60 X77.806 Y78.746
G01 F60 X77.850 Y78.746
G01 F60 X77.951 Y78.768
G01 F60 X77.959 Y78.772
G01 F60 X77.977 Y78.772
G01 F60 X78.075 Y78.793
G01 F60 X78.086 Y78.797
G01 F60 X78.180 Y78.797
G01 F60 X78.281 Y78.819
G01 F60 X78.289 Y78.823
G01 F60 X78.409 Y78.823
G01 F60 X78.507 Y78.844
G01 F60 X78.517 Y78.848
G01 F60 X78.683 Y78.848
G01 F60 X78.694 Y78.844
G01 F60 X78.792 Y78.823
G01 F60 X78.912 Y78.823
G01 F60 X78.922 Y78.818
G01 F60 X79.020 Y78.797
G01 F60 X79.115 Y78.797
G01 F60 X79.128 Y78.791
G01 F60 X79.202 Y78.778
G01 F60 X79.227 Y78.767
G01 F60 X79.325 Y78.746
G01 F60 X79.369 Y78.746
G01 F60 X79.379 Y78.742
G01 F60 X79.416 Y78.734
G01 F60 X79.458 Y78.715
G01 F60 X79.532 Y78.702
G01 F60 X79.557 Y78.691
G01 F60 X79.594 Y78.683
G01 F60 X79.633 Y78.666
G01 F60 X79.670 Y78.658
G01 F60 X79.712 Y78.639
G01 F60 X79.778 Y78.627
G01 F60 X79.784 Y78.624
G01 F60 X79.864 Y78.589
G01 F60 X79.890 Y78.584
G01 F60 X79.907 Y78.575
G01 F60 X79.958 Y78.550
G01 F60 X80.015 Y78.521
G01 F60 X80.073 Y78.498
G01 F60 X80.103 Y78.476
G01 F60 X80.174 Y78.447
G01 F60 X80.199 Y78.429
G01 F60 X80.263 Y78.397
G01 F60 X80.314 Y78.372
G01 F60 X80.364 Y78.347
G01 F60 X80.426 Y78.315
G01 F60 X80.476 Y78.279
G01 F60 X80.501 Y78.265
G01 F60 X80.553 Y78.228
G01 F60 X80.577 Y78.215
G01 F60 X80.629 Y78.177
G01 F60 X80.653 Y78.164
G01 F60 X80.701 Y78.129
G01 F60 X80.730 Y78.112
G01 F60 X80.736 Y78.105
G01 F60 X80.782 Y78.054
G01 F60 X80.854 Y78.001
G01 F60 X80.877 Y77.988
G01 F60 X80.880 Y77.985
G01 F60 X80.909 Y77.953
G01 F60 X80.975 Y77.904
G01 F60 X81.014 Y77.876
G01 F60 X81.039 Y77.851
G01 F60 X81.071 Y77.821
G01 F60 X81.109 Y77.781
G01 F60 X81.118 Y77.771
G01 F60 X81.148 Y77.719
G01 F60 X81.218 Y77.647
G01 F60 X81.250 Y77.593
G01 F60 X81.290 Y77.550
G01 F60 X81.306 Y77.518
G01 F60 X81.350 Y77.443
G01 F60 X81.369 Y77.422
G01 F60 X81.395 Y77.377
G01 F60 X81.409 Y77.356
G01 F60 X81.427 Y77.301
G01 F60 X81.477 Y77.214
G01 F60 X81.491 Y77.198
G01 F60 X81.507 Y77.165
G01 F60 X81.554 Y77.022
G01 F60 X81.584 Y76.933
G01 F60 X81.584 Y76.933
G01 F60 X81.590 Y76.916
G01 F60 X81.590 Y76.877
G01 F60 X81.599 Y76.786
G01 F60 X81.615 Y76.737
G01 F60 X81.615 Y76.679
G01 F60 X81.599 Y76.630
G01 F60 X81.590 Y76.539
G01 F60 X81.590 Y76.527
G01 F60 X81.574 Y76.480
G01 F60 X81.555 Y76.421
G01 F60 X81.554 Y76.420
G01 F60 X81.554 Y76.418
G01 F60 X81.550 Y76.406
G01 F60 X81.532 Y76.375
G01 F60 X81.511 Y76.325
G01 F60 X81.480 Y76.265
G01 F60 X81.470 Y76.248
G01 F60 X81.452 Y76.228
G01 F60 X81.420 Y76.172
G01 F60 X81.403 Y76.153
G01 F60 X81.371 Y76.103
G01 F60 X81.327 Y76.059
G01 F60 X81.315 Y76.052
G01 F60 X81.263 Y76.014
G01 F60 X81.238 Y76.001
G01 F60 X81.166 Y75.949
G01 F60 X81.147 Y75.929
G01 F60 X81.139 Y75.925
G01 F60 X81.091 Y75.903
G01 F60 X81.035 Y75.862
G01 F60 X81.010 Y75.849
G01 F60 X80.980 Y75.843
G01 F60 X80.897 Y75.806
G01 F60 X80.853 Y75.781
G01 F60 X80.809 Y75.761
G01 F60 X80.794 Y75.755
G01 F60 X80.726 Y75.741
G01 F60 X80.686 Y75.723
G01 F60 X80.660 Y75.718
G01 F60 X80.620 Y75.705
G01 F60 X80.558 Y75.692
G01 F60 X80.518 Y75.680
G01 F60 X80.444 Y75.664
G01 F60 X80.435 Y75.660
G01 F60 X80.392 Y75.660
G01 F60 X80.294 Y75.639
G01 F60 X80.284 Y75.635
G01 F60 X80.189 Y75.635
G01 F60 X80.091 Y75.614
G01 F60 X80.080 Y75.609
G01 F60 X79.711 Y75.609
G01 F60 X79.701 Y75.614
G01 F60 X79.603 Y75.635
G01 F60 X79.457 Y75.635
G01 F60 X79.447 Y75.639
G01 F60 X79.349 Y75.660
G01 F60 X79.255 Y75.660
G01 F60 X79.231 Y75.668
G01 F60 X79.167 Y75.679
G01 F60 X79.142 Y75.690
G01 F60 X79.044 Y75.711
G01 F60 X79.025 Y75.711
G01 F60 X79.015 Y75.716
G01 F60 X78.978 Y75.723
G01 F60 X78.939 Y75.741
G01 F60 X78.841 Y75.762
G01 F60 X78.829 Y75.762
G01 F60 X78.758 Y75.793
G01 F60 X78.684 Y75.806
G01 F60 X78.659 Y75.817
G01 F60 X78.623 Y75.825
G01 F60 X78.583 Y75.843
G01 F60 X78.554 Y75.849
G01 F60 X78.535 Y75.858
G01 F60 X78.456 Y75.893
G01 F60 X78.427 Y75.900
G01 F60 X78.405 Y75.911
G01 F60 X78.347 Y75.934
G01 F60 X78.319 Y75.954
G01 F60 X78.234 Y75.992
G01 F60 X78.209 Y76.000
G01 F60 X78.170 Y76.028
G01 F60 X78.109 Y76.059
G01 F60 X78.097 Y76.065
G01 F60 X78.043 Y76.104
G01 F60 X78.032 Y76.110
G01 F60 X78.019 Y76.124
G01 F60 X77.946 Y76.177
G01 F60 X77.930 Y76.187
G01 F60 X77.917 Y76.200
G01 F60 X77.844 Y76.254
G01 F60 X77.821 Y76.267
G01 F60 X77.807 Y76.280
G01 F60 X77.753 Y76.335
G01 F60 X77.721 Y76.371
G01 F60 X77.667 Y76.420
G01 F60 X77.641 Y76.446
G01 F60 X77.613 Y76.475
G01 F60 X77.608 Y76.480
G01 F60 X77.576 Y76.535
G01 F60 X77.507 Y76.607
G01 F60 X77.476 Y76.659
G01 F60 X77.458 Y76.680
G01 F60 X77.425 Y76.736
