( PCB Contour )
( Generated by Rapid-PCB.com )
( Material Size)
( X= 110.000, Y= 70.000, Z= 1.580)
()
G00
G17
G21
G40
G49
G54
G80
G90
G94
G00 F3000 Z3.000
M03 S9000
G00 F3000 X6.291 Y69.223
G00 F1500 Z0
G01 F600 Z-0.200
G01 F600 X6.291 Y69.198
G01 F600 X6.266 Y69.198
G01 F600 X6.266 Y69.172
G01 F600 X6.240 Y69.172
G01 F600 X6.240 Y68.740
G01 F600 X5.834 Y68.740
G01 F600 X5.834 Y68.715
G01 F600 X5.783 Y68.715
G01 F600 X5.783 Y68.690
G01 F600 X5.758 Y68.690
G01 F600 X5.758 Y68.664
G01 F600 X5.732 Y68.664
G01 F600 X5.732 Y68.191
G01 F600 X5.758 Y68.191
G01 F600 X5.758 Y68.166
G01 F600 X5.783 Y68.166
G01 F600 X5.783 Y68.140
G01 F600 X6.215 Y68.140
G01 F600 X6.215 Y68.115
G01 F600 X6.240 Y68.115
G01 F600 X6.240 Y67.683
G01 F600 X6.266 Y67.683
G01 F600 X6.266 Y67.658
G01 F600 X6.291 Y67.658
G01 F600 X6.291 Y67.632
G01 F600 X6.764 Y67.632
G01 F600 X6.764 Y67.658
G01 F600 X6.815 Y67.658
G01 F600 X6.815 Y67.709
G01 F600 X6.841 Y67.709
G01 F600 X6.841 Y68.140
G01 F600 X7.272 Y68.140
G01 F600 X7.272 Y68.166
G01 F600 X7.323 Y68.166
G01 F600 X7.323 Y68.216
G01 F600 X7.349 Y68.216
G01 F600 X7.349 Y68.639
G01 F600 X7.323 Y68.639
G01 F600 X7.323 Y68.690
G01 F600 X7.298 Y68.690
G01 F600 X7.298 Y68.715
G01 F600 X7.247 Y68.715
G01 F600 X7.247 Y68.740
G01 F600 X6.841 Y68.740
G01 F600 X6.841 Y69.147
G01 F600 X6.815 Y69.147
G01 F600 X6.815 Y69.198
G01 F600 X6.790 Y69.198
G01 F600 X6.790 Y69.223
G01 F600 X6.291 Y69.223
G00 F3000 Z3.000
G00 F3000 X53.422 Y68.976
G00 F1500 Z0
G01 F600 Z-0.200
G01 F600 X53.183 Y68.926
G01 F600 X52.961 Y68.827
G01 F600 X52.764 Y68.683
G01 F600 X52.601 Y68.502
G01 F600 X52.481 Y68.294
G01 F600 X41.862 Y68.294
G01 F600 X41.755 Y68.480
G01 F600 X41.597 Y68.655
G01 F600 X41.406 Y68.794
G01 F600 X41.191 Y68.889
G01 F600 X40.961 Y68.938
G01 F600 X40.726 Y68.938
G01 F600 X40.495 Y68.889
G01 F600 X40.280 Y68.794
G01 F600 X40.090 Y68.655
G01 F600 X39.932 Y68.480
G01 F600 X39.814 Y68.276
G01 F600 X39.741 Y68.052
G01 F600 X39.717 Y67.818
G01 F600 X39.741 Y67.584
G01 F600 X39.814 Y67.360
G01 F600 X39.932 Y67.156
G01 F600 X40.090 Y66.981
G01 F600 X40.280 Y66.843
G01 F600 X40.495 Y66.747
G01 F600 X40.726 Y66.698
G01 F600 X40.961 Y66.698
G01 F600 X41.191 Y66.747
G01 F600 X41.406 Y66.843
G01 F600 X41.597 Y66.981
G01 F600 X41.755 Y67.156
G01 F600 X41.862 Y67.342
G01 F600 X52.481 Y67.342
G01 F600 X52.601 Y67.133
G01 F600 X52.764 Y66.953
G01 F600 X52.961 Y66.809
G01 F600 X53.183 Y66.710
G01 F600 X53.422 Y66.660
G01 F600 X53.665 Y66.660
G01 F600 X53.903 Y66.710
G01 F600 X54.126 Y66.809
G01 F600 X54.322 Y66.953
G01 F600 X54.485 Y67.133
G01 F600 X54.606 Y67.342
G01 F600 X55.021 Y67.342
G01 F600 X55.141 Y67.133
G01 F600 X55.304 Y66.953
G01 F600 X55.501 Y66.809
G01 F600 X55.723 Y66.710
G01 F600 X55.962 Y66.660
G01 F600 X56.205 Y66.660
G01 F600 X56.443 Y66.710
G01 F600 X56.666 Y66.809
G01 F600 X56.862 Y66.953
G01 F600 X57.025 Y67.133
G01 F600 X57.146 Y67.342
G01 F600 X57.561 Y67.342
G01 F600 X57.681 Y67.133
G01 F600 X57.844 Y66.953
G01 F600 X58.041 Y66.809
G01 F600 X58.263 Y66.710
G01 F600 X58.502 Y66.660
G01 F600 X58.745 Y66.660
G01 F600 X58.983 Y66.710
G01 F600 X59.206 Y66.809
G01 F600 X59.402 Y66.953
G01 F600 X59.565 Y67.133
G01 F600 X59.686 Y67.342
G01 F600 X60.101 Y67.342
G01 F600 X60.221 Y67.133
G01 F600 X60.384 Y66.953
G01 F600 X60.581 Y66.809
G01 F600 X60.803 Y66.710
G01 F600 X61.042 Y66.660
G01 F600 X61.285 Y66.660
G01 F600 X61.523 Y66.710
G01 F600 X61.745 Y66.809
G01 F600 X61.942 Y66.953
G01 F600 X62.105 Y67.133
G01 F600 X62.226 Y67.342
G01 F600 X62.641 Y67.342
G01 F600 X62.761 Y67.133
G01 F600 X62.924 Y66.953
G01 F600 X63.121 Y66.809
G01 F600 X63.343 Y66.710
G01 F600 X63.582 Y66.660
G01 F600 X63.825 Y66.660
G01 F600 X64.063 Y66.710
G01 F600 X64.285 Y66.809
G01 F600 X64.482 Y66.953
G01 F600 X64.645 Y67.133
G01 F600 X64.766 Y67.342
G01 F600 X65.181 Y67.342
G01 F600 X65.301 Y67.133
G01 F600 X65.464 Y66.953
G01 F600 X65.661 Y66.809
G01 F600 X65.883 Y66.710
G01 F600 X66.121 Y66.660
G01 F600 X66.365 Y66.660
G01 F600 X66.603 Y66.710
G01 F600 X66.826 Y66.809
G01 F600 X67.022 Y66.953
G01 F600 X67.185 Y67.133
G01 F600 X67.306 Y67.342
G01 F600 X67.721 Y67.342
G01 F600 X67.841 Y67.133
G01 F600 X68.004 Y66.953
G01 F600 X68.201 Y66.809
G01 F600 X68.423 Y66.710
G01 F600 X68.662 Y66.660
G01 F600 X68.905 Y66.660
G01 F600 X69.143 Y66.710
G01 F600 X69.365 Y66.809
G01 F600 X69.562 Y66.953
G01 F600 X69.725 Y67.133
G01 F600 X69.847 Y67.344
G01 F600 X69.922 Y67.576
G01 F600 X69.948 Y67.818
G01 F600 X69.922 Y68.060
G01 F600 X69.847 Y68.292
G01 F600 X69.725 Y68.502
G01 F600 X69.562 Y68.683
G01 F600 X69.365 Y68.827
G01 F600 X69.143 Y68.926
G01 F600 X68.905 Y68.976
G01 F600 X68.662 Y68.976
G01 F600 X68.423 Y68.926
G01 F600 X68.201 Y68.827
G01 F600 X68.004 Y68.683
G01 F600 X67.841 Y68.502
G01 F600 X67.721 Y68.294
G01 F600 X67.306 Y68.294
G01 F600 X67.185 Y68.502
G01 F600 X67.022 Y68.683
G01 F600 X66.826 Y68.827
G01 F600 X66.603 Y68.926
G01 F600 X66.365 Y68.976
G01 F600 X66.121 Y68.976
G01 F600 X65.883 Y68.926
G01 F600 X65.661 Y68.827
G01 F600 X65.464 Y68.683
G01 F600 X65.301 Y68.502
G01 F600 X65.181 Y68.294
G01 F600 X64.766 Y68.294
G01 F600 X64.645 Y68.502
G01 F600 X64.482 Y68.683
G01 F600 X64.285 Y68.827
G01 F600 X64.063 Y68.926
G01 F600 X63.825 Y68.976
G01 F600 X63.582 Y68.976
G01 F600 X63.343 Y68.926
G01 F600 X63.121 Y68.827
G01 F600 X62.924 Y68.683
G01 F600 X62.761 Y68.502
G01 F600 X62.641 Y68.294
G01 F600 X62.226 Y68.294
G01 F600 X62.105 Y68.502
G01 F600 X61.942 Y68.683
G01 F600 X61.745 Y68.827
G01 F600 X61.523 Y68.926
G01 F600 X61.285 Y68.976
G01 F600 X61.042 Y68.976
G01 F600 X60.803 Y68.926
G01 F600 X60.581 Y68.827
G01 F600 X60.384 Y68.683
G01 F600 X60.221 Y68.502
G01 F600 X60.101 Y68.294
G01 F600 X59.686 Y68.294
G01 F600 X59.565 Y68.502
G01 F600 X59.402 Y68.683
G01 F600 X59.206 Y68.827
G01 F600 X58.983 Y68.926
G01 F600 X58.745 Y68.976
G01 F600 X58.502 Y68.976
G01 F600 X58.263 Y68.926
G01 F600 X58.041 Y68.827
G01 F600 X57.844 Y68.683
G01 F600 X57.681 Y68.502
G01 F600 X57.561 Y68.294
G01 F600 X57.146 Y68.294
G01 F600 X57.025 Y68.502
G01 F600 X56.862 Y68.683
G01 F600 X56.666 Y68.827
G01 F600 X56.443 Y68.926
G01 F600 X56.205 Y68.976
G01 F600 X55.962 Y68.976
G01 F600 X55.723 Y68.926
G01 F600 X55.501 Y68.827
G01 F600 X55.304 Y68.683
G01 F600 X55.141 Y68.502
G01 F600 X55.021 Y68.294
G01 F600 X54.606 Y68.294
G01 F600 X54.485 Y68.502
G01 F600 X54.322 Y68.683
G01 F600 X54.126 Y68.827
G01 F600 X53.903 Y68.926
G01 F600 X53.665 Y68.976
G01 F600 X53.422 Y68.976
G00 F3000 Z3.000
G00 F3000 X2.151 Y68.740
G00 F1500 Z0
G01 F600 Z-0.200
G01 F600 X2.151 Y68.715
G01 F600 X2.100 Y68.715
G01 F600 X2.100 Y68.690
G01 F600 X2.075 Y68.690
G01 F600 X2.075 Y68.090
G01 F600 X2.100 Y68.090
G01 F600 X2.100 Y68.039
G01 F600 X2.177 Y68.039
G01 F600 X2.177 Y68.013
G01 F600 X3.564 Y68.013
G01 F600 X3.564 Y68.039
G01 F600 X3.615 Y68.039
G01 F600 X3.615 Y68.064
G01 F600 X3.640 Y68.064
G01 F600 X3.640 Y68.090
G01 F600 X3.666 Y68.090
G01 F600 X3.666 Y68.664
G01 F600 X3.640 Y68.664
G01 F600 X3.640 Y68.690
G01 F600 X3.615 Y68.690
G01 F600 X3.615 Y68.715
G01 F600 X3.564 Y68.715
G01 F600 X3.564 Y68.740
G01 F600 X2.151 Y68.740
G00 F3000 Z3.000
G00 F3000 X73.813 Y68.269
G00 F1500 Z0
G01 F600 Z-0.200
G01 F600 X73.715 Y68.248
G01 F600 X73.624 Y68.207
G01 F600 X73.543 Y68.148
G01 F600 X73.476 Y68.074
G01 F600 X73.426 Y67.987
G01 F600 X73.395 Y67.892
G01 F600 X73.385 Y67.802
G01 F600 X73.385 Y58.672
G01 F600 X73.300 Y58.634
G01 F600 X73.109 Y58.495
G01 F600 X72.952 Y58.320
G01 F600 X72.834 Y58.116
G01 F600 X72.761 Y57.892
G01 F600 X72.737 Y57.658
G01 F600 X72.761 Y57.424
G01 F600 X72.834 Y57.200
G01 F600 X72.952 Y56.996
G01 F600 X73.109 Y56.821
G01 F600 X73.300 Y56.683
G01 F600 X73.515 Y56.587
G01 F600 X73.746 Y56.538
G01 F600 X73.981 Y56.538
G01 F600 X74.211 Y56.587
G01 F600 X74.426 Y56.683
G01 F600 X74.617 Y56.821
G01 F600 X74.775 Y56.996
G01 F600 X74.892 Y57.200
G01 F600 X74.965 Y57.424
G01 F600 X74.990 Y57.658
G01 F600 X74.965 Y57.892
G01 F600 X74.892 Y58.116
G01 F600 X74.775 Y58.320
G01 F600 X74.617 Y58.495
G01 F600 X74.426 Y58.634
G01 F600 X74.341 Y58.672
G01 F600 X74.341 Y67.317
G01 F600 X101.325 Y67.317
G01 F600 X101.325 Y61.212
G01 F600 X101.240 Y61.174
G01 F600 X101.050 Y61.035
G01 F600 X100.892 Y60.860
G01 F600 X100.774 Y60.656
G01 F600 X100.701 Y60.432
G01 F600 X100.677 Y60.198
G01 F600 X100.701 Y59.964
G01 F600 X100.774 Y59.740
G01 F600 X100.892 Y59.536
G01 F600 X101.050 Y59.361
G01 F600 X101.240 Y59.223
G01 F600 X101.455 Y59.127
G01 F600 X101.686 Y59.078
G01 F600 X101.921 Y59.078
G01 F600 X102.151 Y59.127
G01 F600 X102.366 Y59.223
G01 F600 X102.557 Y59.361
G01 F600 X102.715 Y59.536
G01 F600 X102.832 Y59.740
G01 F600 X102.905 Y59.964
G01 F600 X102.930 Y60.198
G01 F600 X102.905 Y60.432
G01 F600 X102.832 Y60.656
G01 F600 X102.715 Y60.860
G01 F600 X102.557 Y61.035
G01 F600 X102.366 Y61.174
G01 F600 X102.281 Y61.212
G01 F600 X102.281 Y67.802
G01 F600 X102.272 Y67.892
G01 F600 X102.241 Y67.987
G01 F600 X102.191 Y68.074
G01 F600 X102.124 Y68.148
G01 F600 X102.043 Y68.207
G01 F600 X101.951 Y68.248
G01 F600 X101.853 Y68.269
G01 F600 X73.813 Y68.269
G00 F3000 Z3.000
G00 F3000 X1.554 Y66.467
G00 F1500 Z0
G01 F600 Z-0.200
G01 F600 X1.554 Y64.089
G01 F600 X1.985 Y64.089
G01 F600 X1.979 Y58.483
G01 F600 X1.832 Y58.320
G01 F600 X1.714 Y58.116
G01 F600 X1.641 Y57.892
G01 F600 X1.617 Y57.658
G01 F600 X1.641 Y57.424
G01 F600 X1.714 Y57.200
G01 F600 X1.832 Y56.996
G01 F600 X1.977 Y56.835
G01 F600 X1.966 Y45.769
G01 F600 X1.832 Y45.620
G01 F600 X1.714 Y45.416
G01 F600 X1.641 Y45.192
G01 F600 X1.617 Y44.958
G01 F600 X1.641 Y44.724
G01 F600 X1.714 Y44.500
G01 F600 X1.832 Y44.296
G01 F600 X1.964 Y44.149
G01 F600 X1.961 Y41.004
G01 F600 X1.618 Y41.004
G01 F600 X1.618 Y38.753
G01 F600 X1.961 Y38.753
G01 F600 X1.961 Y37.329
G01 F600 X1.977 Y37.175
G01 F600 X2.027 Y37.019
G01 F600 X2.109 Y36.877
G01 F600 X2.219 Y36.756
G01 F600 X2.265 Y36.722
G01 F600 X2.265 Y24.629
G01 F600 X2.275 Y24.539
G01 F600 X2.306 Y24.443
G01 F600 X2.356 Y24.357
G01 F600 X2.414 Y24.292
G01 F600 X4.966 Y21.739
G01 F600 X5.044 Y21.683
G01 F600 X5.135 Y21.643
G01 F600 X5.233 Y21.622
G01 F600 X5.316 Y21.622
G01 F600 X6.736 Y21.642
G01 F600 X6.736 Y21.061
G01 F600 X8.860 Y21.061
G01 F600 X8.860 Y23.185
G01 F600 X6.736 Y23.185
G01 F600 X6.736 Y22.595
G01 F600 X5.479 Y22.577
G01 F600 X3.221 Y24.835
G01 F600 X3.221 Y36.559
G01 F600 X6.736 Y36.559
G01 F600 X6.736 Y36.301
G01 F600 X7.703 Y36.301
G01 F600 X7.705 Y36.299
G01 F600 X7.838 Y36.202
G01 F600 X7.988 Y36.136
G01 F600 X8.148 Y36.102
G01 F600 X8.312 Y36.102
G01 F600 X8.472 Y36.136
G01 F600 X8.621 Y36.202
G01 F600 X8.754 Y36.299
G01 F600 X8.815 Y36.367
G01 F600 X8.864 Y36.420
G01 F600 X8.945 Y36.562
G01 F600 X8.996 Y36.718
G01 F600 X9.013 Y36.881
G01 F600 X8.996 Y37.044
G01 F600 X8.945 Y37.200
G01 F600 X8.864 Y37.341
G01 F600 X8.860 Y37.345
G01 F600 X8.860 Y38.425
G01 F600 X6.736 Y38.425
G01 F600 X6.736 Y38.117
G01 F600 X3.526 Y38.117
G01 F600 X3.526 Y38.753
G01 F600 X3.869 Y38.753
G01 F600 X3.869 Y41.004
G01 F600 X3.526 Y41.004
G01 F600 X3.532 Y44.159
G01 F600 X3.655 Y44.296
G01 F600 X3.772 Y44.500
G01 F600 X3.845 Y44.724
G01 F600 X3.870 Y44.958
G01 F600 X3.845 Y45.192
G01 F600 X3.772 Y45.416
G01 F600 X3.654 Y45.622
G01 F600 X3.534 Y45.748
G01 F600 X3.553 Y56.884
G01 F600 X3.655 Y56.996
G01 F600 X3.772 Y57.200
G01 F600 X3.845 Y57.424
G01 F600 X3.870 Y57.658
G01 F600 X3.845 Y57.892
G01 F600 X3.772 Y58.116
G01 F600 X3.654 Y58.321
G01 F600 X3.544 Y58.440
G01 F600 X3.550 Y64.089
G01 F600 X3.932 Y64.089
G01 F600 X3.932 Y64.507
G01 F600 X4.052 Y64.533
G01 F600 X4.202 Y64.599
G01 F600 X4.334 Y64.696
G01 F600 X4.444 Y64.817
G01 F600 X4.526 Y64.959
G01 F600 X4.576 Y65.115
G01 F600 X4.594 Y65.278
G01 F600 X4.576 Y65.441
G01 F600 X4.526 Y65.597
G01 F600 X4.444 Y65.739
G01 F600 X4.334 Y65.860
G01 F600 X4.202 Y65.957
G01 F600 X4.052 Y66.023
G01 F600 X3.932 Y66.049
G01 F600 X3.932 Y66.467
G01 F600 X1.554 Y66.467
G00 F3000 Z3.000
G00 F3000 X6.124 Y66.461
G00 F1500 Z0
G01 F600 Z-0.200
G01 F600 X5.881 Y66.410
G01 F600 X5.653 Y66.309
G01 F600 X5.452 Y66.162
G01 F600 X5.286 Y65.977
G01 F600 X5.161 Y65.762
G01 F600 X5.085 Y65.525
G01 F600 X5.058 Y65.278
G01 F600 X5.085 Y65.031
G01 F600 X5.162 Y64.792
G01 F600 X5.232 Y64.676
G01 F600 X5.178 Y64.583
G01 F600 X4.613 Y62.991
G01 F600 X4.568 Y62.850
G01 F600 X4.551 Y62.697
G01 F600 X4.501 Y57.659
G01 F600 X4.501 Y40.683
G01 F600 X4.372 Y40.540
G01 F600 X4.254 Y40.336
G01 F600 X4.181 Y40.112
G01 F600 X4.157 Y39.878
G01 F600 X4.181 Y39.644
G01 F600 X4.254 Y39.420
G01 F600 X4.372 Y39.216
G01 F600 X4.530 Y39.041
G01 F600 X4.720 Y38.903
G01 F600 X4.935 Y38.807
G01 F600 X5.166 Y38.758
G01 F600 X5.401 Y38.758
G01 F600 X5.631 Y38.807
G01 F600 X5.846 Y38.903
G01 F600 X6.037 Y39.041
G01 F600 X6.089 Y39.099
G01 F600 X7.079 Y39.122
G01 F600 X7.087 Y39.113
G01 F600 X7.266 Y38.983
G01 F600 X7.469 Y38.893
G01 F600 X7.687 Y38.846
G01 F600 X7.909 Y38.846
G01 F600 X8.126 Y38.893
G01 F600 X8.329 Y38.983
G01 F600 X8.509 Y39.114
G01 F600 X8.658 Y39.279
G01 F600 X8.769 Y39.471
G01 F600 X8.838 Y39.682
G01 F600 X8.861 Y39.903
G01 F600 X8.838 Y40.124
G01 F600 X8.769 Y40.336
G01 F600 X8.658 Y40.528
G01 F600 X8.509 Y40.693
G01 F600 X8.329 Y40.824
G01 F600 X8.126 Y40.914
G01 F600 X7.909 Y40.961
G01 F600 X7.687 Y40.961
G01 F600 X7.469 Y40.914
G01 F600 X7.266 Y40.824
G01 F600 X7.087 Y40.693
G01 F600 X7.077 Y40.683
G01 F600 X7.046 Y40.683
G01 F600 X6.086 Y40.660
G01 F600 X6.066 Y40.683
G01 F600 X6.066 Y46.719
G01 F600 X27.361 Y46.719
G01 F600 X27.361 Y42.409
G01 F600 X27.377 Y42.255
G01 F600 X27.427 Y42.099
G01 F600 X27.509 Y41.957
G01 F600 X27.619 Y41.836
G01 F600 X27.665 Y41.802
G01 F600 X27.665 Y40.892
G01 F600 X27.580 Y40.854
G01 F600 X27.390 Y40.715
G01 F600 X27.232 Y40.540
G01 F600 X27.114 Y40.336
G01 F600 X27.041 Y40.112
G01 F600 X27.017 Y39.878
G01 F600 X27.041 Y39.644
G01 F600 X27.114 Y39.420
G01 F600 X27.232 Y39.216
G01 F600 X27.390 Y39.041
G01 F600 X27.580 Y38.903
G01 F600 X27.795 Y38.807
G01 F600 X28.026 Y38.758
G01 F600 X28.261 Y38.758
G01 F600 X28.491 Y38.807
G01 F600 X28.706 Y38.903
G01 F600 X28.897 Y39.041
G01 F600 X28.949 Y39.099
G01 F600 X29.962 Y39.099
G01 F600 X29.972 Y39.088
G01 F600 X30.152 Y38.958
G01 F600 X30.355 Y38.867
G01 F600 X30.572 Y38.821
G01 F600 X30.794 Y38.821
G01 F600 X31.012 Y38.867
G01 F600 X31.215 Y38.958
G01 F600 X31.395 Y39.088
G01 F600 X31.543 Y39.253
G01 F600 X31.654 Y39.446
G01 F600 X31.723 Y39.657
G01 F600 X31.746 Y39.878
G01 F600 X31.723 Y40.099
G01 F600 X31.654 Y40.310
G01 F600 X31.543 Y40.503
G01 F600 X31.395 Y40.668
G01 F600 X31.215 Y40.799
G01 F600 X31.012 Y40.889
G01 F600 X30.794 Y40.935
G01 F600 X30.572 Y40.935
G01 F600 X30.355 Y40.889
G01 F600 X30.152 Y40.799
G01 F600 X29.972 Y40.668
G01 F600 X29.962 Y40.657
G01 F600 X28.949 Y40.657
G01 F600 X28.897 Y40.715
G01 F600 X28.706 Y40.854
G01 F600 X28.621 Y40.892
G01 F600 X28.621 Y41.638
G01 F600 X50.192 Y41.590
G01 F600 X50.218 Y40.680
G01 F600 X50.092 Y40.540
G01 F600 X49.974 Y40.336
G01 F600 X49.901 Y40.112
G01 F600 X49.877 Y39.878
G01 F600 X49.901 Y39.644
G01 F600 X49.974 Y39.420
G01 F600 X50.092 Y39.216
G01 F600 X50.250 Y39.041
G01 F600 X50.440 Y38.903
G01 F600 X50.655 Y38.807
G01 F600 X50.886 Y38.758
G01 F600 X51.121 Y38.758
G01 F600 X51.351 Y38.807
G01 F600 X51.566 Y38.903
G01 F600 X51.757 Y39.041
G01 F600 X51.809 Y39.099
G01 F600 X52.822 Y39.099
G01 F600 X52.832 Y39.088
G01 F600 X53.012 Y38.958
G01 F600 X53.215 Y38.867
G01 F600 X53.432 Y38.821
G01 F600 X53.654 Y38.821
G01 F600 X53.872 Y38.867
G01 F600 X54.075 Y38.958
G01 F600 X54.255 Y39.088
G01 F600 X54.403 Y39.253
G01 F600 X54.514 Y39.446
G01 F600 X54.583 Y39.657
G01 F600 X54.606 Y39.878
G01 F600 X54.583 Y40.099
G01 F600 X54.514 Y40.310
G01 F600 X54.403 Y40.503
G01 F600 X54.255 Y40.668
G01 F600 X54.075 Y40.799
G01 F600 X53.872 Y40.889
G01 F600 X53.654 Y40.935
G01 F600 X53.432 Y40.935
G01 F600 X53.215 Y40.889
G01 F600 X53.012 Y40.799
G01 F600 X52.832 Y40.668
G01 F600 X52.822 Y40.657
G01 F600 X51.809 Y40.657
G01 F600 X51.783 Y40.686
G01 F600 X51.735 Y42.379
G01 F600 X51.719 Y42.530
G01 F600 X51.668 Y42.686
G01 F600 X51.586 Y42.828
G01 F600 X51.477 Y42.950
G01 F600 X51.344 Y43.046
G01 F600 X51.195 Y43.112
G01 F600 X51.035 Y43.146
G01 F600 X28.926 Y43.196
G01 F600 X28.926 Y47.507
G01 F600 X28.910 Y47.661
G01 F600 X28.859 Y47.817
G01 F600 X28.777 Y47.959
G01 F600 X28.668 Y48.080
G01 F600 X28.535 Y48.177
G01 F600 X28.385 Y48.243
G01 F600 X28.225 Y48.277
G01 F600 X6.068 Y48.277
G01 F600 X6.081 Y52.078
G01 F600 X22.045 Y52.101
G01 F600 X22.152 Y51.916
G01 F600 X22.309 Y51.741
G01 F600 X22.500 Y51.602
G01 F600 X22.715 Y51.507
G01 F600 X22.946 Y51.458
G01 F600 X23.181 Y51.458
G01 F600 X23.411 Y51.507
G01 F600 X23.626 Y51.602
G01 F600 X23.817 Y51.741
G01 F600 X23.975 Y51.916
G01 F600 X24.092 Y52.120
G01 F600 X24.165 Y52.344
G01 F600 X24.190 Y52.578
G01 F600 X24.165 Y52.812
G01 F600 X24.092 Y53.036
G01 F600 X23.975 Y53.240
G01 F600 X23.817 Y53.415
G01 F600 X23.626 Y53.553
G01 F600 X23.411 Y53.649
G01 F600 X23.181 Y53.698
G01 F600 X22.946 Y53.698
G01 F600 X22.715 Y53.649
G01 F600 X22.500 Y53.553
G01 F600 X22.309 Y53.415
G01 F600 X22.152 Y53.240
G01 F600 X22.044 Y53.054
G01 F600 X6.084 Y53.030
G01 F600 X6.116 Y62.557
G01 F600 X6.614 Y63.958
G01 F600 X6.659 Y64.099
G01 F600 X6.667 Y64.169
G01 F600 X6.843 Y64.248
G01 F600 X7.045 Y64.394
G01 F600 X7.211 Y64.579
G01 F600 X7.336 Y64.794
G01 F600 X7.338 Y64.802
G01 F600 X45.770 Y64.802
G01 F600 X47.985 Y62.496
G01 F600 X47.985 Y61.096
G01 F600 X47.953 Y61.081
G01 F600 X47.781 Y60.956
G01 F600 X47.638 Y60.797
G01 F600 X47.532 Y60.613
G01 F600 X47.466 Y60.410
G01 F600 X47.443 Y60.198
G01 F600 X47.466 Y59.986
G01 F600 X47.532 Y59.783
G01 F600 X47.638 Y59.599
G01 F600 X47.781 Y59.440
G01 F600 X47.953 Y59.315
G01 F600 X48.148 Y59.228
G01 F600 X48.357 Y59.184
G01 F600 X48.570 Y59.184
G01 F600 X48.778 Y59.228
G01 F600 X48.973 Y59.315
G01 F600 X49.146 Y59.440
G01 F600 X49.288 Y59.599
G01 F600 X49.395 Y59.783
G01 F600 X49.461 Y59.986
G01 F600 X49.483 Y60.198
G01 F600 X49.461 Y60.410
G01 F600 X49.395 Y60.613
G01 F600 X49.288 Y60.797
G01 F600 X49.146 Y60.956
G01 F600 X48.973 Y61.081
G01 F600 X48.941 Y61.096
G01 F600 X48.941 Y62.696
G01 F600 X48.931 Y62.787
G01 F600 X48.901 Y62.882
G01 F600 X48.851 Y62.969
G01 F600 X48.794 Y63.032
G01 F600 X46.292 Y65.635
G01 F600 X46.213 Y65.693
G01 F600 X46.122 Y65.733
G01 F600 X46.024 Y65.754
G01 F600 X7.338 Y65.754
G01 F600 X7.336 Y65.762
G01 F600 X7.211 Y65.977
G01 F600 X7.045 Y66.162
G01 F600 X6.843 Y66.309
G01 F600 X6.616 Y66.410
G01 F600 X6.373 Y66.461
G01 F600 X6.124 Y66.461
G00 F3000 Z3.000
G00 F3000 X53.422 Y66.436
G00 F1500 Z0
G01 F600 Z-0.200
G01 F600 X53.183 Y66.386
G01 F600 X52.961 Y66.287
G01 F600 X52.764 Y66.143
G01 F600 X52.601 Y65.963
G01 F600 X52.481 Y65.754
G01 F600 X50.928 Y65.754
G01 F600 X50.830 Y65.733
G01 F600 X50.738 Y65.693
G01 F600 X50.658 Y65.634
G01 F600 X50.591 Y65.559
G01 F600 X50.540 Y65.473
G01 F600 X50.510 Y65.377
G01 F600 X50.500 Y65.287
G01 F600 X50.532 Y60.423
G01 F600 X50.515 Y60.393
G01 F600 X50.484 Y60.297
G01 F600 X50.474 Y60.205
G01 F600 X50.489 Y59.721
G01 F600 X50.536 Y58.137
G01 F600 X46.401 Y58.157
G01 F600 X46.401 Y59.300
G01 F600 X46.433 Y59.315
G01 F600 X46.606 Y59.440
G01 F600 X46.748 Y59.599
G01 F600 X46.855 Y59.783
G01 F600 X46.921 Y59.986
G01 F600 X46.943 Y60.198
G01 F600 X46.921 Y60.410
G01 F600 X46.855 Y60.613
G01 F600 X46.748 Y60.797
G01 F600 X46.606 Y60.956
G01 F600 X46.433 Y61.081
G01 F600 X46.238 Y61.168
G01 F600 X46.030 Y61.212
G01 F600 X45.817 Y61.212
G01 F600 X45.608 Y61.168
G01 F600 X45.413 Y61.081
G01 F600 X45.241 Y60.956
G01 F600 X45.098 Y60.797
G01 F600 X44.992 Y60.613
G01 F600 X44.926 Y60.410
G01 F600 X44.903 Y60.198
G01 F600 X44.926 Y59.986
G01 F600 X44.992 Y59.783
G01 F600 X45.098 Y59.599
G01 F600 X45.241 Y59.440
G01 F600 X45.413 Y59.315
G01 F600 X45.441 Y59.302
G01 F600 X45.394 Y57.677
G01 F600 X45.404 Y57.584
G01 F600 X45.435 Y57.489
G01 F600 X45.445 Y57.471
G01 F600 X45.445 Y45.971
G01 F600 X45.360 Y45.934
G01 F600 X45.169 Y45.795
G01 F600 X45.117 Y45.737
G01 F600 X31.489 Y45.737
G01 F600 X31.437 Y45.795
G01 F600 X31.246 Y45.934
G01 F600 X31.031 Y46.029
G01 F600 X30.801 Y46.078
G01 F600 X30.566 Y46.078
G01 F600 X30.335 Y46.029
G01 F600 X30.120 Y45.934
G01 F600 X29.930 Y45.795
G01 F600 X29.772 Y45.620
G01 F600 X29.654 Y45.416
G01 F600 X29.581 Y45.192
G01 F600 X29.557 Y44.958
G01 F600 X29.581 Y44.724
G01 F600 X29.654 Y44.500
G01 F600 X29.772 Y44.296
G01 F600 X29.930 Y44.121
G01 F600 X30.120 Y43.983
G01 F600 X30.335 Y43.887
G01 F600 X30.566 Y43.838
G01 F600 X30.801 Y43.838
G01 F600 X31.031 Y43.887
G01 F600 X31.246 Y43.983
G01 F600 X31.437 Y44.121
G01 F600 X31.489 Y44.179
G01 F600 X45.117 Y44.179
G01 F600 X45.169 Y44.121
G01 F600 X45.360 Y43.983
G01 F600 X45.575 Y43.887
G01 F600 X45.806 Y43.838
G01 F600 X46.041 Y43.838
G01 F600 X46.271 Y43.887
G01 F600 X46.486 Y43.983
G01 F600 X46.677 Y44.121
G01 F600 X46.835 Y44.296
G01 F600 X46.952 Y44.500
G01 F600 X47.025 Y44.724
G01 F600 X47.050 Y44.958
G01 F600 X47.025 Y45.192
G01 F600 X46.952 Y45.416
G01 F600 X46.835 Y45.620
G01 F600 X46.677 Y45.795
G01 F600 X46.486 Y45.934
G01 F600 X46.401 Y45.971
G01 F600 X46.401 Y57.205
G01 F600 X50.996 Y57.182
G01 F600 X51.079 Y57.182
G01 F600 X51.177 Y57.203
G01 F600 X51.268 Y57.243
G01 F600 X51.349 Y57.302
G01 F600 X51.416 Y57.377
G01 F600 X51.466 Y57.463
G01 F600 X51.497 Y57.559
G01 F600 X51.507 Y57.650
G01 F600 X51.459 Y64.802
G01 F600 X52.481 Y64.802
G01 F600 X52.601 Y64.594
G01 F600 X52.764 Y64.413
G01 F600 X52.961 Y64.270
G01 F600 X53.183 Y64.170
G01 F600 X53.422 Y64.120
G01 F600 X53.665 Y64.120
G01 F600 X53.903 Y64.170
G01 F600 X54.126 Y64.270
G01 F600 X54.322 Y64.413
G01 F600 X54.485 Y64.594
G01 F600 X54.606 Y64.802
G01 F600 X55.021 Y64.802
G01 F600 X55.141 Y64.594
G01 F600 X55.304 Y64.413
G01 F600 X55.501 Y64.270
G01 F600 X55.723 Y64.170
G01 F600 X55.962 Y64.120
G01 F600 X56.205 Y64.120
G01 F600 X56.443 Y64.170
G01 F600 X56.666 Y64.270
G01 F600 X56.862 Y64.413
G01 F600 X57.025 Y64.594
G01 F600 X57.146 Y64.802
G01 F600 X57.561 Y64.802
G01 F600 X57.681 Y64.594
G01 F600 X57.844 Y64.413
G01 F600 X58.041 Y64.270
G01 F600 X58.263 Y64.170
G01 F600 X58.502 Y64.120
G01 F600 X58.745 Y64.120
G01 F600 X58.983 Y64.170
G01 F600 X59.206 Y64.270
G01 F600 X59.402 Y64.413
G01 F600 X59.565 Y64.594
G01 F600 X59.686 Y64.802
G01 F600 X60.101 Y64.802
G01 F600 X60.221 Y64.594
G01 F600 X60.384 Y64.413
G01 F600 X60.581 Y64.270
G01 F600 X60.803 Y64.170
G01 F600 X61.042 Y64.120
G01 F600 X61.285 Y64.120
G01 F600 X61.523 Y64.170
G01 F600 X61.745 Y64.270
G01 F600 X61.942 Y64.413
G01 F600 X62.105 Y64.594
G01 F600 X62.226 Y64.802
G01 F600 X62.641 Y64.802
G01 F600 X62.761 Y64.594
G01 F600 X62.924 Y64.413
G01 F600 X63.121 Y64.270
G01 F600 X63.343 Y64.170
G01 F600 X63.582 Y64.120
G01 F600 X63.825 Y64.120
G01 F600 X64.063 Y64.170
G01 F600 X64.285 Y64.270
G01 F600 X64.482 Y64.413
G01 F600 X64.645 Y64.594
G01 F600 X64.766 Y64.802
G01 F600 X65.181 Y64.802
G01 F600 X65.301 Y64.594
G01 F600 X65.464 Y64.413
G01 F600 X65.661 Y64.270
G01 F600 X65.883 Y64.170
G01 F600 X66.121 Y64.120
G01 F600 X66.365 Y64.120
G01 F600 X66.603 Y64.170
G01 F600 X66.826 Y64.270
G01 F600 X67.022 Y64.413
G01 F600 X67.185 Y64.594
G01 F600 X67.306 Y64.802
G01 F600 X67.721 Y64.802
G01 F600 X67.841 Y64.594
G01 F600 X68.004 Y64.413
G01 F600 X68.201 Y64.270
G01 F600 X68.423 Y64.170
G01 F600 X68.662 Y64.120
G01 F600 X68.905 Y64.120
G01 F600 X69.143 Y64.170
G01 F600 X69.365 Y64.270
G01 F600 X69.562 Y64.413
G01 F600 X69.725 Y64.594
G01 F600 X69.847 Y64.804
G01 F600 X69.922 Y65.036
G01 F600 X69.948 Y65.278
G01 F600 X69.922 Y65.520
G01 F600 X69.847 Y65.752
G01 F600 X69.725 Y65.963
G01 F600 X69.562 Y66.143
G01 F600 X69.365 Y66.287
G01 F600 X69.143 Y66.386
G01 F600 X68.905 Y66.436
G01 F600 X68.662 Y66.436
G01 F600 X68.423 Y66.386
G01 F600 X68.201 Y66.287
G01 F600 X68.004 Y66.143
G01 F600 X67.841 Y65.963
G01 F600 X67.721 Y65.754
G01 F600 X67.306 Y65.754
G01 F600 X67.185 Y65.963
G01 F600 X67.022 Y66.143
G01 F600 X66.826 Y66.287
G01 F600 X66.603 Y66.386
G01 F600 X66.365 Y66.436
G01 F600 X66.121 Y66.436
G01 F600 X65.883 Y66.386
G01 F600 X65.661 Y66.287
G01 F600 X65.464 Y66.143
G01 F600 X65.301 Y65.963
G01 F600 X65.181 Y65.754
G01 F600 X64.766 Y65.754
G01 F600 X64.645 Y65.963
G01 F600 X64.482 Y66.143
G01 F600 X64.285 Y66.287
G01 F600 X64.063 Y66.386
G01 F600 X63.825 Y66.436
G01 F600 X63.582 Y66.436
G01 F600 X63.343 Y66.386
G01 F600 X63.121 Y66.287
G01 F600 X62.924 Y66.143
G01 F600 X62.761 Y65.963
G01 F600 X62.641 Y65.754
G01 F600 X62.226 Y65.754
G01 F600 X62.105 Y65.963
G01 F600 X61.942 Y66.143
G01 F600 X61.745 Y66.287
G01 F600 X61.523 Y66.386
G01 F600 X61.285 Y66.436
G01 F600 X61.042 Y66.436
G01 F600 X60.803 Y66.386
G01 F600 X60.581 Y66.287
G01 F600 X60.384 Y66.143
G01 F600 X60.221 Y65.963
G01 F600 X60.101 Y65.754
G01 F600 X59.686 Y65.754
G01 F600 X59.565 Y65.963
G01 F600 X59.402 Y66.143
G01 F600 X59.206 Y66.287
G01 F600 X58.983 Y66.386
G01 F600 X58.745 Y66.436
G01 F600 X58.502 Y66.436
G01 F600 X58.263 Y66.386
G01 F600 X58.041 Y66.287
G01 F600 X57.844 Y66.143
G01 F600 X57.681 Y65.963
G01 F600 X57.561 Y65.754
G01 F600 X57.146 Y65.754
G01 F600 X57.025 Y65.963
G01 F600 X56.862 Y66.143
G01 F600 X56.666 Y66.287
G01 F600 X56.443 Y66.386
G01 F600 X56.205 Y66.436
G01 F600 X55.962 Y66.436
G01 F600 X55.723 Y66.386
G01 F600 X55.501 Y66.287
G01 F600 X55.304 Y66.143
G01 F600 X55.141 Y65.963
G01 F600 X55.021 Y65.754
G01 F600 X54.606 Y65.754
G01 F600 X54.485 Y65.963
G01 F600 X54.322 Y66.143
G01 F600 X54.126 Y66.287
G01 F600 X53.903 Y66.386
G01 F600 X53.665 Y66.436
G01 F600 X53.422 Y66.436
G00 F3000 Z3.000
G00 F3000 X80.688 Y66.226
G00 F1500 Z0
G01 F600 Z-0.200
G01 F600 X80.688 Y63.314
G01 F600 X80.713 Y63.314
G01 F600 X80.713 Y63.289
G01 F600 X80.739 Y63.289
G01 F600 X80.739 Y63.264
G01 F600 X80.764 Y63.264
G01 F600 X80.764 Y63.238
G01 F600 X80.815 Y63.238
G01 F600 X80.815 Y63.213
G01 F600 X81.237 Y63.213
G01 F600 X81.237 Y63.238
G01 F600 X81.288 Y63.238
G01 F600 X81.288 Y63.264
G01 F600 X81.339 Y63.264
G01 F600 X81.339 Y63.314
G01 F600 X81.364 Y63.314
G01 F600 X81.364 Y64.813
G01 F600 X81.374 Y64.813
G01 F600 X81.374 Y64.737
G01 F600 X81.399 Y64.737
G01 F600 X81.399 Y64.711
G01 F600 X81.425 Y64.711
G01 F600 X81.425 Y64.686
G01 F600 X81.475 Y64.686
G01 F600 X81.475 Y64.660
G01 F600 X81.923 Y64.660
G01 F600 X81.923 Y64.686
G01 F600 X81.974 Y64.686
G01 F600 X81.974 Y64.711
G01 F600 X81.999 Y64.711
G01 F600 X81.999 Y64.737
G01 F600 X82.025 Y64.737
G01 F600 X82.025 Y64.788
G01 F600 X82.034 Y64.788
G01 F600 X82.034 Y63.340
G01 F600 X82.059 Y63.340
G01 F600 X82.059 Y63.289
G01 F600 X82.085 Y63.289
G01 F600 X82.085 Y63.264
G01 F600 X82.110 Y63.264
G01 F600 X82.110 Y63.238
G01 F600 X82.161 Y63.238
G01 F600 X82.161 Y63.213
G01 F600 X82.609 Y63.213
G01 F600 X82.609 Y63.238
G01 F600 X82.660 Y63.238
G01 F600 X82.660 Y63.264
G01 F600 X82.685 Y63.264
G01 F600 X82.685 Y63.289
G01 F600 X82.710 Y63.289
G01 F600 X82.710 Y63.365
G01 F600 X82.736 Y63.365
G01 F600 X82.736 Y66.226
G01 F600 X81.933 Y66.226
G01 F600 X81.933 Y66.175
G01 F600 X81.907 Y66.175
G01 F600 X81.907 Y66.150
G01 F600 X81.882 Y66.150
G01 F600 X81.882 Y66.124
G01 F600 X81.856 Y66.124
G01 F600 X81.856 Y66.073
G01 F600 X81.831 Y66.073
G01 F600 X81.831 Y66.048
G01 F600 X81.806 Y66.048
G01 F600 X81.806 Y65.997
G01 F600 X81.780 Y65.997
G01 F600 X81.780 Y65.972
G01 F600 X81.755 Y65.972
G01 F600 X81.755 Y65.921
G01 F600 X81.729 Y65.921
G01 F600 X81.729 Y65.895
G01 F600 X81.704 Y65.895
G01 F600 X81.704 Y65.870
G01 F600 X81.694 Y65.870
G01 F600 X81.694 Y65.895
G01 F600 X81.669 Y65.895
G01 F600 X81.669 Y65.946
G01 F600 X81.644 Y65.946
G01 F600 X81.644 Y65.972
G01 F600 X81.618 Y65.972
G01 F600 X81.618 Y66.023
G01 F600 X81.593 Y66.023
G01 F600 X81.593 Y66.048
G01 F600 X81.567 Y66.048
G01 F600 X81.567 Y66.099
G01 F600 X81.542 Y66.099
G01 F600 X81.542 Y66.124
G01 F600 X81.517 Y66.124
G01 F600 X81.517 Y66.150
G01 F600 X81.491 Y66.150
G01 F600 X81.491 Y66.200
G01 F600 X81.466 Y66.200
G01 F600 X81.466 Y66.226
G01 F600 X80.688 Y66.226
G00 F3000 Z3.000
G00 F3000 X83.888 Y66.226
G00 F1500 Z0
G01 F600 Z-0.200
G01 F600 X83.888 Y66.200
G01 F600 X83.812 Y66.200
G01 F600 X83.812 Y66.175
G01 F600 X83.761 Y66.175
G01 F600 X83.761 Y66.150
G01 F600 X83.736 Y66.150
G01 F600 X83.736 Y66.124
G01 F600 X83.711 Y66.124
G01 F600 X83.711 Y66.099
G01 F600 X83.685 Y66.099
G01 F600 X83.685 Y66.073
G01 F600 X83.660 Y66.073
G01 F600 X83.660 Y66.048
G01 F600 X83.634 Y66.048
G01 F600 X83.634 Y66.023
G01 F600 X83.609 Y66.023
G01 F600 X83.609 Y65.972
G01 F600 X83.584 Y65.972
G01 F600 X83.584 Y65.921
G01 F600 X83.558 Y65.921
G01 F600 X83.558 Y65.870
G01 F600 X83.533 Y65.870
G01 F600 X83.533 Y65.819
G01 F600 X83.507 Y65.819
G01 F600 X83.507 Y65.769
G01 F600 X83.482 Y65.769
G01 F600 X83.482 Y65.718
G01 F600 X83.457 Y65.718
G01 F600 X83.457 Y65.667
G01 F600 X83.431 Y65.667
G01 F600 X83.431 Y65.616
G01 F600 X83.406 Y65.616
G01 F600 X83.406 Y65.565
G01 F600 X83.380 Y65.565
G01 F600 X83.380 Y65.514
G01 F600 X83.355 Y65.514
G01 F600 X83.355 Y65.464
G01 F600 X83.330 Y65.464
G01 F600 X83.330 Y65.413
G01 F600 X83.304 Y65.413
G01 F600 X83.304 Y65.362
G01 F600 X83.279 Y65.362
G01 F600 X83.279 Y65.311
G01 F600 X83.253 Y65.311
G01 F600 X83.253 Y65.261
G01 F600 X83.228 Y65.261
G01 F600 X83.228 Y65.210
G01 F600 X83.203 Y65.210
G01 F600 X83.203 Y65.133
G01 F600 X83.177 Y65.133
G01 F600 X83.177 Y65.057
G01 F600 X83.152 Y65.057
G01 F600 X83.152 Y64.381
G01 F600 X83.177 Y64.381
G01 F600 X83.177 Y64.305
G01 F600 X83.203 Y64.305
G01 F600 X83.203 Y64.229
G01 F600 X83.228 Y64.229
G01 F600 X83.228 Y64.178
G01 F600 X83.253 Y64.178
G01 F600 X83.253 Y64.127
G01 F600 X83.279 Y64.127
G01 F600 X83.279 Y64.076
G01 F600 X83.304 Y64.076
G01 F600 X83.304 Y64.026
G01 F600 X83.330 Y64.026
G01 F600 X83.330 Y63.975
G01 F600 X83.355 Y63.975
G01 F600 X83.355 Y63.924
G01 F600 X83.380 Y63.924
G01 F600 X83.380 Y63.873
G01 F600 X83.406 Y63.873
G01 F600 X83.406 Y63.822
G01 F600 X83.431 Y63.822
G01 F600 X83.431 Y63.772
G01 F600 X83.457 Y63.772
G01 F600 X83.457 Y63.721
G01 F600 X83.482 Y63.721
G01 F600 X83.482 Y63.670
G01 F600 X83.507 Y63.670
G01 F600 X83.507 Y63.619
G01 F600 X83.533 Y63.619
G01 F600 X83.533 Y63.568
G01 F600 X83.558 Y63.568
G01 F600 X83.558 Y63.518
G01 F600 X83.584 Y63.518
G01 F600 X83.584 Y63.467
G01 F600 X83.609 Y63.467
G01 F600 X83.609 Y63.416
G01 F600 X83.634 Y63.416
G01 F600 X83.634 Y63.391
G01 F600 X83.660 Y63.391
G01 F600 X83.660 Y63.365
G01 F600 X83.685 Y63.365
G01 F600 X83.685 Y63.340
G01 F600 X83.711 Y63.340
G01 F600 X83.711 Y63.314
G01 F600 X83.736 Y63.314
G01 F600 X83.736 Y63.289
G01 F600 X83.787 Y63.289
G01 F600 X83.787 Y63.264
G01 F600 X83.838 Y63.264
G01 F600 X83.838 Y63.238
G01 F600 X83.914 Y63.238
G01 F600 X83.914 Y63.213
G01 F600 X84.412 Y63.213
G01 F600 X84.412 Y63.238
G01 F600 X84.514 Y63.238
G01 F600 X84.514 Y63.264
G01 F600 X84.565 Y63.264
G01 F600 X84.565 Y63.289
G01 F600 X84.590 Y63.289
G01 F600 X84.590 Y63.314
G01 F600 X84.641 Y63.314
G01 F600 X84.641 Y63.340
G01 F600 X84.666 Y63.340
G01 F600 X84.666 Y63.365
G01 F600 X84.692 Y63.365
G01 F600 X84.692 Y63.391
G01 F600 X84.717 Y63.391
G01 F600 X84.717 Y63.441
G01 F600 X84.742 Y63.441
G01 F600 X84.742 Y63.492
G01 F600 X84.768 Y63.492
G01 F600 X84.768 Y63.543
G01 F600 X84.793 Y63.543
G01 F600 X84.793 Y63.594
G01 F600 X84.819 Y63.594
G01 F600 X84.819 Y63.645
G01 F600 X84.844 Y63.645
G01 F600 X84.844 Y63.695
G01 F600 X84.869 Y63.695
G01 F600 X84.869 Y63.746
G01 F600 X84.895 Y63.746
G01 F600 X84.895 Y63.797
G01 F600 X84.920 Y63.797
G01 F600 X84.920 Y63.848
G01 F600 X84.946 Y63.848
G01 F600 X84.946 Y63.899
G01 F600 X84.971 Y63.899
G01 F600 X84.971 Y63.949
G01 F600 X84.996 Y63.949
G01 F600 X84.996 Y64.000
G01 F600 X85.022 Y64.000
G01 F600 X85.022 Y64.051
G01 F600 X85.047 Y64.051
G01 F600 X85.047 Y64.102
G01 F600 X85.073 Y64.102
G01 F600 X85.073 Y64.153
G01 F600 X85.098 Y64.153
G01 F600 X85.098 Y64.203
G01 F600 X85.123 Y64.203
G01 F600 X85.123 Y64.254
G01 F600 X85.149 Y64.254
G01 F600 X85.149 Y64.330
G01 F600 X85.174 Y64.330
G01 F600 X85.174 Y64.457
G01 F600 X85.200 Y64.457
G01 F600 X85.200 Y64.981
G01 F600 X85.174 Y64.981
G01 F600 X85.174 Y65.108
G01 F600 X85.149 Y65.108
G01 F600 X85.149 Y65.184
G01 F600 X85.123 Y65.184
G01 F600 X85.123 Y65.235
G01 F600 X85.098 Y65.235
G01 F600 X85.098 Y65.286
G01 F600 X85.073 Y65.286
G01 F600 X85.073 Y65.337
G01 F600 X85.047 Y65.337
G01 F600 X85.047 Y65.388
G01 F600 X85.022 Y65.388
G01 F600 X85.022 Y65.438
G01 F600 X84.996 Y65.438
G01 F600 X84.996 Y65.489
G01 F600 X84.971 Y65.489
G01 F600 X84.971 Y65.540
G01 F600 X84.946 Y65.540
G01 F600 X84.946 Y65.591
G01 F600 X84.920 Y65.591
G01 F600 X84.920 Y65.642
G01 F600 X84.895 Y65.642
G01 F600 X84.895 Y65.692
G01 F600 X84.869 Y65.692
G01 F600 X84.869 Y65.743
G01 F600 X84.844 Y65.743
G01 F600 X84.844 Y65.794
G01 F600 X84.819 Y65.794
G01 F600 X84.819 Y65.845
G01 F600 X84.793 Y65.845
G01 F600 X84.793 Y65.895
G01 F600 X84.768 Y65.895
G01 F600 X84.768 Y65.946
G01 F600 X84.742 Y65.946
G01 F600 X84.742 Y65.997
G01 F600 X84.717 Y65.997
G01 F600 X84.717 Y66.048
G01 F600 X84.692 Y66.048
G01 F600 X84.692 Y66.073
G01 F600 X84.666 Y66.073
G01 F600 X84.666 Y66.099
G01 F600 X84.641 Y66.099
G01 F600 X84.641 Y66.124
G01 F600 X84.615 Y66.124
G01 F600 X84.615 Y66.150
G01 F600 X84.565 Y66.150
G01 F600 X84.565 Y66.175
G01 F600 X84.514 Y66.175
G01 F600 X84.514 Y66.200
G01 F600 X84.438 Y66.200
G01 F600 X84.438 Y66.226
G01 F600 X83.888 Y66.226
G00 F3000 Z3.000
G00 F3000 X85.717 Y66.226
G00 F1500 Z0
G01 F600 Z-0.200
G01 F600 X85.717 Y66.200
G01 F600 X85.692 Y66.200
G01 F600 X85.692 Y66.175
G01 F600 X85.666 Y66.175
G01 F600 X85.666 Y66.150
G01 F600 X85.641 Y66.150
G01 F600 X85.641 Y66.124
G01 F600 X85.615 Y66.124
G01 F600 X85.615 Y63.619
G01 F600 X85.641 Y63.619
G01 F600 X85.641 Y63.543
G01 F600 X85.666 Y63.543
G01 F600 X85.666 Y63.492
G01 F600 X85.692 Y63.492
G01 F600 X85.692 Y63.441
G01 F600 X85.717 Y63.441
G01 F600 X85.717 Y63.416
G01 F600 X85.743 Y63.416
G01 F600 X85.743 Y63.391
G01 F600 X85.768 Y63.391
G01 F600 X85.768 Y63.365
G01 F600 X85.793 Y63.365
G01 F600 X85.793 Y63.340
G01 F600 X85.819 Y63.340
G01 F600 X85.819 Y63.314
G01 F600 X85.844 Y63.314
G01 F600 X85.844 Y63.289
G01 F600 X85.895 Y63.289
G01 F600 X85.895 Y63.264
G01 F600 X85.946 Y63.264
G01 F600 X85.946 Y63.238
G01 F600 X86.047 Y63.238
G01 F600 X86.047 Y63.213
G01 F600 X87.232 Y63.213
G01 F600 X87.232 Y63.238
G01 F600 X87.333 Y63.238
G01 F600 X87.333 Y63.264
G01 F600 X87.384 Y63.264
G01 F600 X87.384 Y63.289
G01 F600 X87.435 Y63.289
G01 F600 X87.435 Y63.314
G01 F600 X87.460 Y63.314
G01 F600 X87.460 Y63.340
G01 F600 X87.486 Y63.340
G01 F600 X87.486 Y63.365
G01 F600 X87.511 Y63.365
G01 F600 X87.511 Y63.391
G01 F600 X87.536 Y63.391
G01 F600 X87.536 Y63.416
G01 F600 X87.562 Y63.416
G01 F600 X87.562 Y63.441
G01 F600 X87.587 Y63.441
G01 F600 X87.587 Y63.492
G01 F600 X87.612 Y63.492
G01 F600 X87.612 Y63.543
G01 F600 X87.638 Y63.543
G01 F600 X87.638 Y63.619
G01 F600 X87.663 Y63.619
G01 F600 X87.663 Y66.124
G01 F600 X87.638 Y66.124
G01 F600 X87.638 Y66.150
G01 F600 X87.612 Y66.150
G01 F600 X87.612 Y66.175
G01 F600 X87.587 Y66.175
G01 F600 X87.587 Y66.200
G01 F600 X87.562 Y66.200
G01 F600 X87.562 Y66.226
G01 F600 X87.089 Y66.226
G01 F600 X87.089 Y66.200
G01 F600 X87.038 Y66.200
G01 F600 X87.038 Y66.175
G01 F600 X87.013 Y66.175
G01 F600 X87.013 Y66.150
G01 F600 X86.987 Y66.150
G01 F600 X86.987 Y66.099
G01 F600 X86.962 Y66.099
G01 F600 X86.962 Y64.016
G01 F600 X86.936 Y64.016
G01 F600 X86.936 Y63.965
G01 F600 X86.911 Y63.965
G01 F600 X86.911 Y63.940
G01 F600 X86.860 Y63.940
G01 F600 X86.860 Y63.914
G01 F600 X86.393 Y63.914
G01 F600 X86.393 Y63.940
G01 F600 X86.368 Y63.940
G01 F600 X86.368 Y63.965
G01 F600 X86.343 Y63.965
G01 F600 X86.343 Y63.991
G01 F600 X86.317 Y63.991
G01 F600 X86.317 Y66.073
G01 F600 X86.292 Y66.073
G01 F600 X86.292 Y66.150
G01 F600 X86.266 Y66.150
G01 F600 X86.266 Y66.175
G01 F600 X86.241 Y66.175
G01 F600 X86.241 Y66.200
G01 F600 X86.190 Y66.200
G01 F600 X86.190 Y66.226
G01 F600 X85.717 Y66.226
G00 F3000 Z3.000
G00 F3000 X88.384 Y66.226
G00 F1500 Z0
G01 F600 Z-0.200
G01 F600 X88.384 Y66.200
G01 F600 X88.308 Y66.200
G01 F600 X88.308 Y66.175
G01 F600 X88.257 Y66.175
G01 F600 X88.257 Y66.150
G01 F600 X88.232 Y66.150
G01 F600 X88.232 Y66.124
G01 F600 X88.206 Y66.124
G01 F600 X88.206 Y66.099
G01 F600 X88.181 Y66.099
G01 F600 X88.181 Y66.073
G01 F600 X88.156 Y66.073
G01 F600 X88.156 Y66.048
G01 F600 X88.130 Y66.048
G01 F600 X88.130 Y65.997
G01 F600 X88.105 Y65.997
G01 F600 X88.105 Y65.921
G01 F600 X88.079 Y65.921
G01 F600 X88.079 Y65.422
G01 F600 X88.105 Y65.422
G01 F600 X88.105 Y65.321
G01 F600 X88.130 Y65.321
G01 F600 X88.130 Y65.270
G01 F600 X88.156 Y65.270
G01 F600 X88.156 Y65.245
G01 F600 X88.181 Y65.245
G01 F600 X88.181 Y65.219
G01 F600 X88.206 Y65.219
G01 F600 X88.206 Y65.169
G01 F600 X88.232 Y65.169
G01 F600 X88.232 Y65.143
G01 F600 X88.257 Y65.143
G01 F600 X88.257 Y65.118
G01 F600 X88.282 Y65.118
G01 F600 X88.282 Y65.067
G01 F600 X88.308 Y65.067
G01 F600 X88.308 Y65.041
G01 F600 X88.333 Y65.041
G01 F600 X88.333 Y65.016
G01 F600 X88.359 Y65.016
G01 F600 X88.359 Y64.991
G01 F600 X88.384 Y64.991
G01 F600 X88.384 Y64.940
G01 F600 X88.410 Y64.940
G01 F600 X88.410 Y64.915
G01 F600 X88.435 Y64.915
G01 F600 X88.435 Y64.889
G01 F600 X88.460 Y64.889
G01 F600 X88.460 Y64.838
G01 F600 X88.486 Y64.838
G01 F600 X88.486 Y64.813
G01 F600 X88.511 Y64.813
G01 F600 X88.511 Y64.788
G01 F600 X88.537 Y64.788
G01 F600 X88.537 Y64.762
G01 F600 X88.562 Y64.762
G01 F600 X88.562 Y64.711
G01 F600 X88.587 Y64.711
G01 F600 X88.587 Y64.686
G01 F600 X88.613 Y64.686
G01 F600 X88.613 Y64.660
G01 F600 X88.638 Y64.660
G01 F600 X88.638 Y64.610
G01 F600 X88.663 Y64.610
G01 F600 X88.663 Y64.584
G01 F600 X88.689 Y64.584
G01 F600 X88.689 Y64.559
G01 F600 X88.714 Y64.559
G01 F600 X88.714 Y64.534
G01 F600 X88.740 Y64.534
G01 F600 X88.740 Y64.483
G01 F600 X88.765 Y64.483
G01 F600 X88.765 Y64.457
G01 F600 X88.791 Y64.457
G01 F600 X88.791 Y64.432
G01 F600 X88.816 Y64.432
G01 F600 X88.816 Y64.381
G01 F600 X88.841 Y64.381
G01 F600 X88.841 Y64.356
G01 F600 X88.867 Y64.356
G01 F600 X88.867 Y64.330
G01 F600 X88.892 Y64.330
G01 F600 X88.892 Y64.305
G01 F600 X88.918 Y64.305
G01 F600 X88.918 Y64.254
G01 F600 X88.943 Y64.254
G01 F600 X88.943 Y64.229
G01 F600 X88.968 Y64.229
G01 F600 X88.968 Y64.203
G01 F600 X88.994 Y64.203
G01 F600 X88.994 Y64.153
G01 F600 X89.019 Y64.153
G01 F600 X89.019 Y64.127
G01 F600 X89.044 Y64.127
G01 F600 X89.044 Y64.102
G01 F600 X89.070 Y64.102
G01 F600 X89.070 Y64.076
G01 F600 X89.095 Y64.076
G01 F600 X89.095 Y64.026
G01 F600 X89.121 Y64.026
G01 F600 X89.121 Y64.000
G01 F600 X89.146 Y64.000
G01 F600 X89.146 Y63.975
G01 F600 X89.172 Y63.975
G01 F600 X89.172 Y63.924
G01 F600 X89.197 Y63.924
G01 F600 X89.197 Y63.914
G01 F600 X88.832 Y63.914
G01 F600 X88.832 Y63.940
G01 F600 X88.806 Y63.940
G01 F600 X88.806 Y63.965
G01 F600 X88.781 Y63.965
G01 F600 X88.781 Y64.067
G01 F600 X88.755 Y64.067
G01 F600 X88.755 Y64.118
G01 F600 X88.730 Y64.118
G01 F600 X88.730 Y64.143
G01 F600 X88.705 Y64.143
G01 F600 X88.705 Y64.168
G01 F600 X88.679 Y64.168
G01 F600 X88.679 Y64.194
G01 F600 X88.181 Y64.194
G01 F600 X88.181 Y64.168
G01 F600 X88.130 Y64.168
G01 F600 X88.130 Y64.118
G01 F600 X88.105 Y64.118
G01 F600 X88.105 Y64.092
G01 F600 X88.079 Y64.092
G01 F600 X88.079 Y63.594
G01 F600 X88.105 Y63.594
G01 F600 X88.105 Y63.518
G01 F600 X88.130 Y63.518
G01 F600 X88.130 Y63.467
G01 F600 X88.156 Y63.467
G01 F600 X88.156 Y63.416
G01 F600 X88.181 Y63.416
G01 F600 X88.181 Y63.391
G01 F600 X88.206 Y63.391
G01 F600 X88.206 Y63.365
G01 F600 X88.232 Y63.365
G01 F600 X88.232 Y63.340
G01 F600 X88.257 Y63.340
G01 F600 X88.257 Y63.314
G01 F600 X88.282 Y63.314
G01 F600 X88.282 Y63.289
G01 F600 X88.333 Y63.289
G01 F600 X88.333 Y63.264
G01 F600 X88.384 Y63.264
G01 F600 X88.384 Y63.238
G01 F600 X88.460 Y63.238
G01 F600 X88.460 Y63.213
G01 F600 X89.822 Y63.213
G01 F600 X89.822 Y63.238
G01 F600 X89.898 Y63.238
G01 F600 X89.898 Y63.264
G01 F600 X89.949 Y63.264
G01 F600 X89.949 Y63.289
G01 F600 X89.975 Y63.289
G01 F600 X89.975 Y63.314
G01 F600 X90.000 Y63.314
G01 F600 X90.000 Y63.340
G01 F600 X90.026 Y63.340
G01 F600 X90.026 Y63.365
G01 F600 X90.051 Y63.365
G01 F600 X90.051 Y63.391
G01 F600 X90.076 Y63.391
G01 F600 X90.076 Y63.441
G01 F600 X90.102 Y63.441
G01 F600 X90.102 Y63.518
G01 F600 X90.127 Y63.518
G01 F600 X90.127 Y64.041
G01 F600 X90.102 Y64.041
G01 F600 X90.102 Y64.118
G01 F600 X90.076 Y64.118
G01 F600 X90.076 Y64.168
G01 F600 X90.051 Y64.168
G01 F600 X90.051 Y64.194
G01 F600 X90.026 Y64.194
G01 F600 X90.026 Y64.219
G01 F600 X90.000 Y64.219
G01 F600 X90.000 Y64.270
G01 F600 X89.975 Y64.270
G01 F600 X89.975 Y64.295
G01 F600 X89.949 Y64.295
G01 F600 X89.949 Y64.321
G01 F600 X89.924 Y64.321
G01 F600 X89.924 Y64.371
G01 F600 X89.898 Y64.371
G01 F600 X89.898 Y64.397
G01 F600 X89.873 Y64.397
G01 F600 X89.873 Y64.422
G01 F600 X89.848 Y64.422
G01 F600 X89.848 Y64.448
G01 F600 X89.822 Y64.448
G01 F600 X89.822 Y64.499
G01 F600 X89.797 Y64.499
G01 F600 X89.797 Y64.524
G01 F600 X89.772 Y64.524
G01 F600 X89.772 Y64.549
G01 F600 X89.746 Y64.549
G01 F600 X89.746 Y64.600
G01 F600 X89.721 Y64.600
G01 F600 X89.721 Y64.626
G01 F600 X89.695 Y64.626
G01 F600 X89.695 Y64.651
G01 F600 X89.670 Y64.651
G01 F600 X89.670 Y64.676
G01 F600 X89.645 Y64.676
G01 F600 X89.645 Y64.727
G01 F600 X89.619 Y64.727
G01 F600 X89.619 Y64.752
G01 F600 X89.594 Y64.752
G01 F600 X89.594 Y64.778
G01 F600 X89.568 Y64.778
G01 F600 X89.568 Y64.829
G01 F600 X89.543 Y64.829
G01 F600 X89.543 Y64.854
G01 F600 X89.517 Y64.854
G01 F600 X89.517 Y64.880
G01 F600 X89.492 Y64.880
G01 F600 X89.492 Y64.905
G01 F600 X89.467 Y64.905
G01 F600 X89.467 Y64.956
G01 F600 X89.441 Y64.956
G01 F600 X89.441 Y64.981
G01 F600 X89.416 Y64.981
G01 F600 X89.416 Y65.007
G01 F600 X89.391 Y65.007
G01 F600 X89.391 Y65.057
G01 F600 X89.365 Y65.057
G01 F600 X89.365 Y65.083
G01 F600 X89.340 Y65.083
G01 F600 X89.340 Y65.108
G01 F600 X89.314 Y65.108
G01 F600 X89.314 Y65.133
G01 F600 X89.289 Y65.133
G01 F600 X89.289 Y65.184
G01 F600 X89.264 Y65.184
G01 F600 X89.264 Y65.210
G01 F600 X89.238 Y65.210
G01 F600 X89.238 Y65.235
G01 F600 X89.213 Y65.235
G01 F600 X89.213 Y65.286
G01 F600 X89.187 Y65.286
G01 F600 X89.187 Y65.311
G01 F600 X89.162 Y65.311
G01 F600 X89.162 Y65.337
G01 F600 X89.136 Y65.337
G01 F600 X89.136 Y65.362
G01 F600 X89.111 Y65.362
G01 F600 X89.111 Y65.413
G01 F600 X89.086 Y65.413
G01 F600 X89.086 Y65.438
G01 F600 X89.060 Y65.438
G01 F600 X89.060 Y65.464
G01 F600 X89.035 Y65.464
G01 F600 X89.035 Y65.514
G01 F600 X89.010 Y65.514
G01 F600 X89.010 Y65.524
G01 F600 X89.375 Y65.524
G01 F600 X89.375 Y65.499
G01 F600 X89.400 Y65.499
G01 F600 X89.400 Y65.473
G01 F600 X89.425 Y65.473
G01 F600 X89.425 Y65.422
G01 F600 X89.451 Y65.422
G01 F600 X89.451 Y65.321
G01 F600 X89.476 Y65.321
G01 F600 X89.476 Y65.296
G01 F600 X89.502 Y65.296
G01 F600 X89.502 Y65.270
G01 F600 X89.553 Y65.270
G01 F600 X89.553 Y65.245
G01 F600 X90.026 Y65.245
G01 F600 X90.026 Y65.270
G01 F600 X90.051 Y65.270
G01 F600 X90.051 Y65.296
G01 F600 X90.076 Y65.296
G01 F600 X90.076 Y65.321
G01 F600 X90.102 Y65.321
G01 F600 X90.102 Y65.346
G01 F600 X90.127 Y65.346
G01 F600 X90.127 Y65.870
G01 F600 X90.102 Y65.870
G01 F600 X90.102 Y65.946
G01 F600 X90.076 Y65.946
G01 F600 X90.076 Y65.997
G01 F600 X90.051 Y65.997
G01 F600 X90.051 Y66.023
G01 F600 X90.026 Y66.023
G01 F600 X90.026 Y66.073
G01 F600 X90.000 Y66.073
G01 F600 X90.000 Y66.099
G01 F600 X89.975 Y66.099
G01 F600 X89.975 Y66.124
G01 F600 X89.924 Y66.124
G01 F600 X89.924 Y66.150
G01 F600 X89.898 Y66.150
G01 F600 X89.898 Y66.175
G01 F600 X89.848 Y66.175
G01 F600 X89.848 Y66.200
G01 F600 X89.772 Y66.200
G01 F600 X89.772 Y66.226
G01 F600 X88.384 Y66.226
G00 F3000 Z3.000
G00 F3000 X84.158 Y65.321
G00 F1500 Z0
G01 F600 Z-0.200
G01 F600 X84.168 Y65.321
G01 F600 X84.168 Y65.296
G01 F600 X84.193 Y65.296
G01 F600 X84.193 Y65.245
G01 F600 X84.219 Y65.245
G01 F600 X84.219 Y65.194
G01 F600 X84.244 Y65.194
G01 F600 X84.244 Y65.143
G01 F600 X84.269 Y65.143
G01 F600 X84.269 Y65.092
G01 F600 X84.295 Y65.092
G01 F600 X84.295 Y65.041
G01 F600 X84.320 Y65.041
G01 F600 X84.320 Y64.991
G01 F600 X84.346 Y64.991
G01 F600 X84.346 Y64.940
G01 F600 X84.371 Y64.940
G01 F600 X84.371 Y64.889
G01 F600 X84.396 Y64.889
G01 F600 X84.396 Y64.838
G01 F600 X84.422 Y64.838
G01 F600 X84.422 Y64.788
G01 F600 X84.447 Y64.788
G01 F600 X84.447 Y64.737
G01 F600 X84.473 Y64.737
G01 F600 X84.473 Y64.702
G01 F600 X84.447 Y64.702
G01 F600 X84.447 Y64.651
G01 F600 X84.422 Y64.651
G01 F600 X84.422 Y64.600
G01 F600 X84.396 Y64.600
G01 F600 X84.396 Y64.549
G01 F600 X84.371 Y64.549
G01 F600 X84.371 Y64.499
G01 F600 X84.346 Y64.499
G01 F600 X84.346 Y64.448
G01 F600 X84.320 Y64.448
G01 F600 X84.320 Y64.397
G01 F600 X84.295 Y64.397
G01 F600 X84.295 Y64.346
G01 F600 X84.269 Y64.346
G01 F600 X84.269 Y64.295
G01 F600 X84.244 Y64.295
G01 F600 X84.244 Y64.245
G01 F600 X84.219 Y64.245
G01 F600 X84.219 Y64.194
G01 F600 X84.193 Y64.194
G01 F600 X84.193 Y64.143
G01 F600 X84.168 Y64.143
G01 F600 X84.168 Y64.118
G01 F600 X84.158 Y64.118
G01 F600 X84.158 Y64.168
G01 F600 X84.133 Y64.168
G01 F600 X84.133 Y64.219
G01 F600 X84.107 Y64.219
G01 F600 X84.107 Y64.270
G01 F600 X84.082 Y64.270
G01 F600 X84.082 Y64.321
G01 F600 X84.056 Y64.321
G01 F600 X84.056 Y64.371
G01 F600 X84.031 Y64.371
G01 F600 X84.031 Y64.422
G01 F600 X84.006 Y64.422
G01 F600 X84.006 Y64.473
G01 F600 X83.980 Y64.473
G01 F600 X83.980 Y64.524
G01 F600 X83.955 Y64.524
G01 F600 X83.955 Y64.575
G01 F600 X83.930 Y64.575
G01 F600 X83.930 Y64.626
G01 F600 X83.904 Y64.626
G01 F600 X83.904 Y64.676
G01 F600 X83.879 Y64.676
G01 F600 X83.879 Y64.762
G01 F600 X83.904 Y64.762
G01 F600 X83.904 Y64.813
G01 F600 X83.930 Y64.813
G01 F600 X83.930 Y64.864
G01 F600 X83.955 Y64.864
G01 F600 X83.955 Y64.915
G01 F600 X83.980 Y64.915
G01 F600 X83.980 Y64.965
G01 F600 X84.006 Y64.965
G01 F600 X84.006 Y65.016
G01 F600 X84.031 Y65.016
G01 F600 X84.031 Y65.067
G01 F600 X84.056 Y65.067
G01 F600 X84.056 Y65.118
G01 F600 X84.082 Y65.118
G01 F600 X84.082 Y65.169
G01 F600 X84.107 Y65.169
G01 F600 X84.107 Y65.219
G01 F600 X84.133 Y65.219
G01 F600 X84.133 Y65.270
G01 F600 X84.158 Y65.270
G01 F600 X84.158 Y65.321
G00 F3000 Z3.000
G00 F3000 X63.582 Y63.896
G00 F1500 Z0
G01 F600 Z-0.200
G01 F600 X63.343 Y63.846
G01 F600 X63.121 Y63.747
G01 F600 X62.924 Y63.603
G01 F600 X62.761 Y63.423
G01 F600 X62.639 Y63.212
G01 F600 X62.564 Y62.980
G01 F600 X62.539 Y62.738
G01 F600 X62.564 Y62.496
G01 F600 X62.639 Y62.264
G01 F600 X62.761 Y62.053
G01 F600 X62.924 Y61.873
G01 F600 X63.121 Y61.729
G01 F600 X63.225 Y61.683
G01 F600 X63.225 Y61.096
G01 F600 X63.193 Y61.081
G01 F600 X63.021 Y60.956
G01 F600 X62.878 Y60.797
G01 F600 X62.772 Y60.613
G01 F600 X62.706 Y60.410
G01 F600 X62.683 Y60.198
G01 F600 X62.706 Y59.986
G01 F600 X62.772 Y59.783
G01 F600 X62.878 Y59.599
G01 F600 X63.021 Y59.440
G01 F600 X63.193 Y59.315
G01 F600 X63.388 Y59.228
G01 F600 X63.597 Y59.184
G01 F600 X63.810 Y59.184
G01 F600 X64.018 Y59.228
G01 F600 X64.213 Y59.315
G01 F600 X64.386 Y59.440
G01 F600 X64.528 Y59.599
G01 F600 X64.635 Y59.783
G01 F600 X64.701 Y59.986
G01 F600 X64.723 Y60.198
G01 F600 X64.701 Y60.410
G01 F600 X64.635 Y60.613
G01 F600 X64.528 Y60.797
G01 F600 X64.386 Y60.956
G01 F600 X64.213 Y61.081
G01 F600 X64.181 Y61.095
G01 F600 X64.182 Y61.683
G01 F600 X64.285 Y61.730
G01 F600 X64.482 Y61.873
G01 F600 X64.645 Y62.053
G01 F600 X64.767 Y62.264
G01 F600 X64.842 Y62.496
G01 F600 X64.868 Y62.738
G01 F600 X64.842 Y62.980
G01 F600 X64.767 Y63.212
G01 F600 X64.645 Y63.423
G01 F600 X64.482 Y63.603
G01 F600 X64.285 Y63.747
G01 F600 X64.063 Y63.846
G01 F600 X63.825 Y63.896
G01 F600 X63.582 Y63.896
G00 F3000 Z3.000
G00 F3000 X61.042 Y63.896
G00 F1500 Z0
G01 F600 Z-0.200
G01 F600 X60.803 Y63.846
G01 F600 X60.581 Y63.747
G01 F600 X60.384 Y63.603
G01 F600 X60.221 Y63.423
G01 F600 X60.099 Y63.212
G01 F600 X60.024 Y62.980
G01 F600 X59.999 Y62.738
G01 F600 X60.024 Y62.496
G01 F600 X60.099 Y62.264
G01 F600 X60.221 Y62.053
G01 F600 X60.384 Y61.873
G01 F600 X60.581 Y61.729
G01 F600 X60.685 Y61.683
G01 F600 X60.685 Y61.096
G01 F600 X60.653 Y61.081
G01 F600 X60.481 Y60.956
G01 F600 X60.338 Y60.797
G01 F600 X60.232 Y60.613
G01 F600 X60.166 Y60.410
G01 F600 X60.143 Y60.198
G01 F600 X60.166 Y59.986
G01 F600 X60.232 Y59.783
G01 F600 X60.338 Y59.599
G01 F600 X60.481 Y59.440
G01 F600 X60.653 Y59.315
G01 F600 X60.848 Y59.228
G01 F600 X61.057 Y59.184
G01 F600 X61.270 Y59.184
G01 F600 X61.478 Y59.228
G01 F600 X61.673 Y59.315
G01 F600 X61.846 Y59.440
G01 F600 X61.988 Y59.599
G01 F600 X62.095 Y59.783
G01 F600 X62.161 Y59.986
G01 F600 X62.183 Y60.198
G01 F600 X62.161 Y60.410
G01 F600 X62.095 Y60.613
G01 F600 X61.988 Y60.797
G01 F600 X61.846 Y60.956
G01 F600 X61.673 Y61.081
G01 F600 X61.641 Y61.095
G01 F600 X61.642 Y61.683
G01 F600 X61.745 Y61.730
G01 F600 X61.942 Y61.873
G01 F600 X62.105 Y62.053
G01 F600 X62.227 Y62.264
G01 F600 X62.302 Y62.496
G01 F600 X62.328 Y62.738
G01 F600 X62.302 Y62.980
G01 F600 X62.227 Y63.212
G01 F600 X62.105 Y63.423
G01 F600 X61.942 Y63.603
G01 F600 X61.745 Y63.747
G01 F600 X61.523 Y63.846
G01 F600 X61.285 Y63.896
G01 F600 X61.042 Y63.896
G00 F3000 Z3.000
G00 F3000 X68.662 Y63.896
G00 F1500 Z0
G01 F600 Z-0.200
G01 F600 X68.423 Y63.846
G01 F600 X68.201 Y63.747
G01 F600 X68.004 Y63.603
G01 F600 X67.841 Y63.423
G01 F600 X67.719 Y63.212
G01 F600 X67.644 Y62.980
G01 F600 X67.619 Y62.738
G01 F600 X67.644 Y62.496
G01 F600 X67.719 Y62.264
G01 F600 X67.841 Y62.053
G01 F600 X68.004 Y61.873
G01 F600 X68.201 Y61.729
G01 F600 X68.305 Y61.683
G01 F600 X68.305 Y61.096
G01 F600 X68.273 Y61.081
G01 F600 X68.101 Y60.956
G01 F600 X67.958 Y60.797
G01 F600 X67.852 Y60.613
G01 F600 X67.786 Y60.410
G01 F600 X67.763 Y60.198
G01 F600 X67.786 Y59.986
G01 F600 X67.852 Y59.783
G01 F600 X67.958 Y59.599
G01 F600 X68.101 Y59.440
G01 F600 X68.273 Y59.315
G01 F600 X68.468 Y59.228
G01 F600 X68.677 Y59.184
G01 F600 X68.890 Y59.184
G01 F600 X69.098 Y59.228
G01 F600 X69.293 Y59.315
G01 F600 X69.466 Y59.440
G01 F600 X69.608 Y59.599
G01 F600 X69.715 Y59.783
G01 F600 X69.781 Y59.986
G01 F600 X69.803 Y60.198
G01 F600 X69.781 Y60.410
G01 F600 X69.715 Y60.613
G01 F600 X69.608 Y60.797
G01 F600 X69.466 Y60.956
G01 F600 X69.293 Y61.081
G01 F600 X69.261 Y61.095
G01 F600 X69.262 Y61.683
G01 F600 X69.365 Y61.730
G01 F600 X69.562 Y61.873
G01 F600 X69.725 Y62.053
G01 F600 X69.847 Y62.264
G01 F600 X69.922 Y62.496
G01 F600 X69.948 Y62.738
G01 F600 X69.922 Y62.980
G01 F600 X69.847 Y63.212
G01 F600 X69.725 Y63.423
G01 F600 X69.562 Y63.603
G01 F600 X69.365 Y63.747
G01 F600 X69.143 Y63.846
G01 F600 X68.905 Y63.896
G01 F600 X68.662 Y63.896
G00 F3000 Z3.000
G00 F3000 X66.121 Y63.896
G00 F1500 Z0
G01 F600 Z-0.200
G01 F600 X65.883 Y63.846
G01 F600 X65.661 Y63.747
G01 F600 X65.464 Y63.603
G01 F600 X65.301 Y63.423
G01 F600 X65.179 Y63.212
G01 F600 X65.104 Y62.980
G01 F600 X65.079 Y62.738
G01 F600 X65.104 Y62.496
G01 F600 X65.179 Y62.264
G01 F600 X65.301 Y62.053
G01 F600 X65.464 Y61.873
G01 F600 X65.661 Y61.729
G01 F600 X65.765 Y61.683
G01 F600 X65.765 Y61.096
G01 F600 X65.733 Y61.081
G01 F600 X65.561 Y60.956
G01 F600 X65.418 Y60.797
G01 F600 X65.312 Y60.613
G01 F600 X65.246 Y60.410
G01 F600 X65.223 Y60.198
G01 F600 X65.246 Y59.986
G01 F600 X65.312 Y59.783
G01 F600 X65.418 Y59.599
G01 F600 X65.561 Y59.440
G01 F600 X65.733 Y59.315
G01 F600 X65.928 Y59.228
G01 F600 X66.137 Y59.184
G01 F600 X66.350 Y59.184
G01 F600 X66.558 Y59.228
G01 F600 X66.753 Y59.315
G01 F600 X66.926 Y59.440
G01 F600 X67.068 Y59.599
G01 F600 X67.175 Y59.783
G01 F600 X67.241 Y59.986
G01 F600 X67.263 Y60.198
G01 F600 X67.241 Y60.410
G01 F600 X67.175 Y60.613
G01 F600 X67.068 Y60.797
G01 F600 X66.926 Y60.956
G01 F600 X66.753 Y61.081
G01 F600 X66.721 Y61.095
G01 F600 X66.722 Y61.683
G01 F600 X66.826 Y61.730
G01 F600 X67.022 Y61.873
G01 F600 X67.185 Y62.053
G01 F600 X67.307 Y62.264
G01 F600 X67.382 Y62.496
G01 F600 X67.408 Y62.738
G01 F600 X67.382 Y62.980
G01 F600 X67.307 Y63.212
G01 F600 X67.185 Y63.423
G01 F600 X67.022 Y63.603
G01 F600 X66.826 Y63.747
G01 F600 X66.603 Y63.846
G01 F600 X66.365 Y63.896
G01 F600 X66.121 Y63.896
G00 F3000 Z3.000
G00 F3000 X53.422 Y63.896
G00 F1500 Z0
G01 F600 Z-0.200
G01 F600 X53.183 Y63.846
G01 F600 X52.961 Y63.747
G01 F600 X52.764 Y63.603
G01 F600 X52.601 Y63.423
G01 F600 X52.479 Y63.212
G01 F600 X52.404 Y62.980
G01 F600 X52.379 Y62.738
G01 F600 X52.404 Y62.496
G01 F600 X52.479 Y62.264
G01 F600 X52.601 Y62.053
G01 F600 X52.764 Y61.873
G01 F600 X52.961 Y61.729
G01 F600 X53.065 Y61.683
G01 F600 X53.065 Y61.096
G01 F600 X53.033 Y61.081
G01 F600 X52.861 Y60.956
G01 F600 X52.718 Y60.797
G01 F600 X52.611 Y60.613
G01 F600 X52.546 Y60.410
G01 F600 X52.523 Y60.198
G01 F600 X52.546 Y59.986
G01 F600 X52.611 Y59.783
G01 F600 X52.718 Y59.599
G01 F600 X52.861 Y59.440
G01 F600 X53.033 Y59.315
G01 F600 X53.228 Y59.228
G01 F600 X53.437 Y59.184
G01 F600 X53.650 Y59.184
G01 F600 X53.858 Y59.228
G01 F600 X54.053 Y59.315
G01 F600 X54.226 Y59.440
G01 F600 X54.368 Y59.599
G01 F600 X54.475 Y59.783
G01 F600 X54.541 Y59.986
G01 F600 X54.563 Y60.198
G01 F600 X54.541 Y60.410
G01 F600 X54.475 Y60.613
G01 F600 X54.368 Y60.797
G01 F600 X54.226 Y60.956
G01 F600 X54.053 Y61.081
G01 F600 X54.021 Y61.095
G01 F600 X54.022 Y61.683
G01 F600 X54.126 Y61.730
G01 F600 X54.322 Y61.873
G01 F600 X54.485 Y62.053
G01 F600 X54.607 Y62.264
G01 F600 X54.682 Y62.496
G01 F600 X54.708 Y62.738
G01 F600 X54.682 Y62.980
G01 F600 X54.607 Y63.212
G01 F600 X54.485 Y63.423
G01 F600 X54.322 Y63.603
G01 F600 X54.126 Y63.747
G01 F600 X53.903 Y63.846
G01 F600 X53.665 Y63.896
G01 F600 X53.422 Y63.896
G00 F3000 Z3.000
G00 F3000 X58.502 Y63.896
G00 F1500 Z0
G01 F600 Z-0.200
G01 F600 X58.263 Y63.846
G01 F600 X58.041 Y63.747
G01 F600 X57.844 Y63.603
G01 F600 X57.681 Y63.423
G01 F600 X57.559 Y63.212
G01 F600 X57.484 Y62.980
G01 F600 X57.459 Y62.738
G01 F600 X57.484 Y62.496
G01 F600 X57.559 Y62.264
G01 F600 X57.681 Y62.053
G01 F600 X57.844 Y61.873
G01 F600 X58.041 Y61.729
G01 F600 X58.145 Y61.683
G01 F600 X58.145 Y61.096
G01 F600 X58.113 Y61.081
G01 F600 X57.941 Y60.956
G01 F600 X57.798 Y60.797
G01 F600 X57.692 Y60.613
G01 F600 X57.626 Y60.410
G01 F600 X57.603 Y60.198
G01 F600 X57.626 Y59.986
G01 F600 X57.692 Y59.783
G01 F600 X57.798 Y59.599
G01 F600 X57.941 Y59.440
G01 F600 X58.113 Y59.315
G01 F600 X58.308 Y59.228
G01 F600 X58.517 Y59.184
G01 F600 X58.730 Y59.184
G01 F600 X58.938 Y59.228
G01 F600 X59.133 Y59.315
G01 F600 X59.306 Y59.440
G01 F600 X59.448 Y59.599
G01 F600 X59.555 Y59.783
G01 F600 X59.621 Y59.986
G01 F600 X59.643 Y60.198
G01 F600 X59.621 Y60.410
G01 F600 X59.555 Y60.613
G01 F600 X59.448 Y60.797
G01 F600 X59.306 Y60.956
G01 F600 X59.133 Y61.081
G01 F600 X59.101 Y61.095
G01 F600 X59.102 Y61.683
G01 F600 X59.206 Y61.730
G01 F600 X59.402 Y61.873
G01 F600 X59.565 Y62.053
G01 F600 X59.687 Y62.264
G01 F600 X59.762 Y62.496
G01 F600 X59.788 Y62.738
G01 F600 X59.762 Y62.980
G01 F600 X59.687 Y63.212
G01 F600 X59.565 Y63.423
G01 F600 X59.402 Y63.603
G01 F600 X59.206 Y63.747
G01 F600 X58.983 Y63.846
G01 F600 X58.745 Y63.896
G01 F600 X58.502 Y63.896
G00 F3000 Z3.000
G00 F3000 X55.962 Y63.896
G00 F1500 Z0
G01 F600 Z-0.200
G01 F600 X55.723 Y63.846
G01 F600 X55.501 Y63.747
G01 F600 X55.304 Y63.603
G01 F600 X55.141 Y63.423
G01 F600 X55.019 Y63.212
G01 F600 X54.944 Y62.980
G01 F600 X54.919 Y62.738
G01 F600 X54.944 Y62.496
G01 F600 X55.019 Y62.264
G01 F600 X55.141 Y62.053
G01 F600 X55.304 Y61.873
G01 F600 X55.501 Y61.729
G01 F600 X55.605 Y61.683
G01 F600 X55.605 Y61.096
G01 F600 X55.573 Y61.081
G01 F600 X55.401 Y60.956
G01 F600 X55.258 Y60.797
G01 F600 X55.152 Y60.613
G01 F600 X55.086 Y60.410
G01 F600 X55.063 Y60.198
G01 F600 X55.086 Y59.986
G01 F600 X55.152 Y59.783
G01 F600 X55.258 Y59.599
G01 F600 X55.401 Y59.440
G01 F600 X55.573 Y59.315
G01 F600 X55.768 Y59.228
G01 F600 X55.977 Y59.184
G01 F600 X56.190 Y59.184
G01 F600 X56.398 Y59.228
G01 F600 X56.593 Y59.315
G01 F600 X56.766 Y59.440
G01 F600 X56.908 Y59.599
G01 F600 X57.015 Y59.783
G01 F600 X57.081 Y59.986
G01 F600 X57.103 Y60.198
G01 F600 X57.081 Y60.410
G01 F600 X57.015 Y60.613
G01 F600 X56.908 Y60.797
G01 F600 X56.766 Y60.956
G01 F600 X56.593 Y61.081
G01 F600 X56.561 Y61.095
G01 F600 X56.562 Y61.683
G01 F600 X56.666 Y61.730
G01 F600 X56.862 Y61.873
G01 F600 X57.025 Y62.053
G01 F600 X57.147 Y62.264
G01 F600 X57.222 Y62.496
G01 F600 X57.248 Y62.738
G01 F600 X57.222 Y62.980
G01 F600 X57.147 Y63.212
G01 F600 X57.025 Y63.423
G01 F600 X56.862 Y63.603
G01 F600 X56.666 Y63.747
G01 F600 X56.443 Y63.846
G01 F600 X56.205 Y63.896
G01 F600 X55.962 Y63.896
G00 F3000 Z3.000
G00 F3000 X40.726 Y63.858
G00 F1500 Z0
G01 F600 Z-0.200
G01 F600 X40.495 Y63.809
G01 F600 X40.280 Y63.714
G01 F600 X40.090 Y63.575
G01 F600 X39.932 Y63.400
G01 F600 X39.814 Y63.196
G01 F600 X39.741 Y62.972
G01 F600 X39.717 Y62.738
G01 F600 X39.741 Y62.504
G01 F600 X39.814 Y62.280
G01 F600 X39.932 Y62.076
G01 F600 X40.090 Y61.901
G01 F600 X40.280 Y61.763
G01 F600 X40.365 Y61.725
G01 F600 X40.365 Y61.096
G01 F600 X40.333 Y61.081
G01 F600 X40.161 Y60.956
G01 F600 X40.018 Y60.797
G01 F600 X39.912 Y60.613
G01 F600 X39.846 Y60.410
G01 F600 X39.823 Y60.198
G01 F600 X39.846 Y59.986
G01 F600 X39.912 Y59.783
G01 F600 X40.018 Y59.599
G01 F600 X40.161 Y59.440
G01 F600 X40.333 Y59.315
G01 F600 X40.365 Y59.300
G01 F600 X40.365 Y47.974
G01 F600 X34.242 Y47.974
G01 F600 X34.135 Y48.160
G01 F600 X33.977 Y48.335
G01 F600 X33.786 Y48.474
G01 F600 X33.571 Y48.569
G01 F600 X33.341 Y48.618
G01 F600 X33.105 Y48.618
G01 F600 X32.875 Y48.569
G01 F600 X32.842 Y48.555
G01 F600 X31.000 Y50.397
G01 F600 X30.923 Y50.453
G01 F600 X30.831 Y50.493
G01 F600 X30.733 Y50.514
G01 F600 X11.382 Y50.514
G01 F600 X11.274 Y50.700
G01 F600 X11.117 Y50.875
G01 F600 X10.926 Y51.014
G01 F600 X10.711 Y51.109
G01 F600 X10.481 Y51.158
G01 F600 X10.245 Y51.158
G01 F600 X10.015 Y51.109
G01 F600 X9.800 Y51.014
G01 F600 X9.610 Y50.875
G01 F600 X9.452 Y50.700
G01 F600 X9.334 Y50.496
G01 F600 X9.261 Y50.272
G01 F600 X9.237 Y50.038
G01 F600 X9.261 Y49.804
G01 F600 X9.334 Y49.580
G01 F600 X9.452 Y49.376
G01 F600 X9.610 Y49.201
G01 F600 X9.800 Y49.063
G01 F600 X10.015 Y48.967
G01 F600 X10.245 Y48.918
G01 F600 X10.481 Y48.918
G01 F600 X10.711 Y48.967
G01 F600 X10.926 Y49.063
G01 F600 X11.117 Y49.201
G01 F600 X11.274 Y49.376
G01 F600 X11.382 Y49.562
G01 F600 X30.484 Y49.562
G01 F600 X32.169 Y47.878
G01 F600 X32.121 Y47.732
G01 F600 X32.097 Y47.498
G01 F600 X32.121 Y47.264
G01 F600 X32.194 Y47.040
G01 F600 X32.312 Y46.836
G01 F600 X32.470 Y46.661
G01 F600 X32.660 Y46.523
G01 F600 X32.875 Y46.427
G01 F600 X33.105 Y46.378
G01 F600 X33.341 Y46.378
G01 F600 X33.571 Y46.427
G01 F600 X33.786 Y46.523
G01 F600 X33.977 Y46.661
G01 F600 X34.135 Y46.836
G01 F600 X34.242 Y47.022
G01 F600 X42.364 Y47.022
G01 F600 X42.472 Y46.836
G01 F600 X42.630 Y46.661
G01 F600 X42.820 Y46.523
G01 F600 X43.035 Y46.427
G01 F600 X43.266 Y46.378
G01 F600 X43.501 Y46.378
G01 F600 X43.731 Y46.427
G01 F600 X43.946 Y46.523
G01 F600 X44.137 Y46.661
G01 F600 X44.294 Y46.836
G01 F600 X44.412 Y47.040
G01 F600 X44.485 Y47.264
G01 F600 X44.510 Y47.498
G01 F600 X44.485 Y47.732
G01 F600 X44.412 Y47.956
G01 F600 X44.294 Y48.160
G01 F600 X44.137 Y48.335
G01 F600 X43.946 Y48.474
G01 F600 X43.731 Y48.569
G01 F600 X43.501 Y48.618
G01 F600 X43.266 Y48.618
G01 F600 X43.035 Y48.569
G01 F600 X42.820 Y48.474
G01 F600 X42.630 Y48.335
G01 F600 X42.472 Y48.160
G01 F600 X42.364 Y47.974
G01 F600 X41.321 Y47.974
G01 F600 X41.321 Y59.300
G01 F600 X41.353 Y59.315
G01 F600 X41.526 Y59.440
G01 F600 X41.668 Y59.599
G01 F600 X41.775 Y59.783
G01 F600 X41.841 Y59.986
G01 F600 X41.863 Y60.198
G01 F600 X41.841 Y60.410
G01 F600 X41.775 Y60.613
G01 F600 X41.668 Y60.797
G01 F600 X41.526 Y60.956
G01 F600 X41.353 Y61.081
G01 F600 X41.321 Y61.096
G01 F600 X41.321 Y61.725
G01 F600 X41.406 Y61.763
G01 F600 X41.597 Y61.901
G01 F600 X41.755 Y62.076
G01 F600 X41.872 Y62.280
G01 F600 X41.945 Y62.504
G01 F600 X41.970 Y62.738
G01 F600 X41.945 Y62.972
G01 F600 X41.872 Y63.196
G01 F600 X41.755 Y63.400
G01 F600 X41.597 Y63.575
G01 F600 X41.406 Y63.714
G01 F600 X41.191 Y63.809
G01 F600 X40.961 Y63.858
G01 F600 X40.726 Y63.858
G00 F3000 Z3.000
G00 F3000 X24.368 Y63.858
G00 F1500 Z0
G01 F600 Z-0.200
G01 F600 X24.138 Y63.809
G01 F600 X23.922 Y63.714
G01 F600 X23.732 Y63.575
G01 F600 X23.574 Y63.400
G01 F600 X23.457 Y63.196
G01 F600 X23.384 Y62.972
G01 F600 X23.359 Y62.738
G01 F600 X23.384 Y62.504
G01 F600 X23.457 Y62.280
G01 F600 X23.574 Y62.076
G01 F600 X23.732 Y61.901
G01 F600 X23.922 Y61.763
G01 F600 X24.138 Y61.667
G01 F600 X24.368 Y61.618
G01 F600 X24.603 Y61.618
G01 F600 X24.834 Y61.667
G01 F600 X25.049 Y61.763
G01 F600 X25.239 Y61.901
G01 F600 X25.397 Y62.076
G01 F600 X25.505 Y62.263
G01 F600 X35.267 Y62.286
G01 F600 X35.284 Y61.095
G01 F600 X35.253 Y61.081
G01 F600 X35.081 Y60.956
G01 F600 X34.938 Y60.797
G01 F600 X34.831 Y60.613
G01 F600 X34.766 Y60.410
G01 F600 X34.743 Y60.198
G01 F600 X34.766 Y59.986
G01 F600 X34.831 Y59.783
G01 F600 X34.938 Y59.599
G01 F600 X35.081 Y59.440
G01 F600 X35.253 Y59.315
G01 F600 X35.448 Y59.228
G01 F600 X35.657 Y59.184
G01 F600 X35.870 Y59.184
G01 F600 X36.078 Y59.228
G01 F600 X36.273 Y59.315
G01 F600 X36.446 Y59.440
G01 F600 X36.588 Y59.599
G01 F600 X36.695 Y59.783
G01 F600 X36.761 Y59.986
G01 F600 X36.783 Y60.198
G01 F600 X36.761 Y60.410
G01 F600 X36.695 Y60.613
G01 F600 X36.588 Y60.797
G01 F600 X36.446 Y60.956
G01 F600 X36.273 Y61.081
G01 F600 X36.239 Y61.096
G01 F600 X36.215 Y62.774
G01 F600 X36.206 Y62.863
G01 F600 X36.175 Y62.958
G01 F600 X36.125 Y63.045
G01 F600 X36.058 Y63.119
G01 F600 X35.977 Y63.178
G01 F600 X35.886 Y63.219
G01 F600 X35.788 Y63.239
G01 F600 X35.706 Y63.239
G01 F600 X25.504 Y63.215
G01 F600 X25.397 Y63.400
G01 F600 X25.239 Y63.575
G01 F600 X25.049 Y63.714
G01 F600 X24.834 Y63.809
G01 F600 X24.603 Y63.858
G01 F600 X24.368 Y63.858
G00 F3000 Z3.000
G00 F3000 X17.866 Y63.858
G00 F1500 Z0
G01 F600 Z-0.200
G01 F600 X17.635 Y63.809
G01 F600 X17.420 Y63.714
G01 F600 X17.230 Y63.575
G01 F600 X17.072 Y63.400
G01 F600 X16.954 Y63.196
G01 F600 X16.881 Y62.972
G01 F600 X16.857 Y62.738
G01 F600 X16.881 Y62.504
G01 F600 X16.954 Y62.280
G01 F600 X17.072 Y62.076
G01 F600 X17.230 Y61.901
G01 F600 X17.420 Y61.763
G01 F600 X17.635 Y61.667
G01 F600 X17.866 Y61.618
G01 F600 X18.101 Y61.618
G01 F600 X18.331 Y61.667
G01 F600 X18.546 Y61.763
G01 F600 X18.737 Y61.901
G01 F600 X18.895 Y62.076
G01 F600 X19.012 Y62.280
G01 F600 X19.085 Y62.504
G01 F600 X19.110 Y62.738
G01 F600 X19.085 Y62.972
G01 F600 X19.012 Y63.196
G01 F600 X18.895 Y63.400
G01 F600 X18.737 Y63.575
G01 F600 X18.546 Y63.714
G01 F600 X18.331 Y63.809
G01 F600 X18.101 Y63.858
G01 F600 X17.866 Y63.858
G00 F3000 Z3.000
G00 F3000 X76.297 Y61.212
G00 F1500 Z0
G01 F600 Z-0.200
G01 F600 X76.088 Y61.168
G01 F600 X75.893 Y61.081
G01 F600 X75.721 Y60.956
G01 F600 X75.578 Y60.797
G01 F600 X75.472 Y60.613
G01 F600 X75.406 Y60.410
G01 F600 X75.383 Y60.198
G01 F600 X75.406 Y59.986
G01 F600 X75.472 Y59.783
G01 F600 X75.578 Y59.599
G01 F600 X75.721 Y59.440
G01 F600 X75.893 Y59.315
G01 F600 X75.925 Y59.300
G01 F600 X75.925 Y58.672
G01 F600 X75.840 Y58.634
G01 F600 X75.650 Y58.495
G01 F600 X75.492 Y58.320
G01 F600 X75.374 Y58.116
G01 F600 X75.301 Y57.892
G01 F600 X75.277 Y57.658
G01 F600 X75.301 Y57.424
G01 F600 X75.374 Y57.200
G01 F600 X75.492 Y56.996
G01 F600 X75.650 Y56.821
G01 F600 X75.840 Y56.683
G01 F600 X76.055 Y56.587
G01 F600 X76.285 Y56.538
G01 F600 X76.521 Y56.538
G01 F600 X76.751 Y56.587
G01 F600 X76.966 Y56.683
G01 F600 X77.157 Y56.821
G01 F600 X77.315 Y56.996
G01 F600 X77.432 Y57.200
G01 F600 X77.505 Y57.424
G01 F600 X77.530 Y57.658
G01 F600 X77.505 Y57.892
G01 F600 X77.432 Y58.116
G01 F600 X77.315 Y58.320
G01 F600 X77.157 Y58.495
G01 F600 X76.966 Y58.634
G01 F600 X76.881 Y58.672
G01 F600 X76.881 Y59.300
G01 F600 X76.913 Y59.315
G01 F600 X77.086 Y59.440
G01 F600 X77.228 Y59.599
G01 F600 X77.335 Y59.783
G01 F600 X77.401 Y59.986
G01 F600 X77.423 Y60.198
G01 F600 X77.401 Y60.410
G01 F600 X77.335 Y60.613
G01 F600 X77.228 Y60.797
G01 F600 X77.086 Y60.956
G01 F600 X76.913 Y61.081
G01 F600 X76.718 Y61.168
G01 F600 X76.510 Y61.212
G01 F600 X76.297 Y61.212
G00 F3000 Z3.000
G00 F3000 X71.217 Y61.212
G00 F1500 Z0
G01 F600 Z-0.200
G01 F600 X71.008 Y61.168
G01 F600 X70.813 Y61.081
G01 F600 X70.641 Y60.956
G01 F600 X70.498 Y60.797
G01 F600 X70.392 Y60.613
G01 F600 X70.326 Y60.410
G01 F600 X70.303 Y60.198
G01 F600 X70.326 Y59.986
G01 F600 X70.392 Y59.783
G01 F600 X70.498 Y59.599
G01 F600 X70.641 Y59.440
G01 F600 X70.813 Y59.315
G01 F600 X70.844 Y59.301
G01 F600 X70.827 Y58.134
G01 F600 X56.033 Y58.134
G01 F600 X55.935 Y58.113
G01 F600 X55.844 Y58.073
G01 F600 X55.767 Y58.017
G01 F600 X48.845 Y51.095
G01 F600 X48.822 Y51.105
G01 F600 X48.748 Y51.131
G01 F600 X48.703 Y51.164
G01 F600 X48.611 Y51.205
G01 F600 X48.513 Y51.225
G01 F600 X48.413 Y51.225
G01 F600 X48.315 Y51.205
G01 F600 X48.220 Y51.162
G01 F600 X48.169 Y51.121
G01 F600 X48.115 Y51.109
G01 F600 X47.900 Y51.014
G01 F600 X47.710 Y50.875
G01 F600 X47.552 Y50.700
G01 F600 X47.434 Y50.496
G01 F600 X47.361 Y50.272
G01 F600 X47.337 Y50.038
G01 F600 X47.361 Y49.804
G01 F600 X47.434 Y49.580
G01 F600 X47.552 Y49.376
G01 F600 X47.710 Y49.201
G01 F600 X47.900 Y49.063
G01 F600 X48.115 Y48.967
G01 F600 X48.346 Y48.918
G01 F600 X48.581 Y48.918
G01 F600 X48.811 Y48.967
G01 F600 X49.026 Y49.063
G01 F600 X49.217 Y49.201
G01 F600 X49.375 Y49.376
G01 F600 X49.492 Y49.580
G01 F600 X49.565 Y49.804
G01 F600 X49.590 Y50.038
G01 F600 X49.565 Y50.272
G01 F600 X49.518 Y50.418
G01 F600 X56.282 Y57.182
G01 F600 X71.348 Y57.182
G01 F600 X71.446 Y57.203
G01 F600 X71.537 Y57.243
G01 F600 X71.618 Y57.302
G01 F600 X71.685 Y57.377
G01 F600 X71.735 Y57.463
G01 F600 X71.766 Y57.559
G01 F600 X71.776 Y57.648
G01 F600 X71.799 Y59.300
G01 F600 X71.833 Y59.315
G01 F600 X72.006 Y59.440
G01 F600 X72.148 Y59.599
G01 F600 X72.255 Y59.783
G01 F600 X72.321 Y59.986
G01 F600 X72.343 Y60.198
G01 F600 X72.321 Y60.410
G01 F600 X72.255 Y60.613
G01 F600 X72.148 Y60.797
G01 F600 X72.006 Y60.956
G01 F600 X71.833 Y61.081
G01 F600 X71.638 Y61.168
G01 F600 X71.430 Y61.212
G01 F600 X71.217 Y61.212
G00 F3000 Z3.000
G00 F3000 X88.997 Y61.212
G00 F1500 Z0
G01 F600 Z-0.200
G01 F600 X88.788 Y61.168
G01 F600 X88.593 Y61.081
G01 F600 X88.421 Y60.956
G01 F600 X88.278 Y60.797
G01 F600 X88.172 Y60.613
G01 F600 X88.106 Y60.410
G01 F600 X88.083 Y60.198
G01 F600 X88.106 Y59.986
G01 F600 X88.172 Y59.783
G01 F600 X88.278 Y59.599
G01 F600 X88.421 Y59.440
G01 F600 X88.593 Y59.315
G01 F600 X88.788 Y59.228
G01 F600 X88.997 Y59.184
G01 F600 X89.210 Y59.184
G01 F600 X89.418 Y59.228
G01 F600 X89.613 Y59.315
G01 F600 X89.786 Y59.440
G01 F600 X89.928 Y59.599
G01 F600 X90.035 Y59.783
G01 F600 X90.101 Y59.986
G01 F600 X90.123 Y60.198
G01 F600 X90.101 Y60.410
G01 F600 X90.035 Y60.613
G01 F600 X89.928 Y60.797
G01 F600 X89.786 Y60.956
G01 F600 X89.613 Y61.081
G01 F600 X89.418 Y61.168
G01 F600 X89.210 Y61.212
G01 F600 X88.997 Y61.212
G00 F3000 Z3.000
G00 F3000 X94.077 Y61.212
G00 F1500 Z0
G01 F600 Z-0.200
G01 F600 X93.868 Y61.168
G01 F600 X93.673 Y61.081
G01 F600 X93.501 Y60.956
G01 F600 X93.358 Y60.797
G01 F600 X93.252 Y60.613
G01 F600 X93.186 Y60.410
G01 F600 X93.163 Y60.198
G01 F600 X93.186 Y59.986
G01 F600 X93.252 Y59.783
G01 F600 X93.358 Y59.599
G01 F600 X93.501 Y59.440
G01 F600 X93.673 Y59.315
G01 F600 X93.868 Y59.228
G01 F600 X94.077 Y59.184
G01 F600 X94.290 Y59.184
G01 F600 X94.498 Y59.228
G01 F600 X94.693 Y59.315
G01 F600 X94.866 Y59.440
G01 F600 X95.008 Y59.599
G01 F600 X95.115 Y59.783
G01 F600 X95.181 Y59.986
G01 F600 X95.203 Y60.198
G01 F600 X95.181 Y60.410
G01 F600 X95.115 Y60.613
G01 F600 X95.008 Y60.797
G01 F600 X94.866 Y60.956
G01 F600 X94.693 Y61.081
G01 F600 X94.498 Y61.168
G01 F600 X94.290 Y61.212
G01 F600 X94.077 Y61.212
G00 F3000 Z3.000
G00 F3000 X91.537 Y61.212
G00 F1500 Z0
G01 F600 Z-0.200
G01 F600 X91.328 Y61.168
G01 F600 X91.133 Y61.081
G01 F600 X90.961 Y60.956
G01 F600 X90.818 Y60.797
G01 F600 X90.712 Y60.613
G01 F600 X90.646 Y60.410
G01 F600 X90.623 Y60.198
G01 F600 X90.646 Y59.986
G01 F600 X90.712 Y59.783
G01 F600 X90.818 Y59.599
G01 F600 X90.961 Y59.440
G01 F600 X91.133 Y59.315
G01 F600 X91.328 Y59.228
G01 F600 X91.537 Y59.184
G01 F600 X91.750 Y59.184
G01 F600 X91.958 Y59.228
G01 F600 X92.153 Y59.315
G01 F600 X92.326 Y59.440
G01 F600 X92.468 Y59.599
G01 F600 X92.575 Y59.783
G01 F600 X92.641 Y59.986
G01 F600 X92.663 Y60.198
G01 F600 X92.641 Y60.410
G01 F600 X92.575 Y60.613
G01 F600 X92.468 Y60.797
G01 F600 X92.326 Y60.956
G01 F600 X92.153 Y61.081
G01 F600 X91.958 Y61.168
G01 F600 X91.750 Y61.212
G01 F600 X91.537 Y61.212
G00 F3000 Z3.000
G00 F3000 X81.377 Y61.212
G00 F1500 Z0
G01 F600 Z-0.200
G01 F600 X81.168 Y61.168
G01 F600 X80.973 Y61.081
G01 F600 X80.801 Y60.956
G01 F600 X80.658 Y60.797
G01 F600 X80.552 Y60.613
G01 F600 X80.486 Y60.410
G01 F600 X80.463 Y60.198
G01 F600 X80.486 Y59.986
G01 F600 X80.552 Y59.783
G01 F600 X80.658 Y59.599
G01 F600 X80.801 Y59.440
G01 F600 X80.973 Y59.315
G01 F600 X81.168 Y59.228
G01 F600 X81.377 Y59.184
G01 F600 X81.590 Y59.184
G01 F600 X81.798 Y59.228
G01 F600 X81.993 Y59.315
G01 F600 X82.166 Y59.440
G01 F600 X82.308 Y59.599
G01 F600 X82.415 Y59.783
G01 F600 X82.481 Y59.986
G01 F600 X82.503 Y60.198
G01 F600 X82.481 Y60.410
G01 F600 X82.415 Y60.613
G01 F600 X82.308 Y60.797
G01 F600 X82.166 Y60.956
G01 F600 X81.993 Y61.081
G01 F600 X81.798 Y61.168
G01 F600 X81.590 Y61.212
G01 F600 X81.377 Y61.212
G00 F3000 Z3.000
G00 F3000 X78.837 Y61.212
G00 F1500 Z0
G01 F600 Z-0.200
G01 F600 X78.628 Y61.168
G01 F600 X78.433 Y61.081
G01 F600 X78.261 Y60.956
G01 F600 X78.118 Y60.797
G01 F600 X78.011 Y60.613
G01 F600 X77.946 Y60.410
G01 F600 X77.923 Y60.198
G01 F600 X77.946 Y59.986
G01 F600 X78.011 Y59.783
G01 F600 X78.118 Y59.599
G01 F600 X78.261 Y59.440
G01 F600 X78.433 Y59.315
G01 F600 X78.628 Y59.228
G01 F600 X78.837 Y59.184
G01 F600 X79.050 Y59.184
G01 F600 X79.258 Y59.228
G01 F600 X79.453 Y59.315
G01 F600 X79.626 Y59.440
G01 F600 X79.768 Y59.599
G01 F600 X79.875 Y59.783
G01 F600 X79.941 Y59.986
G01 F600 X79.963 Y60.198
G01 F600 X79.941 Y60.410
G01 F600 X79.875 Y60.613
G01 F600 X79.768 Y60.797
G01 F600 X79.626 Y60.956
G01 F600 X79.453 Y61.081
G01 F600 X79.258 Y61.168
G01 F600 X79.050 Y61.212
G01 F600 X78.837 Y61.212
G00 F3000 Z3.000
G00 F3000 X86.457 Y61.212
G00 F1500 Z0
G01 F600 Z-0.200
G01 F600 X86.248 Y61.168
G01 F600 X86.053 Y61.081
G01 F600 X85.881 Y60.956
G01 F600 X85.738 Y60.797
G01 F600 X85.632 Y60.613
G01 F600 X85.566 Y60.410
G01 F600 X85.543 Y60.198
G01 F600 X85.566 Y59.986
G01 F600 X85.632 Y59.783
G01 F600 X85.738 Y59.599
G01 F600 X85.881 Y59.440
G01 F600 X86.053 Y59.315
G01 F600 X86.248 Y59.228
G01 F600 X86.457 Y59.184
G01 F600 X86.670 Y59.184
G01 F600 X86.878 Y59.228
G01 F600 X87.073 Y59.315
G01 F600 X87.246 Y59.440
G01 F600 X87.388 Y59.599
G01 F600 X87.495 Y59.783
G01 F600 X87.561 Y59.986
G01 F600 X87.583 Y60.198
G01 F600 X87.561 Y60.410
G01 F600 X87.495 Y60.613
G01 F600 X87.388 Y60.797
G01 F600 X87.246 Y60.956
G01 F600 X87.073 Y61.081
G01 F600 X86.878 Y61.168
G01 F600 X86.670 Y61.212
G01 F600 X86.457 Y61.212
G00 F3000 Z3.000
G00 F3000 X83.917 Y61.212
G00 F1500 Z0
G01 F600 Z-0.200
G01 F600 X83.708 Y61.168
G01 F600 X83.513 Y61.081
G01 F600 X83.341 Y60.956
G01 F600 X83.198 Y60.797
G01 F600 X83.092 Y60.613
G01 F600 X83.026 Y60.410
G01 F600 X83.003 Y60.198
G01 F600 X83.026 Y59.986
G01 F600 X83.092 Y59.783
G01 F600 X83.198 Y59.599
G01 F600 X83.341 Y59.440
G01 F600 X83.513 Y59.315
G01 F600 X83.708 Y59.228
G01 F600 X83.917 Y59.184
G01 F600 X84.130 Y59.184
G01 F600 X84.338 Y59.228
G01 F600 X84.533 Y59.315
G01 F600 X84.706 Y59.440
G01 F600 X84.848 Y59.599
G01 F600 X84.955 Y59.783
G01 F600 X85.021 Y59.986
G01 F600 X85.043 Y60.198
G01 F600 X85.021 Y60.410
G01 F600 X84.955 Y60.613
G01 F600 X84.848 Y60.797
G01 F600 X84.706 Y60.956
G01 F600 X84.533 Y61.081
G01 F600 X84.338 Y61.168
G01 F600 X84.130 Y61.212
G01 F600 X83.917 Y61.212
G00 F3000 Z3.000
G00 F3000 X38.197 Y61.212
G00 F1500 Z0
G01 F600 Z-0.200
G01 F600 X37.988 Y61.168
G01 F600 X37.793 Y61.081
G01 F600 X37.621 Y60.956
G01 F600 X37.478 Y60.797
G01 F600 X37.372 Y60.613
G01 F600 X37.306 Y60.410
G01 F600 X37.283 Y60.198
G01 F600 X37.306 Y59.986
G01 F600 X37.372 Y59.783
G01 F600 X37.478 Y59.599
G01 F600 X37.621 Y59.440
G01 F600 X37.793 Y59.315
G01 F600 X37.988 Y59.228
G01 F600 X38.197 Y59.184
G01 F600 X38.410 Y59.184
G01 F600 X38.618 Y59.228
G01 F600 X38.813 Y59.315
G01 F600 X38.986 Y59.440
G01 F600 X39.128 Y59.599
G01 F600 X39.235 Y59.783
G01 F600 X39.301 Y59.986
G01 F600 X39.323 Y60.198
G01 F600 X39.301 Y60.410
G01 F600 X39.235 Y60.613
G01 F600 X39.128 Y60.797
G01 F600 X38.986 Y60.956
G01 F600 X38.813 Y61.081
G01 F600 X38.618 Y61.168
G01 F600 X38.410 Y61.212
G01 F600 X38.197 Y61.212
G00 F3000 Z3.000
G00 F3000 X30.577 Y61.212
G00 F1500 Z0
G01 F600 Z-0.200
G01 F600 X30.368 Y61.168
G01 F600 X30.173 Y61.081
G01 F600 X30.001 Y60.956
G01 F600 X29.858 Y60.797
G01 F600 X29.752 Y60.613
G01 F600 X29.686 Y60.410
G01 F600 X29.663 Y60.198
G01 F600 X29.686 Y59.986
G01 F600 X29.752 Y59.783
G01 F600 X29.858 Y59.599
G01 F600 X30.001 Y59.440
G01 F600 X30.173 Y59.315
G01 F600 X30.368 Y59.228
G01 F600 X30.577 Y59.184
G01 F600 X30.790 Y59.184
G01 F600 X30.998 Y59.228
G01 F600 X31.193 Y59.315
G01 F600 X31.366 Y59.440
G01 F600 X31.508 Y59.599
G01 F600 X31.615 Y59.783
G01 F600 X31.681 Y59.986
G01 F600 X31.703 Y60.198
G01 F600 X31.681 Y60.410
G01 F600 X31.615 Y60.613
G01 F600 X31.508 Y60.797
G01 F600 X31.366 Y60.956
G01 F600 X31.193 Y61.081
G01 F600 X30.998 Y61.168
G01 F600 X30.790 Y61.212
G01 F600 X30.577 Y61.212
G00 F3000 Z3.000
G00 F3000 X43.277 Y61.212
G00 F1500 Z0
G01 F600 Z-0.200
G01 F600 X43.068 Y61.168
G01 F600 X42.873 Y61.081
G01 F600 X42.701 Y60.956
G01 F600 X42.558 Y60.797
G01 F600 X42.452 Y60.613
G01 F600 X42.386 Y60.410
G01 F600 X42.363 Y60.198
G01 F600 X42.386 Y59.986
G01 F600 X42.452 Y59.783
G01 F600 X42.558 Y59.599
G01 F600 X42.701 Y59.440
G01 F600 X42.873 Y59.315
G01 F600 X42.905 Y59.300
G01 F600 X42.905 Y56.132
G01 F600 X42.820 Y56.094
G01 F600 X42.630 Y55.955
G01 F600 X42.472 Y55.780
G01 F600 X42.354 Y55.576
G01 F600 X42.281 Y55.352
G01 F600 X42.257 Y55.118
G01 F600 X42.281 Y54.884
G01 F600 X42.354 Y54.660
G01 F600 X42.472 Y54.456
G01 F600 X42.630 Y54.281
G01 F600 X42.820 Y54.143
G01 F600 X43.035 Y54.047
G01 F600 X43.266 Y53.998
G01 F600 X43.501 Y53.998
G01 F600 X43.731 Y54.047
G01 F600 X43.946 Y54.143
G01 F600 X44.137 Y54.281
G01 F600 X44.294 Y54.456
G01 F600 X44.412 Y54.660
G01 F600 X44.485 Y54.884
G01 F600 X44.510 Y55.118
G01 F600 X44.485 Y55.352
G01 F600 X44.412 Y55.576
G01 F600 X44.294 Y55.780
G01 F600 X44.137 Y55.955
G01 F600 X43.946 Y56.094
G01 F600 X43.861 Y56.132
G01 F600 X43.861 Y59.300
G01 F600 X43.893 Y59.315
G01 F600 X44.066 Y59.440
G01 F600 X44.208 Y59.599
G01 F600 X44.315 Y59.783
G01 F600 X44.381 Y59.986
G01 F600 X44.403 Y60.198
G01 F600 X44.381 Y60.410
G01 F600 X44.315 Y60.613
G01 F600 X44.208 Y60.797
G01 F600 X44.066 Y60.956
G01 F600 X43.893 Y61.081
G01 F600 X43.698 Y61.168
G01 F600 X43.490 Y61.212
G01 F600 X43.277 Y61.212
G00 F3000 Z3.000
G00 F3000 X33.117 Y61.212
G00 F1500 Z0
G01 F600 Z-0.200
G01 F600 X32.908 Y61.168
G01 F600 X32.713 Y61.081
G01 F600 X32.541 Y60.956
G01 F600 X32.398 Y60.797
G01 F600 X32.291 Y60.613
G01 F600 X32.226 Y60.410
G01 F600 X32.203 Y60.198
G01 F600 X32.226 Y59.986
G01 F600 X32.291 Y59.783
G01 F600 X32.398 Y59.599
G01 F600 X32.541 Y59.440
G01 F600 X32.713 Y59.315
G01 F600 X32.908 Y59.228
G01 F600 X33.117 Y59.184
G01 F600 X33.330 Y59.184
G01 F600 X33.538 Y59.228
G01 F600 X33.733 Y59.315
G01 F600 X33.906 Y59.440
G01 F600 X34.048 Y59.599
G01 F600 X34.155 Y59.783
G01 F600 X34.221 Y59.986
G01 F600 X34.243 Y60.198
G01 F600 X34.221 Y60.410
G01 F600 X34.155 Y60.613
G01 F600 X34.048 Y60.797
G01 F600 X33.906 Y60.956
G01 F600 X33.733 Y61.081
G01 F600 X33.538 Y61.168
G01 F600 X33.330 Y61.212
G01 F600 X33.117 Y61.212
G00 F3000 Z3.000
G00 F3000 X24.368 Y59.337
G00 F1500 Z0
G01 F600 Z-0.200
G01 F600 X24.138 Y59.288
G01 F600 X23.922 Y59.192
G01 F600 X23.732 Y59.054
G01 F600 X23.574 Y58.879
G01 F600 X23.457 Y58.675
G01 F600 X23.384 Y58.451
G01 F600 X23.359 Y58.217
G01 F600 X23.384 Y57.983
G01 F600 X23.457 Y57.759
G01 F600 X23.574 Y57.555
G01 F600 X23.732 Y57.380
G01 F600 X23.922 Y57.241
G01 F600 X24.138 Y57.146
G01 F600 X24.368 Y57.097
G01 F600 X24.603 Y57.097
G01 F600 X24.834 Y57.146
G01 F600 X25.049 Y57.241
G01 F600 X25.239 Y57.380
G01 F600 X25.397 Y57.555
G01 F600 X25.515 Y57.759
G01 F600 X25.587 Y57.983
G01 F600 X25.612 Y58.217
G01 F600 X25.587 Y58.451
G01 F600 X25.515 Y58.675
G01 F600 X25.397 Y58.879
G01 F600 X25.239 Y59.054
G01 F600 X25.049 Y59.192
G01 F600 X24.834 Y59.288
G01 F600 X24.603 Y59.337
G01 F600 X24.368 Y59.337
G00 F3000 Z3.000
G00 F3000 X17.866 Y59.337
G00 F1500 Z0
G01 F600 Z-0.200
G01 F600 X17.635 Y59.288
G01 F600 X17.420 Y59.192
G01 F600 X17.230 Y59.054
G01 F600 X17.072 Y58.879
G01 F600 X16.954 Y58.675
G01 F600 X16.886 Y58.466
G01 F600 X15.414 Y58.134
G01 F600 X11.382 Y58.134
G01 F600 X11.274 Y58.320
G01 F600 X11.117 Y58.495
G01 F600 X10.926 Y58.634
G01 F600 X10.711 Y58.729
G01 F600 X10.481 Y58.778
G01 F600 X10.245 Y58.778
G01 F600 X10.015 Y58.729
G01 F600 X9.800 Y58.634
G01 F600 X9.610 Y58.495
G01 F600 X9.452 Y58.320
G01 F600 X9.334 Y58.116
G01 F600 X9.261 Y57.892
G01 F600 X9.237 Y57.658
G01 F600 X9.261 Y57.424
G01 F600 X9.334 Y57.200
G01 F600 X9.452 Y56.996
G01 F600 X9.610 Y56.821
G01 F600 X9.800 Y56.683
G01 F600 X10.015 Y56.587
G01 F600 X10.245 Y56.538
G01 F600 X10.481 Y56.538
G01 F600 X10.711 Y56.587
G01 F600 X10.926 Y56.683
G01 F600 X11.117 Y56.821
G01 F600 X11.274 Y56.996
G01 F600 X11.382 Y57.182
G01 F600 X15.519 Y57.182
G01 F600 X15.600 Y57.199
G01 F600 X17.090 Y57.535
G01 F600 X17.230 Y57.380
G01 F600 X17.420 Y57.241
G01 F600 X17.635 Y57.146
G01 F600 X17.866 Y57.097
G01 F600 X18.101 Y57.097
G01 F600 X18.331 Y57.146
G01 F600 X18.546 Y57.241
G01 F600 X18.737 Y57.380
G01 F600 X18.895 Y57.555
G01 F600 X19.012 Y57.759
G01 F600 X19.085 Y57.983
G01 F600 X19.110 Y58.217
G01 F600 X19.085 Y58.451
G01 F600 X19.012 Y58.675
G01 F600 X18.895 Y58.879
G01 F600 X18.737 Y59.054
G01 F600 X18.546 Y59.192
G01 F600 X18.331 Y59.288
G01 F600 X18.101 Y59.337
G01 F600 X17.866 Y59.337
G00 F3000 Z3.000
G00 F3000 X94.066 Y58.778
G00 F1500 Z0
G01 F600 Z-0.200
G01 F600 X93.835 Y58.729
G01 F600 X93.620 Y58.634
G01 F600 X93.430 Y58.495
G01 F600 X93.272 Y58.320
G01 F600 X93.154 Y58.116
G01 F600 X93.081 Y57.892
G01 F600 X93.057 Y57.658
G01 F600 X93.081 Y57.424
G01 F600 X93.154 Y57.200
G01 F600 X93.272 Y56.996
G01 F600 X93.430 Y56.821
G01 F600 X93.620 Y56.683
G01 F600 X93.835 Y56.587
G01 F600 X94.066 Y56.538
G01 F600 X94.301 Y56.538
G01 F600 X94.531 Y56.587
G01 F600 X94.746 Y56.683
G01 F600 X94.937 Y56.821
G01 F600 X95.095 Y56.996
G01 F600 X95.201 Y57.180
G01 F600 X103.865 Y57.133
G01 F600 X103.865 Y50.514
G01 F600 X100.151 Y50.514
G01 F600 X100.082 Y50.633
G01 F600 X99.940 Y50.790
G01 F600 X99.769 Y50.915
G01 F600 X99.576 Y51.001
G01 F600 X99.369 Y51.044
G01 F600 X99.157 Y51.044
G01 F600 X98.951 Y51.001
G01 F600 X98.757 Y50.915
G01 F600 X98.586 Y50.790
G01 F600 X98.444 Y50.633
G01 F600 X98.339 Y50.450
G01 F600 X98.273 Y50.248
G01 F600 X98.251 Y50.038
G01 F600 X98.273 Y49.828
G01 F600 X98.339 Y49.626
G01 F600 X98.444 Y49.443
G01 F600 X98.586 Y49.286
G01 F600 X98.757 Y49.162
G01 F600 X98.951 Y49.076
G01 F600 X99.157 Y49.032
G01 F600 X99.369 Y49.032
G01 F600 X99.576 Y49.076
G01 F600 X99.769 Y49.162
G01 F600 X99.940 Y49.286
G01 F600 X100.082 Y49.443
G01 F600 X100.151 Y49.562
G01 F600 X104.393 Y49.562
G01 F600 X104.491 Y49.583
G01 F600 X104.583 Y49.623
G01 F600 X104.663 Y49.682
G01 F600 X104.731 Y49.757
G01 F600 X104.781 Y49.843
G01 F600 X104.812 Y49.939
G01 F600 X104.821 Y50.029
G01 F600 X104.821 Y57.616
G01 F600 X104.812 Y57.707
G01 F600 X104.781 Y57.802
G01 F600 X104.731 Y57.889
G01 F600 X104.663 Y57.963
G01 F600 X104.583 Y58.022
G01 F600 X104.491 Y58.063
G01 F600 X104.394 Y58.083
G01 F600 X95.203 Y58.133
G01 F600 X95.095 Y58.320
G01 F600 X94.937 Y58.495
G01 F600 X94.746 Y58.634
G01 F600 X94.531 Y58.729
G01 F600 X94.301 Y58.778
G01 F600 X94.066 Y58.778
G00 F3000 Z3.000
G00 F3000 X81.365 Y58.778
G00 F1500 Z0
G01 F600 Z-0.200
G01 F600 X81.135 Y58.729
G01 F600 X80.920 Y58.634
G01 F600 X80.730 Y58.495
G01 F600 X80.572 Y58.320
G01 F600 X80.454 Y58.116
G01 F600 X80.381 Y57.892
G01 F600 X80.357 Y57.658
G01 F600 X80.381 Y57.424
G01 F600 X80.454 Y57.200
G01 F600 X80.572 Y56.996
G01 F600 X80.730 Y56.821
G01 F600 X80.920 Y56.683
G01 F600 X81.135 Y56.587
G01 F600 X81.365 Y56.538
G01 F600 X81.601 Y56.538
G01 F600 X81.831 Y56.587
G01 F600 X82.046 Y56.683
G01 F600 X82.237 Y56.821
G01 F600 X82.395 Y56.996
G01 F600 X82.502 Y57.182
G01 F600 X88.625 Y57.182
G01 F600 X88.625 Y56.025
G01 F600 X88.589 Y56.009
G01 F600 X88.415 Y55.882
G01 F600 X88.271 Y55.723
G01 F600 X88.164 Y55.536
G01 F600 X88.097 Y55.332
G01 F600 X88.075 Y55.118
G01 F600 X88.097 Y54.904
G01 F600 X88.164 Y54.700
G01 F600 X88.271 Y54.514
G01 F600 X88.415 Y54.354
G01 F600 X88.589 Y54.227
G01 F600 X88.785 Y54.140
G01 F600 X88.996 Y54.095
G01 F600 X89.211 Y54.095
G01 F600 X89.421 Y54.140
G01 F600 X89.617 Y54.227
G01 F600 X89.791 Y54.354
G01 F600 X89.935 Y54.514
G01 F600 X90.009 Y54.642
G01 F600 X95.836 Y54.642
G01 F600 X95.904 Y54.523
G01 F600 X96.046 Y54.366
G01 F600 X96.217 Y54.242
G01 F600 X96.410 Y54.156
G01 F600 X96.617 Y54.111
G01 F600 X96.829 Y54.111
G01 F600 X97.036 Y54.156
G01 F600 X97.229 Y54.242
G01 F600 X97.400 Y54.366
G01 F600 X97.542 Y54.523
G01 F600 X97.648 Y54.706
G01 F600 X97.713 Y54.908
G01 F600 X97.735 Y55.118
G01 F600 X97.713 Y55.328
G01 F600 X97.648 Y55.530
G01 F600 X97.542 Y55.713
G01 F600 X97.400 Y55.870
G01 F600 X97.229 Y55.995
G01 F600 X97.036 Y56.081
G01 F600 X96.829 Y56.125
G01 F600 X96.617 Y56.125
G01 F600 X96.410 Y56.081
G01 F600 X96.217 Y55.995
G01 F600 X96.046 Y55.870
G01 F600 X95.904 Y55.713
G01 F600 X95.836 Y55.594
G01 F600 X90.009 Y55.594
G01 F600 X89.935 Y55.723
G01 F600 X89.791 Y55.882
G01 F600 X89.617 Y56.009
G01 F600 X89.581 Y56.025
G01 F600 X89.581 Y57.667
G01 F600 X89.572 Y57.758
G01 F600 X89.541 Y57.853
G01 F600 X89.490 Y57.939
G01 F600 X89.424 Y58.014
G01 F600 X89.343 Y58.073
G01 F600 X89.251 Y58.113
G01 F600 X89.153 Y58.134
G01 F600 X82.502 Y58.134
G01 F600 X82.395 Y58.320
G01 F600 X82.237 Y58.495
G01 F600 X82.046 Y58.634
G01 F600 X81.831 Y58.729
G01 F600 X81.601 Y58.778
G01 F600 X81.365 Y58.778
G00 F3000 Z3.000
G00 F3000 X101.686 Y56.238
G00 F1500 Z0
G01 F600 Z-0.200
G01 F600 X101.455 Y56.189
G01 F600 X101.240 Y56.094
G01 F600 X101.050 Y55.955
G01 F600 X100.892 Y55.780
G01 F600 X100.774 Y55.576
G01 F600 X100.701 Y55.352
G01 F600 X100.677 Y55.118
G01 F600 X100.701 Y54.884
G01 F600 X100.774 Y54.660
G01 F600 X100.892 Y54.456
G01 F600 X101.050 Y54.281
G01 F600 X101.240 Y54.143
G01 F600 X101.318 Y54.108
G01 F600 X101.288 Y53.011
G01 F600 X100.166 Y53.027
G01 F600 X100.082 Y53.173
G01 F600 X99.940 Y53.330
G01 F600 X99.769 Y53.455
G01 F600 X99.576 Y53.541
G01 F600 X99.369 Y53.585
G01 F600 X99.157 Y53.585
G01 F600 X98.951 Y53.541
G01 F600 X98.757 Y53.455
G01 F600 X98.586 Y53.330
G01 F600 X98.444 Y53.173
G01 F600 X98.339 Y52.990
G01 F600 X98.273 Y52.788
G01 F600 X98.251 Y52.578
G01 F600 X98.273 Y52.368
G01 F600 X98.339 Y52.166
G01 F600 X98.444 Y51.983
G01 F600 X98.586 Y51.826
G01 F600 X98.757 Y51.702
G01 F600 X98.951 Y51.616
G01 F600 X99.157 Y51.572
G01 F600 X99.369 Y51.572
G01 F600 X99.576 Y51.616
G01 F600 X99.769 Y51.702
G01 F600 X99.940 Y51.826
G01 F600 X100.083 Y51.984
G01 F600 X100.133 Y52.074
G01 F600 X101.719 Y52.051
G01 F600 X101.802 Y52.051
G01 F600 X101.900 Y52.072
G01 F600 X101.992 Y52.113
G01 F600 X102.073 Y52.171
G01 F600 X102.140 Y52.246
G01 F600 X102.190 Y52.333
G01 F600 X102.221 Y52.428
G01 F600 X102.230 Y52.516
G01 F600 X102.273 Y54.101
G01 F600 X102.366 Y54.143
G01 F600 X102.557 Y54.281
G01 F600 X102.715 Y54.456
G01 F600 X102.832 Y54.660
G01 F600 X102.905 Y54.884
G01 F600 X102.930 Y55.118
G01 F600 X102.905 Y55.352
G01 F600 X102.832 Y55.576
G01 F600 X102.715 Y55.780
G01 F600 X102.557 Y55.955
G01 F600 X102.366 Y56.094
G01 F600 X102.151 Y56.189
G01 F600 X101.921 Y56.238
G01 F600 X101.686 Y56.238
G00 F3000 Z3.000
G00 F3000 X33.105 Y56.238
G00 F1500 Z0
G01 F600 Z-0.200
G01 F600 X32.875 Y56.189
G01 F600 X32.660 Y56.094
G01 F600 X32.470 Y55.955
G01 F600 X32.312 Y55.780
G01 F600 X32.194 Y55.576
G01 F600 X32.121 Y55.352
G01 F600 X32.097 Y55.118
G01 F600 X32.121 Y54.884
G01 F600 X32.194 Y54.660
G01 F600 X32.312 Y54.456
G01 F600 X32.470 Y54.281
G01 F600 X32.660 Y54.143
G01 F600 X32.745 Y54.105
G01 F600 X32.745 Y53.592
G01 F600 X32.660 Y53.553
G01 F600 X32.470 Y53.415
G01 F600 X32.312 Y53.240
G01 F600 X32.194 Y53.036
G01 F600 X32.121 Y52.812
G01 F600 X32.097 Y52.578
G01 F600 X32.121 Y52.344
G01 F600 X32.194 Y52.120
G01 F600 X32.312 Y51.916
G01 F600 X32.470 Y51.741
G01 F600 X32.660 Y51.602
G01 F600 X32.875 Y51.507
G01 F600 X33.105 Y51.458
G01 F600 X33.341 Y51.458
G01 F600 X33.571 Y51.507
G01 F600 X33.587 Y51.514
G01 F600 X35.421 Y49.680
G01 F600 X35.498 Y49.623
G01 F600 X35.590 Y49.583
G01 F600 X35.688 Y49.562
G01 F600 X37.285 Y49.562
G01 F600 X37.392 Y49.376
G01 F600 X37.550 Y49.201
G01 F600 X37.740 Y49.063
G01 F600 X37.955 Y48.967
G01 F600 X38.186 Y48.918
G01 F600 X38.421 Y48.918
G01 F600 X38.651 Y48.967
G01 F600 X38.866 Y49.063
G01 F600 X39.057 Y49.201
G01 F600 X39.215 Y49.376
G01 F600 X39.332 Y49.580
G01 F600 X39.405 Y49.804
G01 F600 X39.430 Y50.038
G01 F600 X39.405 Y50.272
G01 F600 X39.332 Y50.496
G01 F600 X39.215 Y50.700
G01 F600 X39.057 Y50.875
G01 F600 X38.866 Y51.014
G01 F600 X38.651 Y51.109
G01 F600 X38.421 Y51.158
G01 F600 X38.186 Y51.158
G01 F600 X37.955 Y51.109
G01 F600 X37.740 Y51.014
G01 F600 X37.550 Y50.875
G01 F600 X37.392 Y50.700
G01 F600 X37.284 Y50.514
G01 F600 X35.937 Y50.514
G01 F600 X34.272 Y52.179
G01 F600 X34.325 Y52.344
G01 F600 X34.350 Y52.578
G01 F600 X34.325 Y52.812
G01 F600 X34.252 Y53.036
G01 F600 X34.135 Y53.240
G01 F600 X33.977 Y53.415
G01 F600 X33.786 Y53.553
G01 F600 X33.701 Y53.592
G01 F600 X33.701 Y54.105
G01 F600 X33.786 Y54.143
G01 F600 X33.977 Y54.281
G01 F600 X34.135 Y54.456
G01 F600 X34.252 Y54.660
G01 F600 X34.325 Y54.884
G01 F600 X34.350 Y55.118
G01 F600 X34.325 Y55.352
G01 F600 X34.252 Y55.576
G01 F600 X34.135 Y55.780
G01 F600 X33.977 Y55.955
G01 F600 X33.786 Y56.094
G01 F600 X33.571 Y56.189
G01 F600 X33.341 Y56.238
G01 F600 X33.105 Y56.238
G00 F3000 Z3.000
G00 F3000 X86.456 Y56.141
G00 F1500 Z0
G01 F600 Z-0.200
G01 F600 X86.245 Y56.096
G01 F600 X86.049 Y56.009
G01 F600 X85.875 Y55.882
G01 F600 X85.731 Y55.723
G01 F600 X85.657 Y55.594
G01 F600 X56.216 Y55.594
G01 F600 X56.206 Y55.599
G01 F600 X56.108 Y55.620
G01 F600 X56.008 Y55.620
G01 F600 X55.910 Y55.599
G01 F600 X55.818 Y55.558
G01 F600 X55.739 Y55.501
G01 F600 X54.487 Y54.185
G01 F600 X53.215 Y52.950
G01 F600 X53.156 Y52.885
G01 F600 X53.106 Y52.798
G01 F600 X53.075 Y52.703
G01 F600 X53.065 Y52.613
G01 F600 X53.065 Y47.926
G01 F600 X49.495 Y47.947
G01 F600 X49.492 Y47.956
G01 F600 X49.375 Y48.160
G01 F600 X49.217 Y48.335
G01 F600 X49.026 Y48.474
G01 F600 X48.811 Y48.569
G01 F600 X48.581 Y48.618
G01 F600 X48.346 Y48.618
G01 F600 X48.115 Y48.569
G01 F600 X47.900 Y48.474
G01 F600 X47.710 Y48.335
G01 F600 X47.552 Y48.160
G01 F600 X47.434 Y47.956
G01 F600 X47.361 Y47.732
G01 F600 X47.337 Y47.498
G01 F600 X47.361 Y47.264
G01 F600 X47.434 Y47.040
G01 F600 X47.552 Y46.836
G01 F600 X47.710 Y46.661
G01 F600 X47.900 Y46.523
G01 F600 X48.115 Y46.427
G01 F600 X48.126 Y46.424
G01 F600 X48.143 Y46.406
G01 F600 X48.224 Y46.347
G01 F600 X48.315 Y46.306
G01 F600 X48.413 Y46.285
G01 F600 X48.513 Y46.285
G01 F600 X48.611 Y46.306
G01 F600 X48.703 Y46.347
G01 F600 X48.784 Y46.406
G01 F600 X48.800 Y46.424
G01 F600 X48.811 Y46.427
G01 F600 X49.026 Y46.523
G01 F600 X49.217 Y46.661
G01 F600 X49.375 Y46.836
G01 F600 X49.461 Y46.986
G01 F600 X53.377 Y46.939
G01 F600 X55.016 Y45.298
G01 F600 X54.983 Y45.196
G01 F600 X54.959 Y45.043
G01 F600 X54.935 Y45.000
G01 F600 X54.904 Y44.905
G01 F600 X54.893 Y44.806
G01 F600 X54.904 Y44.706
G01 F600 X54.935 Y44.611
G01 F600 X54.985 Y44.524
G01 F600 X55.054 Y44.447
G01 F600 X55.104 Y44.414
G01 F600 X55.172 Y44.296
G01 F600 X55.330 Y44.121
G01 F600 X55.520 Y43.983
G01 F600 X55.581 Y43.955
G01 F600 X55.605 Y25.114
G01 F600 X54.489 Y25.114
G01 F600 X54.403 Y25.263
G01 F600 X54.255 Y25.428
G01 F600 X54.075 Y25.559
G01 F600 X53.872 Y25.649
G01 F600 X53.654 Y25.695
G01 F600 X53.432 Y25.695
G01 F600 X53.215 Y25.649
G01 F600 X53.012 Y25.559
G01 F600 X52.832 Y25.428
G01 F600 X52.683 Y25.263
G01 F600 X52.572 Y25.070
G01 F600 X52.504 Y24.859
G01 F600 X52.480 Y24.638
G01 F600 X52.504 Y24.417
G01 F600 X52.572 Y24.206
G01 F600 X52.683 Y24.013
G01 F600 X52.832 Y23.848
G01 F600 X53.012 Y23.718
G01 F600 X53.215 Y23.627
G01 F600 X53.432 Y23.581
G01 F600 X53.654 Y23.581
G01 F600 X53.872 Y23.627
G01 F600 X54.075 Y23.718
G01 F600 X54.255 Y23.848
G01 F600 X54.403 Y24.013
G01 F600 X54.489 Y24.162
G01 F600 X55.691 Y24.162
G01 F600 X55.839 Y23.423
G01 F600 X55.761 Y23.367
G01 F600 X55.604 Y23.192
G01 F600 X55.486 Y22.988
G01 F600 X55.413 Y22.764
G01 F600 X55.389 Y22.530
G01 F600 X55.413 Y22.296
G01 F600 X55.486 Y22.072
G01 F600 X55.604 Y21.868
G01 F600 X55.761 Y21.693
G01 F600 X55.952 Y21.554
G01 F600 X56.167 Y21.459
G01 F600 X56.397 Y21.410
G01 F600 X56.633 Y21.410
G01 F600 X56.863 Y21.459
G01 F600 X57.078 Y21.554
G01 F600 X57.269 Y21.693
G01 F600 X57.426 Y21.868
G01 F600 X57.544 Y22.072
G01 F600 X57.617 Y22.296
G01 F600 X57.642 Y22.530
G01 F600 X57.617 Y22.764
G01 F600 X57.544 Y22.988
G01 F600 X57.426 Y23.192
G01 F600 X57.269 Y23.367
G01 F600 X57.078 Y23.505
G01 F600 X56.863 Y23.601
G01 F600 X56.774 Y23.620
G01 F600 X56.561 Y24.685
G01 F600 X56.551 Y43.940
G01 F600 X56.646 Y43.983
G01 F600 X56.837 Y44.121
G01 F600 X56.995 Y44.296
G01 F600 X57.112 Y44.500
G01 F600 X57.185 Y44.724
G01 F600 X57.210 Y44.958
G01 F600 X57.185 Y45.192
G01 F600 X57.112 Y45.416
G01 F600 X56.995 Y45.620
G01 F600 X56.837 Y45.795
G01 F600 X56.646 Y45.934
G01 F600 X56.431 Y46.029
G01 F600 X56.201 Y46.078
G01 F600 X55.966 Y46.078
G01 F600 X55.735 Y46.029
G01 F600 X55.667 Y45.999
G01 F600 X54.220 Y47.446
G01 F600 X54.195 Y47.471
G01 F600 X54.021 Y47.645
G01 F600 X54.021 Y52.312
G01 F600 X55.142 Y53.490
G01 F600 X56.329 Y54.642
G01 F600 X70.871 Y54.642
G01 F600 X70.871 Y49.978
G01 F600 X70.880 Y49.888
G01 F600 X70.911 Y49.793
G01 F600 X70.961 Y49.706
G01 F600 X71.028 Y49.631
G01 F600 X71.109 Y49.573
G01 F600 X71.201 Y49.532
G01 F600 X71.299 Y49.511
G01 F600 X71.399 Y49.511
G01 F600 X71.501 Y49.533
G01 F600 X71.558 Y49.562
G01 F600 X76.179 Y49.562
G01 F600 X88.787 Y36.980
G01 F600 X88.864 Y36.923
G01 F600 X88.955 Y36.883
G01 F600 X89.053 Y36.862
G01 F600 X90.581 Y36.862
G01 F600 X90.701 Y36.654
G01 F600 X90.864 Y36.473
G01 F600 X91.061 Y36.330
G01 F600 X91.283 Y36.230
G01 F600 X91.522 Y36.180
G01 F600 X91.765 Y36.180
G01 F600 X92.003 Y36.230
G01 F600 X92.226 Y36.330
G01 F600 X92.422 Y36.473
G01 F600 X92.585 Y36.654
G01 F600 X92.707 Y36.864
G01 F600 X92.782 Y37.096
G01 F600 X92.808 Y37.338
G01 F600 X92.782 Y37.580
G01 F600 X92.707 Y37.812
G01 F600 X92.585 Y38.023
G01 F600 X92.422 Y38.203
G01 F600 X92.226 Y38.346
G01 F600 X92.003 Y38.446
G01 F600 X91.765 Y38.496
G01 F600 X91.522 Y38.496
G01 F600 X91.283 Y38.446
G01 F600 X91.061 Y38.346
G01 F600 X90.864 Y38.203
G01 F600 X90.701 Y38.023
G01 F600 X90.581 Y37.814
G01 F600 X89.302 Y37.814
G01 F600 X76.694 Y50.397
G01 F600 X76.617 Y50.453
G01 F600 X76.526 Y50.493
G01 F600 X76.428 Y50.514
G01 F600 X71.826 Y50.514
G01 F600 X71.826 Y54.642
G01 F600 X85.657 Y54.642
G01 F600 X85.731 Y54.514
G01 F600 X85.875 Y54.354
G01 F600 X86.049 Y54.227
G01 F600 X86.245 Y54.140
G01 F600 X86.456 Y54.095
G01 F600 X86.671 Y54.095
G01 F600 X86.881 Y54.140
G01 F600 X87.077 Y54.227
G01 F600 X87.251 Y54.354
G01 F600 X87.395 Y54.514
G01 F600 X87.503 Y54.700
G01 F600 X87.569 Y54.904
G01 F600 X87.592 Y55.118
G01 F600 X87.569 Y55.332
G01 F600 X87.503 Y55.536
G01 F600 X87.395 Y55.723
G01 F600 X87.251 Y55.882
G01 F600 X87.077 Y56.009
G01 F600 X86.881 Y56.096
G01 F600 X86.671 Y56.141
G01 F600 X86.456 Y56.141
G00 F3000 Z3.000
G00 F3000 X99.157 Y56.125
G00 F1500 Z0
G01 F600 Z-0.200
G01 F600 X98.951 Y56.081
G01 F600 X98.757 Y55.995
G01 F600 X98.586 Y55.870
G01 F600 X98.444 Y55.713
G01 F600 X98.339 Y55.530
G01 F600 X98.273 Y55.328
G01 F600 X98.251 Y55.118
G01 F600 X98.273 Y54.908
G01 F600 X98.339 Y54.706
G01 F600 X98.444 Y54.523
G01 F600 X98.586 Y54.366
G01 F600 X98.757 Y54.242
G01 F600 X98.951 Y54.156
G01 F600 X99.157 Y54.111
G01 F600 X99.369 Y54.111
G01 F600 X99.576 Y54.156
G01 F600 X99.769 Y54.242
G01 F600 X99.940 Y54.366
G01 F600 X100.082 Y54.523
G01 F600 X100.188 Y54.706
G01 F600 X100.253 Y54.908
G01 F600 X100.275 Y55.118
G01 F600 X100.253 Y55.328
G01 F600 X100.188 Y55.530
G01 F600 X100.082 Y55.713
G01 F600 X99.940 Y55.870
G01 F600 X99.769 Y55.995
G01 F600 X99.576 Y56.081
G01 F600 X99.369 Y56.125
G01 F600 X99.157 Y56.125
G00 F3000 Z3.000
G00 F3000 X73.746 Y53.698
G00 F1500 Z0
G01 F600 Z-0.200
G01 F600 X73.515 Y53.649
G01 F600 X73.300 Y53.553
G01 F600 X73.109 Y53.415
G01 F600 X72.952 Y53.240
G01 F600 X72.834 Y53.036
G01 F600 X72.761 Y52.812
G01 F600 X72.737 Y52.578
G01 F600 X72.761 Y52.344
G01 F600 X72.834 Y52.120
G01 F600 X72.952 Y51.916
G01 F600 X73.109 Y51.741
G01 F600 X73.300 Y51.602
G01 F600 X73.515 Y51.507
G01 F600 X73.746 Y51.458
G01 F600 X73.981 Y51.458
G01 F600 X74.211 Y51.507
G01 F600 X74.426 Y51.602
G01 F600 X74.617 Y51.741
G01 F600 X74.775 Y51.916
G01 F600 X74.882 Y52.102
G01 F600 X85.657 Y52.102
G01 F600 X85.731 Y51.974
G01 F600 X85.875 Y51.814
G01 F600 X86.049 Y51.687
G01 F600 X86.245 Y51.600
G01 F600 X86.456 Y51.555
G01 F600 X86.671 Y51.555
G01 F600 X86.881 Y51.600
G01 F600 X87.077 Y51.687
G01 F600 X87.251 Y51.814
G01 F600 X87.395 Y51.974
G01 F600 X87.503 Y52.160
G01 F600 X87.569 Y52.364
G01 F600 X87.592 Y52.578
G01 F600 X87.569 Y52.792
G01 F600 X87.503 Y52.996
G01 F600 X87.395 Y53.183
G01 F600 X87.251 Y53.342
G01 F600 X87.077 Y53.469
G01 F600 X86.881 Y53.556
G01 F600 X86.671 Y53.601
G01 F600 X86.456 Y53.601
G01 F600 X86.245 Y53.556
G01 F600 X86.049 Y53.469
G01 F600 X85.875 Y53.342
G01 F600 X85.731 Y53.183
G01 F600 X85.657 Y53.054
G01 F600 X74.882 Y53.054
G01 F600 X74.775 Y53.240
G01 F600 X74.617 Y53.415
G01 F600 X74.426 Y53.553
G01 F600 X74.211 Y53.649
G01 F600 X73.981 Y53.698
G01 F600 X73.746 Y53.698
G00 F3000 Z3.000
G00 F3000 X91.526 Y53.698
G00 F1500 Z0
G01 F600 Z-0.200
G01 F600 X91.295 Y53.649
G01 F600 X91.080 Y53.553
G01 F600 X90.889 Y53.415
G01 F600 X90.732 Y53.240
G01 F600 X90.624 Y53.054
G01 F600 X90.009 Y53.054
G01 F600 X89.935 Y53.183
G01 F600 X89.791 Y53.342
G01 F600 X89.617 Y53.469
G01 F600 X89.421 Y53.556
G01 F600 X89.211 Y53.601
G01 F600 X88.996 Y53.601
G01 F600 X88.785 Y53.556
G01 F600 X88.589 Y53.469
G01 F600 X88.415 Y53.342
G01 F600 X88.271 Y53.183
G01 F600 X88.164 Y52.996
G01 F600 X88.097 Y52.792
G01 F600 X88.075 Y52.578
G01 F600 X88.097 Y52.364
G01 F600 X88.164 Y52.160
G01 F600 X88.271 Y51.974
G01 F600 X88.415 Y51.814
G01 F600 X88.589 Y51.687
G01 F600 X88.785 Y51.600
G01 F600 X88.996 Y51.555
G01 F600 X89.211 Y51.555
G01 F600 X89.421 Y51.600
G01 F600 X89.617 Y51.687
G01 F600 X89.791 Y51.814
G01 F600 X89.935 Y51.974
G01 F600 X90.009 Y52.102
G01 F600 X90.624 Y52.102
G01 F600 X90.732 Y51.916
G01 F600 X90.889 Y51.741
G01 F600 X91.080 Y51.602
G01 F600 X91.295 Y51.507
G01 F600 X91.526 Y51.458
G01 F600 X91.761 Y51.458
G01 F600 X91.991 Y51.507
G01 F600 X92.206 Y51.602
G01 F600 X92.397 Y51.741
G01 F600 X92.555 Y51.916
G01 F600 X92.672 Y52.120
G01 F600 X92.745 Y52.344
G01 F600 X92.770 Y52.578
G01 F600 X92.745 Y52.812
G01 F600 X92.672 Y53.036
G01 F600 X92.555 Y53.240
G01 F600 X92.397 Y53.415
G01 F600 X92.206 Y53.553
G01 F600 X91.991 Y53.649
G01 F600 X91.761 Y53.698
G01 F600 X91.526 Y53.698
G00 F3000 Z3.000
G00 F3000 X96.617 Y53.585
G00 F1500 Z0
G01 F600 Z-0.200
G01 F600 X96.410 Y53.541
G01 F600 X96.217 Y53.455
G01 F600 X96.046 Y53.330
G01 F600 X95.904 Y53.173
G01 F600 X95.820 Y53.027
G01 F600 X94.132 Y53.003
G01 F600 X94.031 Y52.982
G01 F600 X93.924 Y52.927
G01 F600 X93.868 Y52.887
G01 F600 X91.398 Y50.514
G01 F600 X90.009 Y50.514
G01 F600 X89.935 Y50.643
G01 F600 X89.791 Y50.802
G01 F600 X89.617 Y50.929
G01 F600 X89.421 Y51.016
G01 F600 X89.211 Y51.061
G01 F600 X88.996 Y51.061
G01 F600 X88.785 Y51.016
G01 F600 X88.589 Y50.929
G01 F600 X88.415 Y50.802
G01 F600 X88.271 Y50.643
G01 F600 X88.164 Y50.456
G01 F600 X88.097 Y50.252
G01 F600 X88.075 Y50.038
G01 F600 X88.097 Y49.824
G01 F600 X88.164 Y49.620
