( PCB Contour )
( Generated by Rapid-PCB.com )
( Material Size)
( X= 110.000, Y= 70.000, Z= 1.580)
()
G00
G17
G21
G40
G49
G54
G80
G90
G94
G00 F3000 Z3.000
M03 S9000
G00 F3000 X4.028 Y68.553
G00 F1500 Z0
G01 F60 Z-0.200
G01 F60 X3.485 Y68.438
G01 F60 X2.978 Y68.212
G01 F60 X2.529 Y67.886
G01 F60 X2.158 Y67.474
G01 F60 X1.880 Y66.993
G01 F60 X1.709 Y66.465
G01 F60 X1.650 Y65.913
G01 F60 X1.709 Y65.361
G01 F60 X1.880 Y64.833
G01 F60 X2.158 Y64.353
G01 F60 X2.529 Y63.940
G01 F60 X2.978 Y63.614
G01 F60 X3.485 Y63.388
G01 F60 X4.028 Y63.273
G01 F60 X4.583 Y63.273
G01 F60 X5.126 Y63.388
G01 F60 X5.633 Y63.614
G01 F60 X6.082 Y63.940
G01 F60 X6.453 Y64.353
G01 F60 X6.731 Y64.833
G01 F60 X6.902 Y65.361
G01 F60 X6.960 Y65.913
G01 F60 X6.902 Y66.465
G01 F60 X6.731 Y66.993
G01 F60 X6.453 Y67.474
G01 F60 X6.082 Y67.886
G01 F60 X5.633 Y68.212
G01 F60 X5.126 Y68.438
G01 F60 X4.583 Y68.553
G01 F60 X4.028 Y68.553
G00 F3000 Z3.000
G00 F3000 X105.628 Y68.553
G00 F1500 Z0
G01 F60 Z-0.200
G01 F60 X105.085 Y68.438
G01 F60 X104.578 Y68.212
G01 F60 X104.129 Y67.886
G01 F60 X103.758 Y67.474
G01 F60 X103.480 Y66.993
G01 F60 X103.309 Y66.465
G01 F60 X103.250 Y65.913
G01 F60 X103.309 Y65.361
G01 F60 X103.480 Y64.833
G01 F60 X103.758 Y64.353
G01 F60 X104.129 Y63.940
G01 F60 X104.578 Y63.614
G01 F60 X105.085 Y63.388
G01 F60 X105.628 Y63.273
G01 F60 X106.183 Y63.273
G01 F60 X106.726 Y63.388
G01 F60 X107.233 Y63.614
G01 F60 X107.682 Y63.940
G01 F60 X108.053 Y64.353
G01 F60 X108.331 Y64.833
G01 F60 X108.502 Y65.361
G01 F60 X108.560 Y65.913
G01 F60 X108.502 Y66.465
G01 F60 X108.331 Y66.993
G01 F60 X108.053 Y67.474
G01 F60 X107.682 Y67.886
G01 F60 X107.233 Y68.212
G01 F60 X106.726 Y68.438
G01 F60 X106.183 Y68.553
G01 F60 X105.628 Y68.553
G00 F3000 Z3.000
G00 F3000 X73.455 Y68.315
G00 F1500 Z0
G01 F60 Z-0.200
G01 F60 X73.455 Y68.290
G01 F60 X73.404 Y68.290
G01 F60 X73.404 Y68.239
G01 F60 X73.379 Y68.239
G01 F60 X73.379 Y67.677
G01 F60 X73.404 Y67.677
G01 F60 X73.404 Y67.651
G01 F60 X73.430 Y67.651
G01 F60 X73.430 Y67.626
G01 F60 X73.481 Y67.626
G01 F60 X73.481 Y67.604
G01 F60 X73.201 Y67.604
G01 F60 X73.201 Y67.578
G01 F60 X73.150 Y67.578
G01 F60 X73.150 Y67.553
G01 F60 X73.125 Y67.553
G01 F60 X73.125 Y67.528
G01 F60 X73.100 Y67.528
G01 F60 X73.100 Y67.067
G01 F60 X73.125 Y67.067
G01 F60 X73.125 Y67.042
G01 F60 X73.150 Y67.042
G01 F60 X73.150 Y67.016
G01 F60 X73.201 Y67.016
G01 F60 X73.201 Y66.991
G01 F60 X73.506 Y66.991
G01 F60 X73.506 Y66.258
G01 F60 X73.176 Y66.258
G01 F60 X73.176 Y66.232
G01 F60 X73.125 Y66.232
G01 F60 X73.125 Y66.181
G01 F60 X73.100 Y66.181
G01 F60 X73.100 Y65.721
G01 F60 X73.125 Y65.721
G01 F60 X73.125 Y65.696
G01 F60 X73.150 Y65.696
G01 F60 X73.150 Y65.670
G01 F60 X74.474 Y65.670
G01 F60 X74.474 Y65.696
G01 F60 X74.500 Y65.696
G01 F60 X74.500 Y65.721
G01 F60 X74.525 Y65.721
G01 F60 X74.525 Y66.181
G01 F60 X74.500 Y66.181
G01 F60 X74.500 Y66.232
G01 F60 X74.449 Y66.232
G01 F60 X74.449 Y66.258
G01 F60 X74.119 Y66.258
G01 F60 X74.119 Y67.477
G01 F60 X74.093 Y67.477
G01 F60 X74.093 Y67.528
G01 F60 X74.068 Y67.528
G01 F60 X74.068 Y67.553
G01 F60 X74.043 Y67.553
G01 F60 X74.043 Y67.578
G01 F60 X73.992 Y67.578
G01 F60 X73.992 Y67.600
G01 F60 X74.017 Y67.600
G01 F60 X74.017 Y67.626
G01 F60 X74.043 Y67.626
G01 F60 X74.043 Y67.651
G01 F60 X74.068 Y67.651
G01 F60 X74.068 Y67.677
G01 F60 X74.093 Y67.677
G01 F60 X74.093 Y67.728
G01 F60 X74.119 Y67.728
G01 F60 X74.119 Y68.213
G01 F60 X74.093 Y68.213
G01 F60 X74.093 Y68.264
G01 F60 X74.068 Y68.264
G01 F60 X74.068 Y68.290
G01 F60 X74.043 Y68.290
G01 F60 X74.043 Y68.315
G01 F60 X73.455 Y68.315
G00 F3000 Z3.000
G00 F3000 X44.448 Y68.315
G00 F1500 Z0
G01 F60 Z-0.200
G01 F60 X44.448 Y68.290
G01 F60 X44.423 Y68.290
G01 F60 X44.423 Y68.264
G01 F60 X44.398 Y68.264
G01 F60 X44.398 Y68.213
G01 F60 X44.372 Y68.213
G01 F60 X44.372 Y67.728
G01 F60 X44.398 Y67.728
G01 F60 X44.398 Y67.677
G01 F60 X44.423 Y67.677
G01 F60 X44.423 Y67.651
G01 F60 X44.448 Y67.651
G01 F60 X44.448 Y67.626
G01 F60 X44.474 Y67.626
G01 F60 X44.474 Y67.604
G01 F60 X44.194 Y67.604
G01 F60 X44.194 Y67.578
G01 F60 X44.169 Y67.578
G01 F60 X44.169 Y67.553
G01 F60 X44.118 Y67.553
G01 F60 X44.118 Y67.502
G01 F60 X44.093 Y67.502
G01 F60 X44.093 Y67.093
G01 F60 X44.118 Y67.093
G01 F60 X44.118 Y67.042
G01 F60 X44.144 Y67.042
G01 F60 X44.144 Y67.016
G01 F60 X44.220 Y67.016
G01 F60 X44.220 Y66.991
G01 F60 X44.525 Y66.991
G01 F60 X44.525 Y66.258
G01 F60 X44.194 Y66.258
G01 F60 X44.194 Y66.232
G01 F60 X44.144 Y66.232
G01 F60 X44.144 Y66.207
G01 F60 X44.118 Y66.207
G01 F60 X44.118 Y66.156
G01 F60 X44.093 Y66.156
G01 F60 X44.093 Y65.746
G01 F60 X44.118 Y65.746
G01 F60 X44.118 Y65.721
G01 F60 X44.144 Y65.721
G01 F60 X44.144 Y65.696
G01 F60 X44.169 Y65.696
G01 F60 X44.169 Y65.670
G01 F60 X45.468 Y65.670
G01 F60 X45.468 Y65.696
G01 F60 X45.493 Y65.696
G01 F60 X45.493 Y65.721
G01 F60 X45.518 Y65.721
G01 F60 X45.518 Y65.746
G01 F60 X45.544 Y65.746
G01 F60 X45.544 Y66.181
G01 F60 X45.518 Y66.181
G01 F60 X45.518 Y66.207
G01 F60 X45.493 Y66.207
G01 F60 X45.493 Y66.232
G01 F60 X45.468 Y66.232
G01 F60 X45.468 Y66.258
G01 F60 X45.112 Y66.258
G01 F60 X45.112 Y67.528
G01 F60 X45.087 Y67.528
G01 F60 X45.087 Y67.553
G01 F60 X45.061 Y67.553
G01 F60 X45.061 Y67.578
G01 F60 X45.010 Y67.578
G01 F60 X45.010 Y67.626
G01 F60 X45.061 Y67.626
G01 F60 X45.061 Y67.651
G01 F60 X45.087 Y67.651
G01 F60 X45.087 Y67.677
G01 F60 X45.112 Y67.677
G01 F60 X45.112 Y68.239
G01 F60 X45.087 Y68.239
G01 F60 X45.087 Y68.290
G01 F60 X45.036 Y68.290
G01 F60 X45.036 Y68.315
G01 F60 X44.448 Y68.315
G00 F3000 Z3.000
G00 F3000 X63.854 Y68.213
G00 F1500 Z0
G01 F60 Z-0.200
G01 F60 X63.854 Y68.188
G01 F60 X63.778 Y68.188
G01 F60 X63.778 Y68.163
G01 F60 X63.752 Y68.163
G01 F60 X63.752 Y68.112
G01 F60 X63.727 Y68.112
G01 F60 X63.727 Y68.086
G01 F60 X63.702 Y68.086
G01 F60 X63.702 Y68.035
G01 F60 X63.676 Y68.035
G01 F60 X63.676 Y67.985
G01 F60 X63.651 Y67.985
G01 F60 X63.651 Y67.934
G01 F60 X63.625 Y67.934
G01 F60 X63.625 Y67.909
G01 F60 X63.600 Y67.909
G01 F60 X63.600 Y67.858
G01 F60 X63.575 Y67.858
G01 F60 X63.575 Y67.807
G01 F60 X63.549 Y67.807
G01 F60 X63.549 Y67.782
G01 F60 X63.524 Y67.782
G01 F60 X63.524 Y67.731
G01 F60 X63.498 Y67.731
G01 F60 X63.498 Y67.680
G01 F60 X63.473 Y67.680
G01 F60 X63.473 Y67.629
G01 F60 X63.448 Y67.629
G01 F60 X63.448 Y67.604
G01 F60 X63.422 Y67.604
G01 F60 X63.422 Y67.553
G01 F60 X63.397 Y67.553
G01 F60 X63.397 Y67.502
G01 F60 X63.371 Y67.502
G01 F60 X63.371 Y67.477
G01 F60 X63.346 Y67.477
G01 F60 X63.346 Y67.426
G01 F60 X63.321 Y67.426
G01 F60 X63.321 Y67.375
G01 F60 X63.295 Y67.375
G01 F60 X63.295 Y67.350
G01 F60 X63.270 Y67.350
G01 F60 X63.270 Y67.299
G01 F60 X63.244 Y67.299
G01 F60 X63.244 Y67.248
G01 F60 X63.219 Y67.248
G01 F60 X63.219 Y67.197
G01 F60 X63.194 Y67.197
G01 F60 X63.194 Y67.172
G01 F60 X63.168 Y67.172
G01 F60 X63.168 Y67.121
G01 F60 X63.143 Y67.121
G01 F60 X63.143 Y67.070
G01 F60 X63.117 Y67.070
G01 F60 X63.117 Y67.045
G01 F60 X63.092 Y67.045
G01 F60 X63.092 Y66.994
G01 F60 X63.067 Y66.994
G01 F60 X63.067 Y66.943
G01 F60 X63.041 Y66.943
G01 F60 X63.041 Y66.892
G01 F60 X63.016 Y66.892
G01 F60 X63.016 Y66.867
G01 F60 X62.990 Y66.867
G01 F60 X62.990 Y66.816
G01 F60 X62.965 Y66.816
G01 F60 X62.965 Y66.766
G01 F60 X62.940 Y66.766
G01 F60 X62.940 Y66.740
G01 F60 X62.914 Y66.740
G01 F60 X62.914 Y66.689
G01 F60 X62.889 Y66.689
G01 F60 X62.889 Y66.639
G01 F60 X62.863 Y66.639
G01 F60 X62.863 Y66.588
G01 F60 X62.838 Y66.588
G01 F60 X62.838 Y66.562
G01 F60 X62.813 Y66.562
G01 F60 X62.813 Y66.511
G01 F60 X62.787 Y66.511
G01 F60 X62.787 Y66.461
G01 F60 X62.762 Y66.461
G01 F60 X62.762 Y66.435
G01 F60 X62.736 Y66.435
G01 F60 X62.736 Y66.385
G01 F60 X62.711 Y66.385
G01 F60 X62.711 Y66.334
G01 F60 X62.686 Y66.334
G01 F60 X62.686 Y66.283
G01 F60 X62.660 Y66.283
G01 F60 X62.660 Y66.258
G01 F60 X62.635 Y66.258
G01 F60 X62.635 Y66.207
G01 F60 X62.609 Y66.207
G01 F60 X62.609 Y66.156
G01 F60 X62.584 Y66.156
G01 F60 X62.584 Y65.797
G01 F60 X62.609 Y65.797
G01 F60 X62.609 Y65.721
G01 F60 X62.635 Y65.721
G01 F60 X62.635 Y65.696
G01 F60 X62.660 Y65.696
G01 F60 X62.660 Y65.670
G01 F60 X63.121 Y65.670
G01 F60 X63.121 Y65.696
G01 F60 X63.146 Y65.696
G01 F60 X63.146 Y65.721
G01 F60 X63.171 Y65.721
G01 F60 X63.171 Y65.746
G01 F60 X63.197 Y65.746
G01 F60 X63.197 Y65.797
G01 F60 X63.222 Y65.797
G01 F60 X63.222 Y65.848
G01 F60 X63.248 Y65.848
G01 F60 X63.248 Y65.899
G01 F60 X63.273 Y65.899
G01 F60 X63.273 Y65.924
G01 F60 X63.298 Y65.924
G01 F60 X63.298 Y65.975
G01 F60 X63.324 Y65.975
G01 F60 X63.324 Y66.026
G01 F60 X63.349 Y66.026
G01 F60 X63.349 Y66.051
G01 F60 X63.375 Y66.051
G01 F60 X63.375 Y66.102
G01 F60 X63.400 Y66.102
G01 F60 X63.400 Y66.153
G01 F60 X63.425 Y66.153
G01 F60 X63.425 Y66.204
G01 F60 X63.451 Y66.204
G01 F60 X63.451 Y66.229
G01 F60 X63.476 Y66.229
G01 F60 X63.476 Y66.280
G01 F60 X63.502 Y66.280
G01 F60 X63.502 Y66.331
G01 F60 X63.527 Y66.331
G01 F60 X63.527 Y66.356
G01 F60 X63.552 Y66.356
G01 F60 X63.552 Y66.407
G01 F60 X63.578 Y66.407
G01 F60 X63.578 Y66.458
G01 F60 X63.603 Y66.458
G01 F60 X63.603 Y66.508
G01 F60 X63.629 Y66.508
G01 F60 X63.629 Y66.534
G01 F60 X63.654 Y66.534
G01 F60 X63.654 Y66.585
G01 F60 X63.679 Y66.585
G01 F60 X63.679 Y66.635
G01 F60 X63.705 Y66.635
G01 F60 X63.705 Y66.661
G01 F60 X63.730 Y66.661
G01 F60 X63.730 Y66.712
G01 F60 X63.756 Y66.712
G01 F60 X63.756 Y66.762
G01 F60 X63.781 Y66.762
G01 F60 X63.781 Y66.788
G01 F60 X63.806 Y66.788
G01 F60 X63.806 Y66.838
G01 F60 X63.832 Y66.838
G01 F60 X63.832 Y66.889
G01 F60 X63.857 Y66.889
G01 F60 X63.857 Y66.940
G01 F60 X63.883 Y66.940
G01 F60 X63.883 Y66.966
G01 F60 X63.908 Y66.966
G01 F60 X63.908 Y67.016
G01 F60 X63.933 Y67.016
G01 F60 X63.933 Y67.067
G01 F60 X63.959 Y67.067
G01 F60 X63.959 Y67.093
G01 F60 X63.984 Y67.093
G01 F60 X63.984 Y67.143
G01 F60 X64.010 Y67.143
G01 F60 X64.010 Y67.194
G01 F60 X64.035 Y67.194
G01 F60 X64.035 Y67.245
G01 F60 X64.060 Y67.245
G01 F60 X64.060 Y67.270
G01 F60 X64.086 Y67.270
G01 F60 X64.086 Y67.321
G01 F60 X64.111 Y67.321
G01 F60 X64.111 Y67.372
G01 F60 X64.137 Y67.372
G01 F60 X64.137 Y67.397
G01 F60 X64.162 Y67.397
G01 F60 X64.162 Y67.448
G01 F60 X64.187 Y67.448
G01 F60 X64.187 Y67.499
G01 F60 X64.213 Y67.499
G01 F60 X64.213 Y67.550
G01 F60 X64.238 Y67.550
G01 F60 X64.238 Y67.575
G01 F60 X64.264 Y67.575
G01 F60 X64.264 Y67.626
G01 F60 X64.289 Y67.626
G01 F60 X64.289 Y67.677
G01 F60 X64.314 Y67.677
G01 F60 X64.314 Y68.137
G01 F60 X64.289 Y68.137
G01 F60 X64.289 Y68.163
G01 F60 X64.264 Y68.163
G01 F60 X64.264 Y68.188
G01 F60 X64.213 Y68.188
G01 F60 X64.213 Y68.213
G01 F60 X63.854 Y68.213
G00 F3000 Z3.000
G00 F3000 X65.480 Y68.213
G00 F1500 Z0
G01 F60 Z-0.200
G01 F60 X65.480 Y68.188
G01 F60 X65.353 Y68.188
G01 F60 X65.353 Y68.163
G01 F60 X65.302 Y68.163
G01 F60 X65.302 Y68.137
G01 F60 X65.276 Y68.137
G01 F60 X65.276 Y68.112
G01 F60 X65.226 Y68.112
G01 F60 X65.226 Y68.086
G01 F60 X65.200 Y68.086
G01 F60 X65.200 Y68.061
G01 F60 X65.175 Y68.061
G01 F60 X65.175 Y68.010
G01 F60 X65.149 Y68.010
G01 F60 X65.149 Y67.985
G01 F60 X65.124 Y67.985
G01 F60 X65.124 Y67.959
G01 F60 X65.099 Y67.959
G01 F60 X65.099 Y67.934
G01 F60 X65.073 Y67.934
G01 F60 X65.073 Y67.883
G01 F60 X65.048 Y67.883
G01 F60 X65.048 Y67.858
G01 F60 X65.022 Y67.858
G01 F60 X65.022 Y67.832
G01 F60 X64.997 Y67.832
G01 F60 X64.997 Y67.782
G01 F60 X64.972 Y67.782
G01 F60 X64.972 Y67.756
G01 F60 X64.946 Y67.756
G01 F60 X64.946 Y67.731
G01 F60 X64.921 Y67.731
G01 F60 X64.921 Y67.705
G01 F60 X64.895 Y67.705
G01 F60 X64.895 Y67.654
G01 F60 X64.870 Y67.654
G01 F60 X64.870 Y67.629
G01 F60 X64.845 Y67.629
G01 F60 X64.845 Y67.604
G01 F60 X64.819 Y67.604
G01 F60 X64.819 Y67.553
G01 F60 X64.794 Y67.553
G01 F60 X64.794 Y67.528
G01 F60 X64.768 Y67.528
G01 F60 X64.768 Y67.502
G01 F60 X64.743 Y67.502
G01 F60 X64.743 Y67.451
G01 F60 X64.718 Y67.451
G01 F60 X64.718 Y67.401
G01 F60 X64.692 Y67.401
G01 F60 X64.692 Y67.324
G01 F60 X64.667 Y67.324
G01 F60 X64.667 Y65.975
G01 F60 X64.692 Y65.975
G01 F60 X64.692 Y65.899
G01 F60 X64.718 Y65.899
G01 F60 X64.718 Y65.873
G01 F60 X64.743 Y65.873
G01 F60 X64.743 Y65.823
G01 F60 X64.768 Y65.823
G01 F60 X64.768 Y65.797
G01 F60 X64.794 Y65.797
G01 F60 X64.794 Y65.772
G01 F60 X64.819 Y65.772
G01 F60 X64.819 Y65.746
G01 F60 X64.845 Y65.746
G01 F60 X64.845 Y65.721
G01 F60 X64.895 Y65.721
G01 F60 X64.895 Y65.696
G01 F60 X64.972 Y65.696
G01 F60 X64.972 Y65.670
G01 F60 X66.092 Y65.670
G01 F60 X66.092 Y65.696
G01 F60 X66.143 Y65.696
G01 F60 X66.143 Y65.721
G01 F60 X66.194 Y65.721
G01 F60 X66.194 Y65.746
G01 F60 X66.219 Y65.746
G01 F60 X66.219 Y65.772
G01 F60 X66.270 Y65.772
G01 F60 X66.270 Y65.797
G01 F60 X66.296 Y65.797
G01 F60 X66.296 Y65.848
G01 F60 X66.321 Y65.848
G01 F60 X66.321 Y65.873
G01 F60 X66.346 Y65.873
G01 F60 X66.346 Y65.924
G01 F60 X66.372 Y65.924
G01 F60 X66.372 Y66.000
G01 F60 X66.397 Y66.000
G01 F60 X66.397 Y66.994
G01 F60 X65.480 Y66.994
G01 F60 X65.480 Y66.969
G01 F60 X65.429 Y66.969
G01 F60 X65.429 Y66.943
G01 F60 X65.403 Y66.943
G01 F60 X65.403 Y66.918
G01 F60 X65.378 Y66.918
G01 F60 X65.378 Y66.458
G01 F60 X65.403 Y66.458
G01 F60 X65.403 Y66.432
G01 F60 X65.429 Y66.432
G01 F60 X65.429 Y66.407
G01 F60 X65.505 Y66.407
G01 F60 X65.505 Y66.381
G01 F60 X65.784 Y66.381
G01 F60 X65.784 Y66.334
G01 F60 X65.759 Y66.334
G01 F60 X65.759 Y66.283
G01 F60 X65.708 Y66.283
G01 F60 X65.708 Y66.258
G01 F60 X65.356 Y66.258
G01 F60 X65.356 Y66.283
G01 F60 X65.305 Y66.283
G01 F60 X65.305 Y66.308
G01 F60 X65.280 Y66.308
G01 F60 X65.280 Y66.359
G01 F60 X65.254 Y66.359
G01 F60 X65.254 Y66.940
G01 F60 X65.280 Y66.940
G01 F60 X65.280 Y67.016
G01 F60 X65.305 Y67.016
G01 F60 X65.305 Y67.042
G01 F60 X65.330 Y67.042
G01 F60 X65.330 Y67.067
G01 F60 X65.356 Y67.067
G01 F60 X65.356 Y67.118
G01 F60 X65.381 Y67.118
G01 F60 X65.381 Y67.143
G01 F60 X65.407 Y67.143
G01 F60 X65.407 Y67.169
G01 F60 X65.432 Y67.169
G01 F60 X65.432 Y67.219
G01 F60 X65.457 Y67.219
G01 F60 X65.457 Y67.245
G01 F60 X65.483 Y67.245
G01 F60 X65.483 Y67.270
G01 F60 X65.508 Y67.270
G01 F60 X65.508 Y67.296
G01 F60 X65.534 Y67.296
G01 F60 X65.534 Y67.347
G01 F60 X65.559 Y67.347
G01 F60 X65.559 Y67.372
G01 F60 X65.584 Y67.372
G01 F60 X65.584 Y67.397
G01 F60 X65.610 Y67.397
G01 F60 X65.610 Y67.448
G01 F60 X65.635 Y67.448
G01 F60 X65.635 Y67.474
G01 F60 X65.661 Y67.474
G01 F60 X65.661 Y67.499
G01 F60 X65.686 Y67.499
G01 F60 X65.686 Y67.524
G01 F60 X65.711 Y67.524
G01 F60 X65.711 Y67.575
G01 F60 X65.762 Y67.575
G01 F60 X65.762 Y67.600
G01 F60 X66.296 Y67.600
G01 F60 X66.296 Y67.626
G01 F60 X66.346 Y67.626
G01 F60 X66.346 Y67.651
G01 F60 X66.372 Y67.651
G01 F60 X66.372 Y67.702
G01 F60 X66.397 Y67.702
G01 F60 X66.397 Y68.112
G01 F60 X66.372 Y68.112
G01 F60 X66.372 Y68.163
G01 F60 X66.321 Y68.163
G01 F60 X66.321 Y68.188
G01 F60 X66.270 Y68.188
G01 F60 X66.270 Y68.213
G01 F60 X65.480 Y68.213
G00 F3000 Z3.000
G00 F3000 X48.208 Y68.213
G00 F1500 Z0
G01 F60 Z-0.200
G01 F60 X48.208 Y68.188
G01 F60 X48.157 Y68.188
G01 F60 X48.157 Y68.163
G01 F60 X48.131 Y68.163
G01 F60 X48.131 Y68.137
G01 F60 X48.106 Y68.137
G01 F60 X48.106 Y65.746
G01 F60 X48.131 Y65.746
G01 F60 X48.131 Y65.696
G01 F60 X48.182 Y65.696
G01 F60 X48.182 Y65.670
G01 F60 X48.617 Y65.670
G01 F60 X48.617 Y65.696
G01 F60 X48.643 Y65.696
G01 F60 X48.643 Y65.721
G01 F60 X48.668 Y65.721
G01 F60 X48.668 Y65.746
G01 F60 X48.693 Y65.746
G01 F60 X48.693 Y66.712
G01 F60 X48.744 Y66.712
G01 F60 X48.744 Y66.737
G01 F60 X48.770 Y66.737
G01 F60 X48.770 Y66.762
G01 F60 X48.820 Y66.762
G01 F60 X48.820 Y66.788
G01 F60 X48.846 Y66.788
G01 F60 X48.846 Y66.813
G01 F60 X48.897 Y66.813
G01 F60 X48.897 Y66.838
G01 F60 X48.922 Y66.838
G01 F60 X48.922 Y66.864
G01 F60 X48.973 Y66.864
G01 F60 X48.973 Y66.889
G01 F60 X49.024 Y66.889
G01 F60 X49.024 Y66.915
G01 F60 X49.049 Y66.915
G01 F60 X49.049 Y66.940
G01 F60 X49.100 Y66.940
G01 F60 X49.100 Y66.966
G01 F60 X49.147 Y66.966
G01 F60 X49.147 Y66.940
G01 F60 X49.173 Y66.940
G01 F60 X49.173 Y66.915
G01 F60 X49.198 Y66.915
G01 F60 X49.198 Y66.483
G01 F60 X49.224 Y66.483
G01 F60 X49.224 Y65.772
G01 F60 X49.249 Y65.772
G01 F60 X49.249 Y65.721
G01 F60 X49.274 Y65.721
G01 F60 X49.274 Y65.696
G01 F60 X49.300 Y65.696
G01 F60 X49.300 Y65.670
G01 F60 X49.760 Y65.670
G01 F60 X49.760 Y65.696
G01 F60 X49.786 Y65.696
G01 F60 X49.786 Y65.721
G01 F60 X49.811 Y65.721
G01 F60 X49.811 Y65.772
G01 F60 X49.836 Y65.772
G01 F60 X49.836 Y66.283
G01 F60 X49.811 Y66.283
G01 F60 X49.811 Y67.070
G01 F60 X49.786 Y67.070
G01 F60 X49.786 Y67.299
G01 F60 X49.760 Y67.299
G01 F60 X49.760 Y67.350
G01 F60 X49.735 Y67.350
G01 F60 X49.735 Y67.401
G01 F60 X49.709 Y67.401
G01 F60 X49.709 Y67.426
G01 F60 X49.684 Y67.426
G01 F60 X49.684 Y67.477
G01 F60 X49.633 Y67.477
G01 F60 X49.633 Y67.502
G01 F60 X49.608 Y67.502
G01 F60 X49.608 Y67.528
G01 F60 X49.582 Y67.528
G01 F60 X49.582 Y67.553
G01 F60 X49.532 Y67.553
G01 F60 X49.532 Y67.578
G01 F60 X49.430 Y67.578
G01 F60 X49.430 Y67.604
G01 F60 X48.843 Y67.604
G01 F60 X48.843 Y67.578
G01 F60 X48.741 Y67.578
G01 F60 X48.741 Y67.553
G01 F60 X48.693 Y67.553
G01 F60 X48.693 Y68.112
G01 F60 X48.668 Y68.112
G01 F60 X48.668 Y68.163
G01 F60 X48.617 Y68.163
G01 F60 X48.617 Y68.188
G01 F60 X48.566 Y68.188
G01 F60 X48.566 Y68.213
G01 F60 X48.208 Y68.213
G00 F3000 Z3.000
G00 F3000 X52.348 Y68.213
G00 F1500 Z0
G01 F60 Z-0.200
G01 F60 X52.348 Y68.188
G01 F60 X52.297 Y68.188
G01 F60 X52.297 Y68.163
G01 F60 X52.272 Y68.163
G01 F60 X52.272 Y68.137
G01 F60 X52.246 Y68.137
G01 F60 X52.246 Y65.746
G01 F60 X52.272 Y65.746
G01 F60 X52.272 Y65.696
G01 F60 X52.322 Y65.696
G01 F60 X52.322 Y65.670
G01 F60 X52.757 Y65.670
G01 F60 X52.757 Y65.696
G01 F60 X52.780 Y65.696
G01 F60 X52.780 Y65.670
G01 F60 X53.570 Y65.670
G01 F60 X53.570 Y65.696
G01 F60 X53.621 Y65.696
G01 F60 X53.621 Y65.721
G01 F60 X53.672 Y65.721
G01 F60 X53.672 Y65.746
G01 F60 X53.697 Y65.746
G01 F60 X53.697 Y65.772
G01 F60 X53.748 Y65.772
G01 F60 X53.748 Y65.797
G01 F60 X53.773 Y65.797
G01 F60 X53.773 Y65.823
G01 F60 X53.799 Y65.823
G01 F60 X53.799 Y65.848
G01 F60 X53.824 Y65.848
G01 F60 X53.824 Y65.873
G01 F60 X53.850 Y65.873
G01 F60 X53.850 Y65.899
G01 F60 X53.875 Y65.899
G01 F60 X53.875 Y65.924
G01 F60 X53.900 Y65.924
G01 F60 X53.900 Y65.975
G01 F60 X53.926 Y65.975
G01 F60 X53.926 Y66.026
G01 F60 X53.951 Y66.026
G01 F60 X53.951 Y66.077
G01 F60 X53.977 Y66.077
G01 F60 X53.977 Y67.172
G01 F60 X53.951 Y67.172
G01 F60 X53.951 Y67.248
G01 F60 X53.926 Y67.248
G01 F60 X53.926 Y67.299
G01 F60 X53.900 Y67.299
G01 F60 X53.900 Y67.324
G01 F60 X53.875 Y67.324
G01 F60 X53.875 Y67.350
G01 F60 X53.850 Y67.350
G01 F60 X53.850 Y67.401
G01 F60 X53.799 Y67.401
G01 F60 X53.799 Y67.426
G01 F60 X53.773 Y67.426
G01 F60 X53.773 Y67.451
G01 F60 X53.748 Y67.451
G01 F60 X53.748 Y67.477
G01 F60 X53.723 Y67.477
G01 F60 X53.723 Y67.502
G01 F60 X53.697 Y67.502
G01 F60 X53.697 Y67.528
G01 F60 X53.646 Y67.528
G01 F60 X53.646 Y67.553
G01 F60 X53.596 Y67.553
G01 F60 X53.596 Y67.578
G01 F60 X53.519 Y67.578
G01 F60 X53.519 Y67.604
G01 F60 X52.856 Y67.604
G01 F60 X52.856 Y67.578
G01 F60 X52.834 Y67.578
G01 F60 X52.834 Y68.112
G01 F60 X52.808 Y68.112
G01 F60 X52.808 Y68.163
G01 F60 X52.783 Y68.163
G01 F60 X52.783 Y68.188
G01 F60 X52.707 Y68.188
G01 F60 X52.707 Y68.213
G01 F60 X52.348 Y68.213
G00 F3000 Z3.000
G00 F3000 X93.674 Y68.213
G00 F1500 Z0
G01 F60 Z-0.200
G01 F60 X93.674 Y68.188
G01 F60 X93.648 Y68.188
G01 F60 X93.648 Y67.474
G01 F60 X93.674 Y67.474
G01 F60 X93.674 Y67.423
G01 F60 X93.699 Y67.423
G01 F60 X93.699 Y67.397
G01 F60 X93.724 Y67.397
G01 F60 X93.724 Y67.372
G01 F60 X94.185 Y67.372
G01 F60 X94.185 Y67.397
G01 F60 X94.210 Y67.397
G01 F60 X94.210 Y67.423
G01 F60 X94.232 Y67.423
G01 F60 X94.232 Y65.721
G01 F60 X94.258 Y65.721
G01 F60 X94.258 Y65.696
G01 F60 X94.283 Y65.696
G01 F60 X94.283 Y65.670
G01 F60 X94.744 Y65.670
G01 F60 X94.744 Y65.696
G01 F60 X94.769 Y65.696
G01 F60 X94.769 Y65.721
G01 F60 X94.794 Y65.721
G01 F60 X94.794 Y65.746
G01 F60 X94.820 Y65.746
G01 F60 X94.820 Y67.423
G01 F60 X94.842 Y67.423
G01 F60 X94.842 Y67.397
G01 F60 X94.867 Y67.397
G01 F60 X94.867 Y67.372
G01 F60 X95.302 Y67.372
G01 F60 X95.302 Y67.397
G01 F60 X95.353 Y67.397
G01 F60 X95.353 Y67.448
G01 F60 X95.379 Y67.448
G01 F60 X95.379 Y68.213
G01 F60 X93.674 Y68.213
G00 F3000 Z3.000
G00 F3000 X89.533 Y68.213
G00 F1500 Z0
G01 F60 Z-0.200
G01 F60 X89.533 Y68.188
G01 F60 X89.508 Y68.188
G01 F60 X89.508 Y65.772
G01 F60 X89.533 Y65.772
G01 F60 X89.533 Y65.721
G01 F60 X89.559 Y65.721
G01 F60 X89.559 Y65.696
G01 F60 X89.584 Y65.696
G01 F60 X89.584 Y65.670
G01 F60 X90.045 Y65.670
G01 F60 X90.045 Y65.696
G01 F60 X90.070 Y65.696
G01 F60 X90.070 Y65.721
G01 F60 X90.095 Y65.721
G01 F60 X90.095 Y65.797
G01 F60 X90.121 Y65.797
G01 F60 X90.121 Y66.635
G01 F60 X90.143 Y66.635
G01 F60 X90.143 Y66.585
G01 F60 X90.168 Y66.585
G01 F60 X90.168 Y66.508
G01 F60 X90.194 Y66.508
G01 F60 X90.194 Y66.458
G01 F60 X90.219 Y66.458
G01 F60 X90.219 Y66.407
G01 F60 X90.245 Y66.407
G01 F60 X90.245 Y66.331
G01 F60 X90.270 Y66.331
G01 F60 X90.270 Y66.280
G01 F60 X90.295 Y66.280
G01 F60 X90.295 Y66.229
G01 F60 X90.321 Y66.229
G01 F60 X90.321 Y66.178
G01 F60 X90.346 Y66.178
G01 F60 X90.346 Y66.102
G01 F60 X90.372 Y66.102
G01 F60 X90.372 Y66.051
G01 F60 X90.397 Y66.051
G01 F60 X90.397 Y66.000
G01 F60 X90.422 Y66.000
G01 F60 X90.422 Y65.924
G01 F60 X90.448 Y65.924
G01 F60 X90.448 Y65.873
G01 F60 X90.473 Y65.873
G01 F60 X90.473 Y65.823
G01 F60 X90.499 Y65.823
G01 F60 X90.499 Y65.772
G01 F60 X90.524 Y65.772
G01 F60 X90.524 Y65.696
G01 F60 X90.549 Y65.696
G01 F60 X90.549 Y65.670
G01 F60 X91.238 Y65.670
G01 F60 X91.238 Y68.137
G01 F60 X91.213 Y68.137
G01 F60 X91.213 Y68.163
G01 F60 X91.188 Y68.163
G01 F60 X91.188 Y68.188
G01 F60 X91.137 Y68.188
G01 F60 X91.137 Y68.213
G01 F60 X90.778 Y68.213
G01 F60 X90.778 Y68.188
G01 F60 X90.702 Y68.188
G01 F60 X90.702 Y68.163
G01 F60 X90.676 Y68.163
G01 F60 X90.676 Y68.112
G01 F60 X90.651 Y68.112
G01 F60 X90.651 Y67.197
G01 F60 X90.629 Y67.197
G01 F60 X90.629 Y67.248
G01 F60 X90.603 Y67.248
G01 F60 X90.603 Y67.324
G01 F60 X90.578 Y67.324
G01 F60 X90.578 Y67.375
G01 F60 X90.553 Y67.375
G01 F60 X90.553 Y67.426
G01 F60 X90.527 Y67.426
G01 F60 X90.527 Y67.477
G01 F60 X90.502 Y67.477
G01 F60 X90.502 Y67.553
G01 F60 X90.476 Y67.553
G01 F60 X90.476 Y67.604
G01 F60 X90.451 Y67.604
G01 F60 X90.451 Y67.654
G01 F60 X90.426 Y67.654
G01 F60 X90.426 Y67.731
G01 F60 X90.400 Y67.731
G01 F60 X90.400 Y67.782
G01 F60 X90.375 Y67.782
G01 F60 X90.375 Y67.832
G01 F60 X90.349 Y67.832
G01 F60 X90.349 Y67.883
G01 F60 X90.324 Y67.883
G01 F60 X90.324 Y67.959
G01 F60 X90.299 Y67.959
G01 F60 X90.299 Y68.010
G01 F60 X90.273 Y68.010
G01 F60 X90.273 Y68.061
G01 F60 X90.248 Y68.061
G01 F60 X90.248 Y68.137
G01 F60 X90.222 Y68.137
G01 F60 X90.222 Y68.188
G01 F60 X90.197 Y68.188
G01 F60 X90.197 Y68.213
G01 F60 X89.533 Y68.213
G00 F3000 Z3.000
G00 F3000 X91.692 Y68.213
G00 F1500 Z0
G01 F60 Z-0.200
G01 F60 X91.692 Y68.188
G01 F60 X91.642 Y68.188
G01 F60 X91.642 Y68.163
G01 F60 X91.616 Y68.163
G01 F60 X91.616 Y68.137
G01 F60 X91.591 Y68.137
G01 F60 X91.591 Y67.677
G01 F60 X91.616 Y67.677
G01 F60 X91.616 Y67.651
G01 F60 X91.642 Y67.651
G01 F60 X91.642 Y67.626
G01 F60 X91.692 Y67.626
G01 F60 X91.692 Y67.600
G01 F60 X92.150 Y67.600
G01 F60 X92.150 Y66.258
G01 F60 X91.667 Y66.258
G01 F60 X91.667 Y66.232
G01 F60 X91.642 Y66.232
G01 F60 X91.642 Y66.207
G01 F60 X91.616 Y66.207
G01 F60 X91.616 Y66.181
G01 F60 X91.591 Y66.181
G01 F60 X91.591 Y65.746
G01 F60 X91.616 Y65.746
G01 F60 X91.616 Y65.696
G01 F60 X91.667 Y65.696
G01 F60 X91.667 Y65.670
G01 F60 X93.245 Y65.670
G01 F60 X93.245 Y65.696
G01 F60 X93.270 Y65.696
G01 F60 X93.270 Y65.721
G01 F60 X93.296 Y65.721
G01 F60 X93.296 Y65.746
G01 F60 X93.321 Y65.746
G01 F60 X93.321 Y66.156
G01 F60 X93.296 Y66.156
G01 F60 X93.296 Y66.207
G01 F60 X93.270 Y66.207
G01 F60 X93.270 Y66.232
G01 F60 X93.220 Y66.232
G01 F60 X93.220 Y66.258
G01 F60 X92.737 Y66.258
G01 F60 X92.737 Y67.600
G01 F60 X93.220 Y67.600
G01 F60 X93.220 Y67.626
G01 F60 X93.270 Y67.626
G01 F60 X93.270 Y67.651
G01 F60 X93.296 Y67.651
G01 F60 X93.296 Y67.702
G01 F60 X93.321 Y67.702
G01 F60 X93.321 Y68.112
G01 F60 X93.296 Y68.112
G01 F60 X93.296 Y68.137
G01 F60 X93.270 Y68.137
G01 F60 X93.270 Y68.163
G01 F60 X93.245 Y68.163
G01 F60 X93.245 Y68.188
G01 F60 X93.194 Y68.188
G01 F60 X93.194 Y68.213
G01 F60 X91.692 Y68.213
G00 F3000 Z3.000
G00 F3000 X80.415 Y68.213
G00 F1500 Z0
G01 F60 Z-0.200
G01 F60 X80.415 Y68.188
G01 F60 X80.364 Y68.188
G01 F60 X80.364 Y68.163
G01 F60 X80.339 Y68.163
G01 F60 X80.339 Y68.137
G01 F60 X80.313 Y68.137
G01 F60 X80.313 Y68.112
G01 F60 X80.288 Y68.112
G01 F60 X80.288 Y68.061
G01 F60 X80.262 Y68.061
G01 F60 X80.262 Y68.035
G01 F60 X80.237 Y68.035
G01 F60 X80.237 Y67.985
G01 F60 X80.212 Y67.985
G01 F60 X80.212 Y67.934
G01 F60 X80.186 Y67.934
G01 F60 X80.186 Y67.883
G01 F60 X80.161 Y67.883
G01 F60 X80.161 Y67.858
G01 F60 X80.135 Y67.858
G01 F60 X80.135 Y67.807
G01 F60 X80.110 Y67.807
G01 F60 X80.110 Y67.756
G01 F60 X80.085 Y67.756
G01 F60 X80.085 Y67.731
G01 F60 X80.059 Y67.731
G01 F60 X80.059 Y67.680
G01 F60 X80.034 Y67.680
G01 F60 X80.034 Y67.629
G01 F60 X80.008 Y67.629
G01 F60 X80.008 Y67.578
G01 F60 X79.983 Y67.578
G01 F60 X79.983 Y67.553
G01 F60 X79.958 Y67.553
G01 F60 X79.958 Y67.502
G01 F60 X79.932 Y67.502
G01 F60 X79.932 Y67.451
G01 F60 X79.907 Y67.451
G01 F60 X79.907 Y67.426
G01 F60 X79.881 Y67.426
G01 F60 X79.881 Y67.375
G01 F60 X79.856 Y67.375
G01 F60 X79.856 Y67.324
G01 F60 X79.831 Y67.324
G01 F60 X79.831 Y67.273
G01 F60 X79.805 Y67.273
G01 F60 X79.805 Y67.248
G01 F60 X79.780 Y67.248
G01 F60 X79.780 Y67.197
G01 F60 X79.754 Y67.197
G01 F60 X79.754 Y67.147
G01 F60 X79.729 Y67.147
G01 F60 X79.729 Y67.121
G01 F60 X79.704 Y67.121
G01 F60 X79.704 Y67.070
G01 F60 X79.678 Y67.070
G01 F60 X79.678 Y67.020
G01 F60 X79.653 Y67.020
G01 F60 X79.653 Y66.969
G01 F60 X79.627 Y66.969
G01 F60 X79.627 Y66.943
G01 F60 X79.602 Y66.943
G01 F60 X79.602 Y66.892
G01 F60 X79.577 Y66.892
G01 F60 X79.577 Y66.842
G01 F60 X79.551 Y66.842
G01 F60 X79.551 Y66.816
G01 F60 X79.526 Y66.816
G01 F60 X79.526 Y66.766
G01 F60 X79.500 Y66.766
G01 F60 X79.500 Y66.715
G01 F60 X79.475 Y66.715
G01 F60 X79.475 Y66.689
G01 F60 X79.450 Y66.689
G01 F60 X79.450 Y66.639
G01 F60 X79.424 Y66.639
G01 F60 X79.424 Y66.588
G01 F60 X79.399 Y66.588
G01 F60 X79.399 Y66.537
G01 F60 X79.373 Y66.537
G01 F60 X79.373 Y66.511
G01 F60 X79.348 Y66.511
G01 F60 X79.348 Y66.461
G01 F60 X79.323 Y66.461
G01 F60 X79.323 Y66.410
G01 F60 X79.297 Y66.410
G01 F60 X79.297 Y66.385
G01 F60 X79.272 Y66.385
G01 F60 X79.272 Y66.334
G01 F60 X79.246 Y66.334
G01 F60 X79.246 Y66.283
G01 F60 X79.221 Y66.283
G01 F60 X79.221 Y66.232
G01 F60 X79.196 Y66.232
G01 F60 X79.196 Y66.207
G01 F60 X79.170 Y66.207
G01 F60 X79.170 Y65.721
G01 F60 X79.196 Y65.721
G01 F60 X79.196 Y65.696
G01 F60 X79.221 Y65.696
G01 F60 X79.221 Y65.670
G01 F60 X79.681 Y65.670
G01 F60 X79.681 Y65.696
G01 F60 X79.707 Y65.696
G01 F60 X79.707 Y65.721
G01 F60 X79.732 Y65.721
G01 F60 X79.732 Y65.746
G01 F60 X79.758 Y65.746
G01 F60 X79.758 Y65.797
G01 F60 X79.783 Y65.797
G01 F60 X79.783 Y65.823
G01 F60 X79.808 Y65.823
G01 F60 X79.808 Y65.873
G01 F60 X79.834 Y65.873
G01 F60 X79.834 Y65.924
G01 F60 X79.859 Y65.924
G01 F60 X79.859 Y65.975
G01 F60 X79.885 Y65.975
G01 F60 X79.885 Y66.000
G01 F60 X79.910 Y66.000
G01 F60 X79.910 Y66.051
G01 F60 X79.935 Y66.051
G01 F60 X79.935 Y66.102
G01 F60 X79.961 Y66.102
G01 F60 X79.961 Y66.127
G01 F60 X79.986 Y66.127
G01 F60 X79.986 Y66.178
G01 F60 X80.012 Y66.178
G01 F60 X80.012 Y66.229
G01 F60 X80.037 Y66.229
G01 F60 X80.037 Y66.280
G01 F60 X80.062 Y66.280
G01 F60 X80.062 Y66.305
G01 F60 X80.088 Y66.305
G01 F60 X80.088 Y66.356
G01 F60 X80.113 Y66.356
G01 F60 X80.113 Y66.407
G01 F60 X80.139 Y66.407
G01 F60 X80.139 Y66.432
G01 F60 X80.164 Y66.432
G01 F60 X80.164 Y66.483
G01 F60 X80.189 Y66.483
G01 F60 X80.189 Y66.534
G01 F60 X80.215 Y66.534
G01 F60 X80.215 Y66.585
G01 F60 X80.240 Y66.585
G01 F60 X80.240 Y66.610
G01 F60 X80.266 Y66.610
G01 F60 X80.266 Y66.661
G01 F60 X80.291 Y66.661
G01 F60 X80.291 Y66.712
G01 F60 X80.316 Y66.712
G01 F60 X80.316 Y66.737
G01 F60 X80.342 Y66.737
G01 F60 X80.342 Y66.788
G01 F60 X80.367 Y66.788
G01 F60 X80.367 Y66.838
G01 F60 X80.393 Y66.838
G01 F60 X80.393 Y66.889
G01 F60 X80.418 Y66.889
G01 F60 X80.418 Y66.915
G01 F60 X80.443 Y66.915
G01 F60 X80.443 Y66.966
G01 F60 X80.469 Y66.966
G01 F60 X80.469 Y67.016
G01 F60 X80.494 Y67.016
G01 F60 X80.494 Y67.042
G01 F60 X80.520 Y67.042
G01 F60 X80.520 Y67.093
G01 F60 X80.545 Y67.093
G01 F60 X80.545 Y67.143
G01 F60 X80.570 Y67.143
G01 F60 X80.570 Y67.194
G01 F60 X80.596 Y67.194
G01 F60 X80.596 Y67.219
G01 F60 X80.621 Y67.219
G01 F60 X80.621 Y67.270
G01 F60 X80.647 Y67.270
G01 F60 X80.647 Y67.321
G01 F60 X80.672 Y67.321
G01 F60 X80.672 Y67.347
G01 F60 X80.697 Y67.347
G01 F60 X80.697 Y67.397
G01 F60 X80.723 Y67.397
G01 F60 X80.723 Y67.448
G01 F60 X80.748 Y67.448
G01 F60 X80.748 Y67.474
G01 F60 X80.774 Y67.474
G01 F60 X80.774 Y67.524
G01 F60 X80.799 Y67.524
G01 F60 X80.799 Y67.575
G01 F60 X80.824 Y67.575
G01 F60 X80.824 Y67.626
G01 F60 X80.850 Y67.626
G01 F60 X80.850 Y67.651
G01 F60 X80.875 Y67.651
G01 F60 X80.875 Y67.728
G01 F60 X80.901 Y67.728
G01 F60 X80.901 Y68.086
G01 F60 X80.875 Y68.086
G01 F60 X80.875 Y68.137
G01 F60 X80.850 Y68.137
G01 F60 X80.850 Y68.163
G01 F60 X80.824 Y68.163
G01 F60 X80.824 Y68.188
G01 F60 X80.774 Y68.188
G01 F60 X80.774 Y68.213
G01 F60 X80.415 Y68.213
G00 F3000 Z3.000
G00 F3000 X81.228 Y68.213
G00 F1500 Z0
G01 F60 Z-0.200
G01 F60 X81.228 Y65.670
G01 F60 X82.526 Y65.670
G01 F60 X82.526 Y65.696
G01 F60 X82.602 Y65.696
G01 F60 X82.602 Y65.721
G01 F60 X82.653 Y65.721
G01 F60 X82.653 Y65.746
G01 F60 X82.704 Y65.746
G01 F60 X82.704 Y65.772
G01 F60 X82.729 Y65.772
G01 F60 X82.729 Y65.797
G01 F60 X82.755 Y65.797
G01 F60 X82.755 Y65.823
G01 F60 X82.780 Y65.823
G01 F60 X82.780 Y65.848
G01 F60 X82.806 Y65.848
G01 F60 X82.806 Y65.873
G01 F60 X82.831 Y65.873
G01 F60 X82.831 Y65.899
G01 F60 X82.856 Y65.899
G01 F60 X82.856 Y65.924
G01 F60 X82.882 Y65.924
G01 F60 X82.882 Y65.975
G01 F60 X82.907 Y65.975
G01 F60 X82.907 Y66.026
G01 F60 X82.933 Y66.026
G01 F60 X82.933 Y66.102
G01 F60 X82.958 Y66.102
G01 F60 X82.958 Y66.791
G01 F60 X82.933 Y66.791
G01 F60 X82.933 Y66.867
G01 F60 X82.907 Y66.867
G01 F60 X82.907 Y66.918
G01 F60 X82.882 Y66.918
G01 F60 X82.882 Y66.940
G01 F60 X82.907 Y66.940
G01 F60 X82.907 Y66.991
G01 F60 X82.933 Y66.991
G01 F60 X82.933 Y67.067
G01 F60 X82.958 Y67.067
G01 F60 X82.958 Y67.756
G01 F60 X82.933 Y67.756
G01 F60 X82.933 Y67.832
G01 F60 X82.907 Y67.832
G01 F60 X82.907 Y67.883
G01 F60 X82.882 Y67.883
G01 F60 X82.882 Y67.934
G01 F60 X82.856 Y67.934
G01 F60 X82.856 Y67.959
G01 F60 X82.831 Y67.959
G01 F60 X82.831 Y68.010
G01 F60 X82.806 Y68.010
G01 F60 X82.806 Y68.035
G01 F60 X82.780 Y68.035
G01 F60 X82.780 Y68.061
G01 F60 X82.729 Y68.061
G01 F60 X82.729 Y68.086
G01 F60 X82.704 Y68.086
G01 F60 X82.704 Y68.112
G01 F60 X82.679 Y68.112
G01 F60 X82.679 Y68.137
G01 F60 X82.628 Y68.137
G01 F60 X82.628 Y68.163
G01 F60 X82.552 Y68.163
G01 F60 X82.552 Y68.188
G01 F60 X82.450 Y68.188
G01 F60 X82.450 Y68.213
G01 F60 X81.228 Y68.213
G00 F3000 Z3.000
G00 F3000 X77.214 Y68.213
G00 F1500 Z0
G01 F60 Z-0.200
G01 F60 X77.214 Y68.188
G01 F60 X77.164 Y68.188
G01 F60 X77.164 Y68.163
G01 F60 X77.113 Y68.163
G01 F60 X77.113 Y68.112
G01 F60 X77.087 Y68.112
G01 F60 X77.087 Y65.746
G01 F60 X77.113 Y65.746
G01 F60 X77.113 Y65.721
G01 F60 X77.138 Y65.721
G01 F60 X77.138 Y65.696
G01 F60 X77.164 Y65.696
G01 F60 X77.164 Y65.670
G01 F60 X77.599 Y65.670
G01 F60 X77.599 Y65.696
G01 F60 X77.649 Y65.696
G01 F60 X77.649 Y65.721
G01 F60 X77.675 Y65.721
G01 F60 X77.675 Y66.204
G01 F60 X77.697 Y66.204
G01 F60 X77.697 Y66.178
G01 F60 X77.722 Y66.178
G01 F60 X77.722 Y66.153
G01 F60 X77.748 Y66.153
G01 F60 X77.748 Y66.127
G01 F60 X77.773 Y66.127
G01 F60 X77.773 Y66.102
G01 F60 X77.824 Y66.102
G01 F60 X77.824 Y66.077
G01 F60 X77.849 Y66.077
G01 F60 X77.849 Y66.051
G01 F60 X77.875 Y66.051
G01 F60 X77.875 Y66.026
G01 F60 X77.900 Y66.026
G01 F60 X77.900 Y66.000
G01 F60 X77.926 Y66.000
G01 F60 X77.926 Y65.975
G01 F60 X77.951 Y65.975
G01 F60 X77.951 Y65.950
G01 F60 X78.002 Y65.950
G01 F60 X78.002 Y65.924
G01 F60 X78.027 Y65.924
G01 F60 X78.027 Y65.899
G01 F60 X78.053 Y65.899
G01 F60 X78.053 Y65.873
G01 F60 X78.078 Y65.873
G01 F60 X78.078 Y65.848
G01 F60 X78.103 Y65.848
G01 F60 X78.103 Y65.823
G01 F60 X78.129 Y65.823
G01 F60 X78.129 Y65.797
G01 F60 X78.180 Y65.797
G01 F60 X78.180 Y65.772
G01 F60 X78.205 Y65.772
G01 F60 X78.205 Y65.746
G01 F60 X78.230 Y65.746
G01 F60 X78.230 Y65.721
G01 F60 X78.256 Y65.721
G01 F60 X78.256 Y65.696
G01 F60 X78.307 Y65.696
G01 F60 X78.307 Y65.670
G01 F60 X78.742 Y65.670
G01 F60 X78.742 Y65.696
G01 F60 X78.792 Y65.696
G01 F60 X78.792 Y65.746
G01 F60 X78.818 Y65.746
G01 F60 X78.818 Y66.181
G01 F60 X78.792 Y66.181
G01 F60 X78.792 Y66.207
G01 F60 X78.767 Y66.207
G01 F60 X78.767 Y66.232
G01 F60 X78.742 Y66.232
G01 F60 X78.742 Y66.258
G01 F60 X78.716 Y66.258
G01 F60 X78.716 Y66.283
G01 F60 X78.691 Y66.283
G01 F60 X78.691 Y66.308
G01 F60 X78.665 Y66.308
G01 F60 X78.665 Y66.334
G01 F60 X78.640 Y66.334
G01 F60 X78.640 Y66.359
G01 F60 X78.589 Y66.359
G01 F60 X78.589 Y66.385
G01 F60 X78.564 Y66.385
G01 F60 X78.564 Y66.410
G01 F60 X78.538 Y66.410
G01 F60 X78.538 Y66.435
G01 F60 X78.513 Y66.435
G01 F60 X78.513 Y66.461
G01 F60 X78.488 Y66.461
G01 F60 X78.488 Y66.486
G01 F60 X78.437 Y66.486
G01 F60 X78.437 Y66.511
G01 F60 X78.411 Y66.511
G01 F60 X78.411 Y66.537
G01 F60 X78.386 Y66.537
G01 F60 X78.386 Y66.562
G01 F60 X78.361 Y66.562
G01 F60 X78.361 Y66.588
G01 F60 X78.335 Y66.588
G01 F60 X78.335 Y66.613
G01 F60 X78.310 Y66.613
G01 F60 X78.310 Y66.639
G01 F60 X78.259 Y66.639
G01 F60 X78.259 Y66.664
G01 F60 X78.234 Y66.664
G01 F60 X78.234 Y66.712
G01 F60 X78.259 Y66.712
G01 F60 X78.259 Y66.737
G01 F60 X78.284 Y66.737
G01 F60 X78.284 Y66.762
G01 F60 X78.335 Y66.762
G01 F60 X78.335 Y66.788
G01 F60 X78.361 Y66.788
G01 F60 X78.361 Y66.813
G01 F60 X78.386 Y66.813
G01 F60 X78.386 Y66.838
G01 F60 X78.411 Y66.838
G01 F60 X78.411 Y66.864
G01 F60 X78.437 Y66.864
G01 F60 X78.437 Y66.889
G01 F60 X78.462 Y66.889
G01 F60 X78.462 Y66.915
G01 F60 X78.513 Y66.915
G01 F60 X78.513 Y66.940
G01 F60 X78.538 Y66.940
G01 F60 X78.538 Y66.966
G01 F60 X78.564 Y66.966
G01 F60 X78.564 Y66.991
G01 F60 X78.589 Y66.991
G01 F60 X78.589 Y67.016
G01 F60 X78.615 Y67.016
G01 F60 X78.615 Y67.042
G01 F60 X78.640 Y67.042
G01 F60 X78.640 Y67.067
G01 F60 X78.665 Y67.067
G01 F60 X78.665 Y67.528
G01 F60 X78.640 Y67.528
G01 F60 X78.640 Y67.553
G01 F60 X78.615 Y67.553
G01 F60 X78.615 Y67.578
G01 F60 X78.564 Y67.578
G01 F60 X78.564 Y67.604
G01 F60 X78.205 Y67.604
G01 F60 X78.205 Y67.578
G01 F60 X78.129 Y67.578
G01 F60 X78.129 Y67.553
G01 F60 X78.103 Y67.553
G01 F60 X78.103 Y67.528
G01 F60 X78.078 Y67.528
G01 F60 X78.078 Y67.502
G01 F60 X78.053 Y67.502
G01 F60 X78.053 Y67.477
G01 F60 X78.027 Y67.477
G01 F60 X78.027 Y67.451
G01 F60 X77.976 Y67.451
G01 F60 X77.976 Y67.426
G01 F60 X77.951 Y67.426
G01 F60 X77.951 Y67.401
G01 F60 X77.926 Y67.401
G01 F60 X77.926 Y67.375
G01 F60 X77.900 Y67.375
G01 F60 X77.900 Y67.350
G01 F60 X77.875 Y67.350
G01 F60 X77.875 Y67.324
G01 F60 X77.849 Y67.324
G01 F60 X77.849 Y67.299
G01 F60 X77.799 Y67.299
G01 F60 X77.799 Y67.273
G01 F60 X77.773 Y67.273
G01 F60 X77.773 Y67.248
G01 F60 X77.748 Y67.248
G01 F60 X77.748 Y67.223
G01 F60 X77.722 Y67.223
G01 F60 X77.722 Y67.197
G01 F60 X77.697 Y67.197
G01 F60 X77.697 Y67.172
G01 F60 X77.675 Y67.172
G01 F60 X77.675 Y68.137
G01 F60 X77.649 Y68.137
G01 F60 X77.649 Y68.163
G01 F60 X77.624 Y68.163
G01 F60 X77.624 Y68.188
G01 F60 X77.573 Y68.188
G01 F60 X77.573 Y68.213
G01 F60 X77.214 Y68.213
G00 F3000 Z3.000
G00 F3000 X87.552 Y68.213
G00 F1500 Z0
G01 F60 Z-0.200
G01 F60 X87.552 Y68.188
G01 F60 X87.501 Y68.188
G01 F60 X87.501 Y68.163
G01 F60 X87.476 Y68.163
G01 F60 X87.476 Y68.137
G01 F60 X87.451 Y68.137
G01 F60 X87.451 Y65.950
G01 F60 X87.476 Y65.950
G01 F60 X87.476 Y65.899
G01 F60 X87.501 Y65.899
G01 F60 X87.501 Y65.848
G01 F60 X87.527 Y65.848
G01 F60 X87.527 Y65.823
G01 F60 X87.552 Y65.823
G01 F60 X87.552 Y65.797
G01 F60 X87.578 Y65.797
G01 F60 X87.578 Y65.772
G01 F60 X87.603 Y65.772
G01 F60 X87.603 Y65.746
G01 F60 X87.628 Y65.746
G01 F60 X87.628 Y65.721
G01 F60 X87.679 Y65.721
G01 F60 X87.679 Y65.696
G01 F60 X87.755 Y65.696
G01 F60 X87.755 Y65.670
G01 F60 X88.876 Y65.670
G01 F60 X88.876 Y65.696
G01 F60 X88.927 Y65.696
G01 F60 X88.927 Y65.721
G01 F60 X88.978 Y65.721
G01 F60 X88.978 Y65.746
G01 F60 X89.003 Y65.746
G01 F60 X89.003 Y65.772
G01 F60 X89.029 Y65.772
G01 F60 X89.029 Y65.797
G01 F60 X89.054 Y65.797
G01 F60 X89.054 Y65.823
G01 F60 X89.079 Y65.823
G01 F60 X89.079 Y65.848
G01 F60 X89.105 Y65.848
G01 F60 X89.105 Y65.873
G01 F60 X89.130 Y65.873
G01 F60 X89.130 Y65.924
G01 F60 X89.156 Y65.924
G01 F60 X89.156 Y66.026
G01 F60 X89.181 Y66.026
G01 F60 X89.181 Y68.112
G01 F60 X89.156 Y68.112
G01 F60 X89.156 Y68.137
G01 F60 X89.130 Y68.137
G01 F60 X89.130 Y68.163
G01 F60 X89.105 Y68.163
G01 F60 X89.105 Y68.188
G01 F60 X89.054 Y68.188
G01 F60 X89.054 Y68.213
G01 F60 X88.695 Y68.213
G01 F60 X88.695 Y68.188
G01 F60 X88.644 Y68.188
G01 F60 X88.644 Y68.163
G01 F60 X88.619 Y68.163
G01 F60 X88.619 Y68.137
G01 F60 X88.594 Y68.137
G01 F60 X88.594 Y68.061
G01 F60 X88.568 Y68.061
G01 F60 X88.568 Y66.334
G01 F60 X88.543 Y66.334
G01 F60 X88.543 Y66.308
G01 F60 X88.517 Y66.308
G01 F60 X88.517 Y66.283
G01 F60 X88.492 Y66.283
G01 F60 X88.492 Y66.258
G01 F60 X88.140 Y66.258
G01 F60 X88.140 Y66.283
G01 F60 X88.089 Y66.283
G01 F60 X88.089 Y66.308
G01 F60 X88.063 Y66.308
G01 F60 X88.063 Y66.359
G01 F60 X88.038 Y66.359
G01 F60 X88.038 Y68.112
G01 F60 X88.013 Y68.112
G01 F60 X88.013 Y68.163
G01 F60 X87.962 Y68.163
G01 F60 X87.962 Y68.188
G01 F60 X87.911 Y68.188
G01 F60 X87.911 Y68.213
G01 F60 X87.552 Y68.213
G00 F3000 Z3.000
G00 F3000 X83.310 Y68.213
G00 F1500 Z0
G01 F60 Z-0.200
G01 F60 X83.310 Y65.670
G01 F60 X84.609 Y65.670
G01 F60 X84.609 Y65.696
G01 F60 X84.685 Y65.696
G01 F60 X84.685 Y65.721
G01 F60 X84.736 Y65.721
G01 F60 X84.736 Y65.746
G01 F60 X84.761 Y65.746
G01 F60 X84.761 Y65.772
G01 F60 X84.812 Y65.772
G01 F60 X84.812 Y65.797
G01 F60 X84.838 Y65.797
G01 F60 X84.838 Y65.823
G01 F60 X84.863 Y65.823
G01 F60 X84.863 Y65.848
G01 F60 X84.888 Y65.848
G01 F60 X84.888 Y65.873
G01 F60 X84.914 Y65.873
G01 F60 X84.914 Y65.899
G01 F60 X84.939 Y65.899
G01 F60 X84.939 Y65.950
G01 F60 X84.965 Y65.950
G01 F60 X84.965 Y66.000
G01 F60 X84.990 Y66.000
G01 F60 X84.990 Y66.051
G01 F60 X85.015 Y66.051
G01 F60 X85.015 Y66.153
G01 F60 X85.041 Y66.153
G01 F60 X85.041 Y66.740
G01 F60 X85.015 Y66.740
G01 F60 X85.015 Y66.842
G01 F60 X84.990 Y66.842
G01 F60 X84.990 Y66.892
G01 F60 X84.965 Y66.892
G01 F60 X84.965 Y66.966
G01 F60 X84.990 Y66.966
G01 F60 X84.990 Y67.016
G01 F60 X85.015 Y67.016
G01 F60 X85.015 Y67.118
G01 F60 X85.041 Y67.118
G01 F60 X85.041 Y67.705
G01 F60 X85.015 Y67.705
G01 F60 X85.015 Y67.807
G01 F60 X84.990 Y67.807
G01 F60 X84.990 Y67.858
G01 F60 X84.965 Y67.858
G01 F60 X84.965 Y67.909
G01 F60 X84.939 Y67.909
G01 F60 X84.939 Y67.959
G01 F60 X84.914 Y67.959
G01 F60 X84.914 Y67.985
G01 F60 X84.888 Y67.985
G01 F60 X84.888 Y68.010
G01 F60 X84.863 Y68.010
G01 F60 X84.863 Y68.035
G01 F60 X84.838 Y68.035
G01 F60 X84.838 Y68.061
G01 F60 X84.812 Y68.061
G01 F60 X84.812 Y68.086
G01 F60 X84.787 Y68.086
G01 F60 X84.787 Y68.112
G01 F60 X84.736 Y68.112
G01 F60 X84.736 Y68.137
G01 F60 X84.685 Y68.137
G01 F60 X84.685 Y68.163
G01 F60 X84.634 Y68.163
G01 F60 X84.634 Y68.188
G01 F60 X84.507 Y68.188
G01 F60 X84.507 Y68.213
G01 F60 X83.310 Y68.213
G00 F3000 Z3.000
G00 F3000 X46.404 Y68.086
G00 F1500 Z0
G01 F60 Z-0.200
G01 F60 X46.404 Y68.061
G01 F60 X46.353 Y68.061
G01 F60 X46.353 Y68.035
G01 F60 X46.328 Y68.035
G01 F60 X46.328 Y67.959
G01 F60 X46.303 Y67.959
G01 F60 X46.303 Y67.604
G01 F60 X46.125 Y67.604
G01 F60 X46.125 Y67.578
G01 F60 X46.074 Y67.578
G01 F60 X46.074 Y67.553
G01 F60 X46.049 Y67.553
G01 F60 X46.049 Y67.502
G01 F60 X46.023 Y67.502
G01 F60 X46.023 Y67.093
G01 F60 X46.049 Y67.093
G01 F60 X46.049 Y67.042
G01 F60 X46.074 Y67.042
G01 F60 X46.074 Y67.016
G01 F60 X46.150 Y67.016
G01 F60 X46.150 Y66.991
G01 F60 X46.303 Y66.991
G01 F60 X46.303 Y66.026
G01 F60 X46.328 Y66.026
G01 F60 X46.328 Y65.924
G01 F60 X46.353 Y65.924
G01 F60 X46.353 Y65.873
G01 F60 X46.379 Y65.873
G01 F60 X46.379 Y65.848
G01 F60 X46.404 Y65.848
G01 F60 X46.404 Y65.823
G01 F60 X46.430 Y65.823
G01 F60 X46.430 Y65.772
G01 F60 X46.480 Y65.772
G01 F60 X46.480 Y65.746
G01 F60 X46.506 Y65.746
G01 F60 X46.506 Y65.721
G01 F60 X46.557 Y65.721
G01 F60 X46.557 Y65.696
G01 F60 X46.607 Y65.696
G01 F60 X46.607 Y65.670
G01 F60 X47.449 Y65.670
G01 F60 X47.449 Y65.696
G01 F60 X47.525 Y65.696
G01 F60 X47.525 Y65.721
G01 F60 X47.576 Y65.721
G01 F60 X47.576 Y65.746
G01 F60 X47.601 Y65.746
G01 F60 X47.601 Y65.772
G01 F60 X47.627 Y65.772
G01 F60 X47.627 Y65.797
G01 F60 X47.652 Y65.797
G01 F60 X47.652 Y65.823
G01 F60 X47.677 Y65.823
G01 F60 X47.677 Y65.848
G01 F60 X47.703 Y65.848
G01 F60 X47.703 Y65.899
G01 F60 X47.728 Y65.899
G01 F60 X47.728 Y65.950
G01 F60 X47.754 Y65.950
G01 F60 X47.754 Y66.435
G01 F60 X47.728 Y66.435
G01 F60 X47.728 Y66.461
G01 F60 X47.703 Y66.461
G01 F60 X47.703 Y66.486
G01 F60 X47.652 Y66.486
G01 F60 X47.652 Y66.511
G01 F60 X47.293 Y66.511
G01 F60 X47.293 Y66.486
G01 F60 X47.217 Y66.486
G01 F60 X47.217 Y66.461
G01 F60 X47.192 Y66.461
G01 F60 X47.192 Y66.410
G01 F60 X47.166 Y66.410
G01 F60 X47.166 Y66.359
G01 F60 X47.141 Y66.359
G01 F60 X47.141 Y66.308
G01 F60 X47.115 Y66.308
G01 F60 X47.115 Y66.283
G01 F60 X47.065 Y66.283
G01 F60 X47.065 Y66.258
G01 F60 X46.992 Y66.258
G01 F60 X46.992 Y66.283
G01 F60 X46.966 Y66.283
G01 F60 X46.966 Y66.308
G01 F60 X46.941 Y66.308
G01 F60 X46.941 Y66.334
G01 F60 X46.915 Y66.334
G01 F60 X46.915 Y66.991
G01 F60 X47.500 Y66.991
G01 F60 X47.500 Y67.016
G01 F60 X47.550 Y67.016
G01 F60 X47.550 Y67.042
G01 F60 X47.576 Y67.042
G01 F60 X47.576 Y67.067
G01 F60 X47.601 Y67.067
G01 F60 X47.601 Y67.528
G01 F60 X47.576 Y67.528
G01 F60 X47.576 Y67.553
G01 F60 X47.550 Y67.553
G01 F60 X47.550 Y67.578
G01 F60 X47.500 Y67.578
G01 F60 X47.500 Y67.604
G01 F60 X46.915 Y67.604
G01 F60 X46.915 Y67.959
G01 F60 X46.890 Y67.959
G01 F60 X46.890 Y68.010
G01 F60 X46.865 Y68.010
G01 F60 X46.865 Y68.061
G01 F60 X46.814 Y68.061
G01 F60 X46.814 Y68.086
G01 F60 X46.404 Y68.086
G00 F3000 Z3.000
G00 F3000 X42.366 Y67.604
G00 F1500 Z0
G01 F60 Z-0.200
G01 F60 X42.366 Y67.578
G01 F60 X42.264 Y67.578
G01 F60 X42.264 Y67.553
G01 F60 X42.213 Y67.553
G01 F60 X42.213 Y67.528
G01 F60 X42.162 Y67.528
G01 F60 X42.162 Y67.502
G01 F60 X42.137 Y67.502
G01 F60 X42.137 Y67.477
G01 F60 X42.112 Y67.477
G01 F60 X42.112 Y67.451
G01 F60 X42.086 Y67.451
G01 F60 X42.086 Y67.426
G01 F60 X42.035 Y67.426
G01 F60 X42.035 Y67.401
G01 F60 X42.010 Y67.401
G01 F60 X42.010 Y67.375
G01 F60 X41.985 Y67.375
G01 F60 X41.985 Y67.324
G01 F60 X41.959 Y67.324
G01 F60 X41.959 Y67.299
G01 F60 X41.934 Y67.299
G01 F60 X41.934 Y67.248
G01 F60 X41.908 Y67.248
G01 F60 X41.908 Y67.172
G01 F60 X41.883 Y67.172
G01 F60 X41.883 Y66.204
G01 F60 X41.908 Y66.204
G01 F60 X41.908 Y66.127
G01 F60 X41.934 Y66.127
G01 F60 X41.934 Y66.077
G01 F60 X41.959 Y66.077
G01 F60 X41.959 Y66.051
G01 F60 X41.985 Y66.051
G01 F60 X41.985 Y66.026
G01 F60 X42.010 Y66.026
G01 F60 X42.010 Y66.000
G01 F60 X42.035 Y66.000
G01 F60 X42.035 Y65.975
G01 F60 X42.061 Y65.975
G01 F60 X42.061 Y65.950
G01 F60 X42.086 Y65.950
G01 F60 X42.086 Y65.924
G01 F60 X42.112 Y65.924
G01 F60 X42.112 Y65.899
G01 F60 X42.137 Y65.899
G01 F60 X42.137 Y65.873
G01 F60 X42.188 Y65.873
G01 F60 X42.188 Y65.848
G01 F60 X42.213 Y65.848
G01 F60 X42.213 Y65.823
G01 F60 X42.264 Y65.823
G01 F60 X42.264 Y65.797
G01 F60 X42.391 Y65.797
G01 F60 X42.391 Y65.772
G01 F60 X42.950 Y65.772
G01 F60 X42.950 Y65.749
G01 F60 X42.924 Y65.749
G01 F60 X42.924 Y65.724
G01 F60 X42.899 Y65.724
G01 F60 X42.899 Y65.699
G01 F60 X42.874 Y65.699
G01 F60 X42.874 Y65.673
G01 F60 X42.823 Y65.673
G01 F60 X42.823 Y65.648
G01 F60 X42.112 Y65.648
G01 F60 X42.112 Y65.623
G01 F60 X42.061 Y65.623
G01 F60 X42.061 Y65.572
G01 F60 X42.035 Y65.572
G01 F60 X42.035 Y65.137
G01 F60 X42.061 Y65.137
G01 F60 X42.061 Y65.086
G01 F60 X42.112 Y65.086
G01 F60 X42.112 Y65.061
G01 F60 X43.207 Y65.061
G01 F60 X43.207 Y65.086
G01 F60 X43.283 Y65.086
G01 F60 X43.283 Y65.111
G01 F60 X43.309 Y65.111
G01 F60 X43.309 Y65.137
G01 F60 X43.359 Y65.137
G01 F60 X43.359 Y65.162
G01 F60 X43.385 Y65.162
G01 F60 X43.385 Y65.188
G01 F60 X43.410 Y65.188
G01 F60 X43.410 Y65.213
G01 F60 X43.436 Y65.213
G01 F60 X43.436 Y65.238
G01 F60 X43.461 Y65.238
G01 F60 X43.461 Y65.264
G01 F60 X43.486 Y65.264
G01 F60 X43.486 Y65.289
G01 F60 X43.512 Y65.289
G01 F60 X43.512 Y65.315
G01 F60 X43.537 Y65.315
G01 F60 X43.537 Y65.340
G01 F60 X43.563 Y65.340
G01 F60 X43.563 Y65.391
G01 F60 X43.588 Y65.391
G01 F60 X43.588 Y65.442
G01 F60 X43.613 Y65.442
G01 F60 X43.613 Y67.528
G01 F60 X43.588 Y67.528
G01 F60 X43.588 Y67.553
G01 F60 X43.563 Y67.553
G01 F60 X43.563 Y67.578
G01 F60 X43.512 Y67.578
G01 F60 X43.512 Y67.604
G01 F60 X43.128 Y67.604
G01 F60 X43.128 Y67.578
G01 F60 X42.978 Y67.578
G01 F60 X42.978 Y67.604
G01 F60 X42.366 Y67.604
G00 F3000 Z3.000
G00 F3000 X58.926 Y67.604
G00 F1500 Z0
G01 F60 Z-0.200
G01 F60 X58.926 Y67.578
G01 F60 X58.825 Y67.578
G01 F60 X58.825 Y67.553
G01 F60 X58.774 Y67.553
G01 F60 X58.774 Y67.528
G01 F60 X58.723 Y67.528
G01 F60 X58.723 Y67.502
G01 F60 X58.698 Y67.502
G01 F60 X58.698 Y67.477
G01 F60 X58.672 Y67.477
G01 F60 X58.672 Y67.451
G01 F60 X58.647 Y67.451
G01 F60 X58.647 Y67.426
G01 F60 X58.622 Y67.426
G01 F60 X58.622 Y67.401
G01 F60 X58.596 Y67.401
G01 F60 X58.596 Y67.375
G01 F60 X58.571 Y67.375
G01 F60 X58.571 Y67.350
G01 F60 X58.545 Y67.350
G01 F60 X58.545 Y67.324
G01 F60 X58.520 Y67.324
G01 F60 X58.520 Y67.273
G01 F60 X58.495 Y67.273
G01 F60 X58.495 Y67.223
G01 F60 X58.469 Y67.223
G01 F60 X58.469 Y67.147
G01 F60 X58.444 Y67.147
G01 F60 X58.444 Y66.127
G01 F60 X58.469 Y66.127
G01 F60 X58.469 Y66.026
G01 F60 X58.495 Y66.026
G01 F60 X58.495 Y65.975
G01 F60 X58.520 Y65.975
G01 F60 X58.520 Y65.924
G01 F60 X58.545 Y65.924
G01 F60 X58.545 Y65.899
G01 F60 X58.571 Y65.899
G01 F60 X58.571 Y65.873
G01 F60 X58.596 Y65.873
G01 F60 X58.596 Y65.848
G01 F60 X58.622 Y65.848
G01 F60 X58.622 Y65.823
G01 F60 X58.647 Y65.823
G01 F60 X58.647 Y65.797
G01 F60 X58.672 Y65.797
G01 F60 X58.672 Y65.772
G01 F60 X58.723 Y65.772
G01 F60 X58.723 Y65.746
G01 F60 X58.749 Y65.746
G01 F60 X58.749 Y65.721
G01 F60 X58.799 Y65.721
G01 F60 X58.799 Y65.696
G01 F60 X58.850 Y65.696
G01 F60 X58.850 Y65.670
G01 F60 X59.793 Y65.670
G01 F60 X59.793 Y65.696
G01 F60 X59.844 Y65.696
G01 F60 X59.844 Y65.721
G01 F60 X59.895 Y65.721
G01 F60 X59.895 Y65.746
G01 F60 X59.920 Y65.746
G01 F60 X59.920 Y65.772
G01 F60 X59.946 Y65.772
G01 F60 X59.946 Y65.797
G01 F60 X59.971 Y65.797
G01 F60 X59.971 Y65.823
G01 F60 X60.022 Y65.823
G01 F60 X60.022 Y65.848
G01 F60 X60.047 Y65.848
G01 F60 X60.047 Y65.873
G01 F60 X60.073 Y65.873
G01 F60 X60.073 Y65.924
G01 F60 X60.098 Y65.924
G01 F60 X60.098 Y65.950
G01 F60 X60.123 Y65.950
G01 F60 X60.123 Y65.975
G01 F60 X60.149 Y65.975
G01 F60 X60.149 Y66.026
G01 F60 X60.174 Y66.026
G01 F60 X60.174 Y67.223
G01 F60 X60.149 Y67.223
G01 F60 X60.149 Y67.273
G01 F60 X60.123 Y67.273
G01 F60 X60.123 Y67.324
G01 F60 X60.098 Y67.324
G01 F60 X60.098 Y67.350
G01 F60 X60.073 Y67.350
G01 F60 X60.073 Y67.375
G01 F60 X60.047 Y67.375
G01 F60 X60.047 Y67.401
G01 F60 X60.022 Y67.401
G01 F60 X60.022 Y67.426
G01 F60 X59.996 Y67.426
G01 F60 X59.996 Y67.451
G01 F60 X59.971 Y67.451
G01 F60 X59.971 Y67.477
G01 F60 X59.920 Y67.477
G01 F60 X59.920 Y67.502
G01 F60 X59.895 Y67.502
G01 F60 X59.895 Y67.528
G01 F60 X59.869 Y67.528
G01 F60 X59.869 Y67.553
G01 F60 X59.793 Y67.553
G01 F60 X59.793 Y67.578
G01 F60 X59.717 Y67.578
G01 F60 X59.717 Y67.604
G01 F60 X58.926 Y67.604
G00 F3000 Z3.000
G00 F3000 X60.603 Y67.604
G00 F1500 Z0
G01 F60 Z-0.200
G01 F60 X60.603 Y67.578
G01 F60 X60.552 Y67.578
G01 F60 X60.552 Y67.553
G01 F60 X60.527 Y67.553
G01 F60 X60.527 Y67.502
G01 F60 X60.501 Y67.502
G01 F60 X60.501 Y65.746
G01 F60 X60.527 Y65.746
G01 F60 X60.527 Y65.696
G01 F60 X60.577 Y65.696
G01 F60 X60.577 Y65.670
G01 F60 X61.012 Y65.670
G01 F60 X61.012 Y65.696
G01 F60 X61.063 Y65.696
G01 F60 X61.063 Y65.746
G01 F60 X61.111 Y65.746
G01 F60 X61.111 Y65.721
G01 F60 X61.136 Y65.721
G01 F60 X61.136 Y65.696
G01 F60 X61.162 Y65.696
G01 F60 X61.162 Y65.670
G01 F60 X61.622 Y65.670
G01 F60 X61.622 Y65.696
G01 F60 X61.647 Y65.696
G01 F60 X61.647 Y65.721
G01 F60 X61.673 Y65.721
G01 F60 X61.673 Y65.797
G01 F60 X61.695 Y65.797
G01 F60 X61.695 Y65.721
G01 F60 X61.720 Y65.721
G01 F60 X61.720 Y65.696
G01 F60 X61.746 Y65.696
G01 F60 X61.746 Y65.670
G01 F60 X62.206 Y65.670
G01 F60 X62.206 Y65.696
G01 F60 X62.232 Y65.696
G01 F60 X62.232 Y65.721
G01 F60 X62.257 Y65.721
G01 F60 X62.257 Y65.772
G01 F60 X62.282 Y65.772
G01 F60 X62.282 Y66.308
G01 F60 X62.257 Y66.308
G01 F60 X62.257 Y66.969
G01 F60 X62.232 Y66.969
G01 F60 X62.232 Y67.350
G01 F60 X62.206 Y67.350
G01 F60 X62.206 Y67.401
G01 F60 X62.181 Y67.401
G01 F60 X62.181 Y67.451
G01 F60 X62.155 Y67.451
G01 F60 X62.155 Y67.477
G01 F60 X62.130 Y67.477
G01 F60 X62.130 Y67.502
G01 F60 X62.105 Y67.502
G01 F60 X62.105 Y67.528
G01 F60 X62.054 Y67.528
G01 F60 X62.054 Y67.553
G01 F60 X62.003 Y67.553
G01 F60 X62.003 Y67.578
G01 F60 X61.393 Y67.578
G01 F60 X61.393 Y67.604
G01 F60 X60.603 Y67.604
G00 F3000 Z3.000
G00 F3000 X56.996 Y67.604
G00 F1500 Z0
G01 F60 Z-0.200
G01 F60 X56.996 Y67.578
G01 F60 X56.894 Y67.578
G01 F60 X56.894 Y67.553
G01 F60 X56.844 Y67.553
G01 F60 X56.844 Y67.528
G01 F60 X56.793 Y67.528
G01 F60 X56.793 Y67.502
G01 F60 X56.767 Y67.502
G01 F60 X56.767 Y67.477
G01 F60 X56.742 Y67.477
G01 F60 X56.742 Y67.451
G01 F60 X56.691 Y67.451
G01 F60 X56.691 Y67.426
G01 F60 X56.666 Y67.426
G01 F60 X56.666 Y67.401
G01 F60 X56.640 Y67.401
G01 F60 X56.640 Y67.375
G01 F60 X56.615 Y67.375
G01 F60 X56.615 Y67.350
G01 F60 X56.590 Y67.350
G01 F60 X56.590 Y67.324
G01 F60 X56.564 Y67.324
G01 F60 X56.564 Y67.299
G01 F60 X56.539 Y67.299
G01 F60 X56.539 Y67.273
G01 F60 X56.513 Y67.273
G01 F60 X56.513 Y67.248
G01 F60 X56.488 Y67.248
G01 F60 X56.488 Y67.223
G01 F60 X56.463 Y67.223
G01 F60 X56.463 Y67.197
G01 F60 X56.437 Y67.197
G01 F60 X56.437 Y67.147
G01 F60 X56.412 Y67.147
G01 F60 X56.412 Y67.070
G01 F60 X56.386 Y67.070
G01 F60 X56.386 Y66.178
G01 F60 X56.412 Y66.178
G01 F60 X56.412 Y66.102
G01 F60 X56.437 Y66.102
G01 F60 X56.437 Y66.077
G01 F60 X56.463 Y66.077
G01 F60 X56.463 Y66.026
G01 F60 X56.488 Y66.026
G01 F60 X56.488 Y66.000
G01 F60 X56.513 Y66.000
G01 F60 X56.513 Y65.975
G01 F60 X56.539 Y65.975
G01 F60 X56.539 Y65.950
G01 F60 X56.564 Y65.950
G01 F60 X56.564 Y65.924
G01 F60 X56.615 Y65.924
G01 F60 X56.615 Y65.899
G01 F60 X56.640 Y65.899
G01 F60 X56.640 Y65.873
G01 F60 X56.666 Y65.873
G01 F60 X56.666 Y65.848
G01 F60 X56.691 Y65.848
G01 F60 X56.691 Y65.823
G01 F60 X56.717 Y65.823
G01 F60 X56.717 Y65.797
G01 F60 X56.742 Y65.797
G01 F60 X56.742 Y65.772
G01 F60 X56.793 Y65.772
G01 F60 X56.793 Y65.746
G01 F60 X56.818 Y65.746
G01 F60 X56.818 Y65.721
G01 F60 X56.869 Y65.721
G01 F60 X56.869 Y65.696
G01 F60 X56.920 Y65.696
G01 F60 X56.920 Y65.670
G01 F60 X58.041 Y65.670
G01 F60 X58.041 Y65.696
G01 F60 X58.066 Y65.696
G01 F60 X58.066 Y65.721
G01 F60 X58.091 Y65.721
G01 F60 X58.091 Y65.746
G01 F60 X58.117 Y65.746
G01 F60 X58.117 Y66.156
G01 F60 X58.091 Y66.156
G01 F60 X58.091 Y66.207
G01 F60 X58.066 Y66.207
G01 F60 X58.066 Y66.232
G01 F60 X58.041 Y66.232
G01 F60 X58.041 Y66.258
G01 F60 X57.304 Y66.258
G01 F60 X57.304 Y66.283
G01 F60 X57.279 Y66.283
G01 F60 X57.279 Y66.308
G01 F60 X57.228 Y66.308
G01 F60 X57.228 Y66.334
G01 F60 X57.202 Y66.334
G01 F60 X57.202 Y66.359
G01 F60 X57.177 Y66.359
G01 F60 X57.177 Y66.385
G01 F60 X57.152 Y66.385
G01 F60 X57.152 Y66.410
G01 F60 X57.126 Y66.410
G01 F60 X57.126 Y66.435
G01 F60 X57.101 Y66.435
G01 F60 X57.101 Y66.461
G01 F60 X57.050 Y66.461
G01 F60 X57.050 Y66.486
G01 F60 X57.025 Y66.486
G01 F60 X57.025 Y66.511
G01 F60 X56.999 Y66.511
G01 F60 X56.999 Y66.562
G01 F60 X56.974 Y66.562
G01 F60 X56.974 Y66.712
G01 F60 X56.999 Y66.712
G01 F60 X56.999 Y66.737
G01 F60 X57.025 Y66.737
G01 F60 X57.025 Y66.762
G01 F60 X57.050 Y66.762
G01 F60 X57.050 Y66.788
G01 F60 X57.075 Y66.788
G01 F60 X57.075 Y66.813
G01 F60 X57.101 Y66.813
G01 F60 X57.101 Y66.838
G01 F60 X57.152 Y66.838
G01 F60 X57.152 Y66.864
G01 F60 X57.177 Y66.864
G01 F60 X57.177 Y66.889
G01 F60 X57.202 Y66.889
G01 F60 X57.202 Y66.915
G01 F60 X57.228 Y66.915
G01 F60 X57.228 Y66.940
G01 F60 X57.253 Y66.940
G01 F60 X57.253 Y66.966
G01 F60 X57.304 Y66.966
G01 F60 X57.304 Y66.991
G01 F60 X57.990 Y66.991
G01 F60 X57.990 Y67.016
G01 F60 X58.066 Y67.016
G01 F60 X58.066 Y67.042
G01 F60 X58.091 Y67.042
G01 F60 X58.091 Y67.093
G01 F60 X58.117 Y67.093
G01 F60 X58.117 Y67.502
G01 F60 X58.091 Y67.502
G01 F60 X58.091 Y67.553
G01 F60 X58.066 Y67.553
G01 F60 X58.066 Y67.578
G01 F60 X58.015 Y67.578
G01 F60 X58.015 Y67.604
G01 F60 X56.996 Y67.604
G00 F3000 Z3.000
G00 F3000 X66.851 Y67.604
G00 F1500 Z0
G01 F60 Z-0.200
G01 F60 X66.851 Y67.578
G01 F60 X66.800 Y67.578
G01 F60 X66.800 Y67.553
G01 F60 X66.775 Y67.553
G01 F60 X66.775 Y67.528
G01 F60 X66.750 Y67.528
G01 F60 X66.750 Y67.477
G01 F60 X66.724 Y67.477
G01 F60 X66.724 Y65.797
G01 F60 X66.750 Y65.797
G01 F60 X66.750 Y65.721
G01 F60 X66.775 Y65.721
G01 F60 X66.775 Y65.696
G01 F60 X66.800 Y65.696
G01 F60 X66.800 Y65.670
G01 F60 X67.261 Y65.670
G01 F60 X67.261 Y65.696
G01 F60 X67.286 Y65.696
G01 F60 X67.286 Y65.721
G01 F60 X67.312 Y65.721
G01 F60 X67.312 Y65.772
G01 F60 X67.337 Y65.772
G01 F60 X67.337 Y66.610
G01 F60 X67.362 Y66.610
G01 F60 X67.362 Y66.635
G01 F60 X67.388 Y66.635
G01 F60 X67.388 Y66.661
G01 F60 X67.439 Y66.661
G01 F60 X67.439 Y66.686
G01 F60 X67.464 Y66.686
G01 F60 X67.464 Y66.712
G01 F60 X67.489 Y66.712
G01 F60 X67.489 Y66.737
G01 F60 X67.515 Y66.737
G01 F60 X67.515 Y66.762
G01 F60 X67.540 Y66.762
G01 F60 X67.540 Y66.788
G01 F60 X67.566 Y66.788
G01 F60 X67.566 Y66.813
G01 F60 X67.616 Y66.813
G01 F60 X67.616 Y66.838
G01 F60 X67.642 Y66.838
G01 F60 X67.642 Y66.864
G01 F60 X67.667 Y66.864
G01 F60 X67.667 Y66.889
G01 F60 X67.693 Y66.889
G01 F60 X67.693 Y66.915
G01 F60 X67.718 Y66.915
G01 F60 X67.718 Y66.940
G01 F60 X67.743 Y66.940
G01 F60 X67.743 Y66.966
G01 F60 X67.842 Y66.966
G01 F60 X67.842 Y66.915
G01 F60 X67.867 Y66.915
G01 F60 X67.867 Y66.737
G01 F60 X67.893 Y66.737
G01 F60 X67.893 Y66.686
G01 F60 X67.918 Y66.686
G01 F60 X67.918 Y66.661
G01 F60 X67.969 Y66.661
G01 F60 X67.969 Y66.635
G01 F60 X68.378 Y66.635
G01 F60 X68.378 Y66.661
G01 F60 X68.429 Y66.661
G01 F60 X68.429 Y66.712
G01 F60 X68.455 Y66.712
G01 F60 X68.455 Y66.762
G01 F60 X68.480 Y66.762
G01 F60 X68.480 Y67.172
G01 F60 X68.455 Y67.172
G01 F60 X68.455 Y67.324
G01 F60 X68.429 Y67.324
G01 F60 X68.429 Y67.375
G01 F60 X68.404 Y67.375
G01 F60 X68.404 Y67.401
G01 F60 X68.378 Y67.401
G01 F60 X68.378 Y67.451
G01 F60 X68.353 Y67.451
G01 F60 X68.353 Y67.477
G01 F60 X68.328 Y67.477
G01 F60 X68.328 Y67.502
G01 F60 X68.277 Y67.502
G01 F60 X68.277 Y67.528
G01 F60 X68.251 Y67.528
G01 F60 X68.251 Y67.553
G01 F60 X68.201 Y67.553
G01 F60 X68.201 Y67.578
G01 F60 X68.099 Y67.578
G01 F60 X68.099 Y67.604
G01 F60 X67.410 Y67.604
G01 F60 X67.410 Y67.578
G01 F60 X67.359 Y67.578
G01 F60 X67.359 Y67.553
G01 F60 X67.334 Y67.553
G01 F60 X67.334 Y67.528
G01 F60 X67.286 Y67.528
G01 F60 X67.286 Y67.553
G01 F60 X67.261 Y67.553
G01 F60 X67.261 Y67.578
G01 F60 X67.210 Y67.578
G01 F60 X67.210 Y67.604
G01 F60 X66.851 Y67.604
G00 F3000 Z3.000
G00 F3000 X50.265 Y67.604
G00 F1500 Z0
G01 F60 Z-0.200
G01 F60 X50.265 Y67.578
G01 F60 X50.240 Y67.578
G01 F60 X50.240 Y67.553
G01 F60 X50.189 Y67.553
G01 F60 X50.189 Y67.502
G01 F60 X50.163 Y67.502
G01 F60 X50.163 Y66.889
G01 F60 X50.189 Y66.889
G01 F60 X50.189 Y66.102
G01 F60 X50.214 Y66.102
G01 F60 X50.214 Y65.950
G01 F60 X50.240 Y65.950
G01 F60 X50.240 Y65.899
G01 F60 X50.265 Y65.899
G01 F60 X50.265 Y65.848
G01 F60 X50.290 Y65.848
G01 F60 X50.290 Y65.823
G01 F60 X50.316 Y65.823
G01 F60 X50.316 Y65.797
G01 F60 X50.341 Y65.797
G01 F60 X50.341 Y65.772
G01 F60 X50.367 Y65.772
G01 F60 X50.367 Y65.746
G01 F60 X50.392 Y65.746
G01 F60 X50.392 Y65.721
G01 F60 X50.443 Y65.721
G01 F60 X50.443 Y65.696
G01 F60 X50.494 Y65.696
G01 F60 X50.494 Y65.670
G01 F60 X51.233 Y65.670
G01 F60 X51.233 Y65.696
G01 F60 X51.284 Y65.696
G01 F60 X51.284 Y65.721
G01 F60 X51.357 Y65.721
G01 F60 X51.357 Y65.696
G01 F60 X51.383 Y65.696
G01 F60 X51.383 Y65.670
G01 F60 X51.818 Y65.670
G01 F60 X51.818 Y65.696
G01 F60 X51.868 Y65.696
G01 F60 X51.868 Y65.746
G01 F60 X51.894 Y65.746
G01 F60 X51.894 Y67.528
G01 F60 X51.868 Y67.528
G01 F60 X51.868 Y67.553
G01 F60 X51.843 Y67.553
G01 F60 X51.843 Y67.578
G01 F60 X51.792 Y67.578
G01 F60 X51.792 Y67.604
G01 F60 X51.408 Y67.604
G01 F60 X51.408 Y67.578
G01 F60 X51.357 Y67.578
G01 F60 X51.357 Y67.553
G01 F60 X51.332 Y67.553
G01 F60 X51.332 Y67.502
G01 F60 X51.306 Y67.502
G01 F60 X51.306 Y66.537
G01 F60 X51.256 Y66.537
G01 F60 X51.256 Y66.511
G01 F60 X51.205 Y66.511
G01 F60 X51.205 Y66.486
G01 F60 X51.179 Y66.486
G01 F60 X51.179 Y66.461
G01 F60 X51.129 Y66.461
G01 F60 X51.129 Y66.435
G01 F60 X51.103 Y66.435
G01 F60 X51.103 Y66.410
G01 F60 X51.052 Y66.410
G01 F60 X51.052 Y66.385
G01 F60 X51.002 Y66.385
G01 F60 X51.002 Y66.359
G01 F60 X50.976 Y66.359
G01 F60 X50.976 Y66.334
G01 F60 X50.925 Y66.334
G01 F60 X50.925 Y66.308
G01 F60 X50.900 Y66.308
G01 F60 X50.900 Y66.283
G01 F60 X50.852 Y66.283
G01 F60 X50.852 Y66.308
G01 F60 X50.827 Y66.308
G01 F60 X50.827 Y66.334
G01 F60 X50.802 Y66.334
G01 F60 X50.802 Y66.715
G01 F60 X50.776 Y66.715
G01 F60 X50.776 Y67.426
G01 F60 X50.751 Y67.426
G01 F60 X50.751 Y67.528
G01 F60 X50.725 Y67.528
G01 F60 X50.725 Y67.553
G01 F60 X50.700 Y67.553
G01 F60 X50.700 Y67.578
G01 F60 X50.649 Y67.578
G01 F60 X50.649 Y67.604
G01 F60 X50.265 Y67.604
G00 F3000 Z3.000
G00 F3000 X68.909 Y67.604
G00 F1500 Z0
G01 F60 Z-0.200
G01 F60 X68.909 Y67.578
G01 F60 X68.858 Y67.578
G01 F60 X68.858 Y67.553
G01 F60 X68.832 Y67.553
G01 F60 X68.832 Y67.502
G01 F60 X68.807 Y67.502
G01 F60 X68.807 Y66.686
G01 F60 X68.832 Y66.686
G01 F60 X68.832 Y66.026
G01 F60 X68.858 Y66.026
G01 F60 X68.858 Y65.924
G01 F60 X68.883 Y65.924
G01 F60 X68.883 Y65.873
G01 F60 X68.909 Y65.873
G01 F60 X68.909 Y65.848
G01 F60 X68.934 Y65.848
G01 F60 X68.934 Y65.823
G01 F60 X68.959 Y65.823
G01 F60 X68.959 Y65.772
G01 F60 X69.010 Y65.772
G01 F60 X69.010 Y65.746
G01 F60 X69.036 Y65.746
G01 F60 X69.036 Y65.721
G01 F60 X69.086 Y65.721
G01 F60 X69.086 Y65.696
G01 F60 X69.137 Y65.696
G01 F60 X69.137 Y65.670
G01 F60 X69.877 Y65.670
G01 F60 X69.877 Y65.696
G01 F60 X69.928 Y65.696
G01 F60 X69.928 Y65.721
G01 F60 X69.975 Y65.721
G01 F60 X69.975 Y65.696
G01 F60 X70.026 Y65.696
G01 F60 X70.026 Y65.670
G01 F60 X70.461 Y65.670
G01 F60 X70.461 Y65.696
G01 F60 X70.487 Y65.696
G01 F60 X70.487 Y65.721
G01 F60 X70.512 Y65.721
G01 F60 X70.512 Y65.746
G01 F60 X70.537 Y65.746
G01 F60 X70.537 Y67.502
G01 F60 X70.512 Y67.502
G01 F60 X70.512 Y67.553
G01 F60 X70.487 Y67.553
G01 F60 X70.487 Y67.578
G01 F60 X70.436 Y67.578
G01 F60 X70.436 Y67.604
G01 F60 X70.052 Y67.604
G01 F60 X70.052 Y67.578
G01 F60 X70.001 Y67.578
G01 F60 X70.001 Y67.553
G01 F60 X69.975 Y67.553
G01 F60 X69.975 Y67.528
G01 F60 X69.950 Y67.528
G01 F60 X69.950 Y66.562
G01 F60 X69.925 Y66.562
G01 F60 X69.925 Y66.537
G01 F60 X69.899 Y66.537
G01 F60 X69.899 Y66.511
G01 F60 X69.848 Y66.511
G01 F60 X69.848 Y66.486
G01 F60 X69.823 Y66.486
G01 F60 X69.823 Y66.461
G01 F60 X69.772 Y66.461
G01 F60 X69.772 Y66.435
G01 F60 X69.721 Y66.435
G01 F60 X69.721 Y66.410
G01 F60 X69.696 Y66.410
G01 F60 X69.696 Y66.385
G01 F60 X69.645 Y66.385
G01 F60 X69.645 Y66.359
G01 F60 X69.620 Y66.359
G01 F60 X69.620 Y66.334
G01 F60 X69.569 Y66.334
G01 F60 X69.569 Y66.308
G01 F60 X69.518 Y66.308
G01 F60 X69.518 Y66.283
G01 F60 X69.496 Y66.283
G01 F60 X69.496 Y66.308
G01 F60 X69.471 Y66.308
G01 F60 X69.471 Y66.334
G01 F60 X69.445 Y66.334
G01 F60 X69.445 Y66.511
G01 F60 X69.420 Y66.511
G01 F60 X69.420 Y67.223
G01 F60 X69.394 Y67.223
G01 F60 X69.394 Y67.528
G01 F60 X69.369 Y67.528
G01 F60 X69.369 Y67.553
G01 F60 X69.344 Y67.553
G01 F60 X69.344 Y67.578
G01 F60 X69.293 Y67.578
G01 F60 X69.293 Y67.604
G01 F60 X68.909 Y67.604
G00 F3000 Z3.000
G00 F3000 X70.991 Y67.604
G00 F1500 Z0
G01 F60 Z-0.200
G01 F60 X70.991 Y67.578
G01 F60 X70.941 Y67.578
G01 F60 X70.941 Y67.553
G01 F60 X70.915 Y67.553
G01 F60 X70.915 Y67.528
G01 F60 X70.890 Y67.528
G01 F60 X70.890 Y67.451
G01 F60 X70.864 Y67.451
G01 F60 X70.864 Y65.797
G01 F60 X70.890 Y65.797
G01 F60 X70.890 Y65.721
G01 F60 X70.915 Y65.721
G01 F60 X70.915 Y65.696
G01 F60 X70.941 Y65.696
G01 F60 X70.941 Y65.670
G01 F60 X71.401 Y65.670
G01 F60 X71.401 Y65.696
G01 F60 X71.426 Y65.696
G01 F60 X71.426 Y65.721
G01 F60 X71.452 Y65.721
G01 F60 X71.452 Y65.772
G01 F60 X71.477 Y65.772
G01 F60 X71.477 Y66.712
G01 F60 X71.503 Y66.712
G01 F60 X71.503 Y66.737
G01 F60 X71.553 Y66.737
G01 F60 X71.553 Y66.762
G01 F60 X71.604 Y66.762
G01 F60 X71.604 Y66.788
G01 F60 X71.630 Y66.788
G01 F60 X71.630 Y66.813
G01 F60 X71.680 Y66.813
G01 F60 X71.680 Y66.838
G01 F60 X71.706 Y66.838
G01 F60 X71.706 Y66.864
G01 F60 X71.757 Y66.864
G01 F60 X71.757 Y66.889
G01 F60 X71.782 Y66.889
G01 F60 X71.782 Y66.915
G01 F60 X71.833 Y66.915
G01 F60 X71.833 Y66.940
G01 F60 X71.858 Y66.940
G01 F60 X71.858 Y66.966
G01 F60 X71.931 Y66.966
G01 F60 X71.931 Y66.940
G01 F60 X71.957 Y66.940
G01 F60 X71.957 Y66.889
G01 F60 X71.982 Y66.889
G01 F60 X71.982 Y66.305
G01 F60 X72.007 Y66.305
G01 F60 X72.007 Y65.746
G01 F60 X72.033 Y65.746
G01 F60 X72.033 Y65.721
G01 F60 X72.058 Y65.721
G01 F60 X72.058 Y65.696
G01 F60 X72.084 Y65.696
G01 F60 X72.084 Y65.670
G01 F60 X72.544 Y65.670
G01 F60 X72.544 Y65.696
G01 F60 X72.569 Y65.696
G01 F60 X72.569 Y65.721
G01 F60 X72.595 Y65.721
G01 F60 X72.595 Y66.892
G01 F60 X72.569 Y66.892
G01 F60 X72.569 Y67.273
G01 F60 X72.544 Y67.273
G01 F60 X72.544 Y67.350
G01 F60 X72.519 Y67.350
G01 F60 X72.519 Y67.401
G01 F60 X72.493 Y67.401
G01 F60 X72.493 Y67.426
G01 F60 X72.468 Y67.426
G01 F60 X72.468 Y67.451
G01 F60 X72.442 Y67.451
G01 F60 X72.442 Y67.477
G01 F60 X72.417 Y67.477
G01 F60 X72.417 Y67.502
G01 F60 X72.392 Y67.502
G01 F60 X72.392 Y67.528
G01 F60 X72.341 Y67.528
G01 F60 X72.341 Y67.553
G01 F60 X72.315 Y67.553
G01 F60 X72.315 Y67.578
G01 F60 X72.188 Y67.578
G01 F60 X72.188 Y67.604
G01 F60 X71.601 Y67.604
G01 F60 X71.601 Y67.578
G01 F60 X71.525 Y67.578
G01 F60 X71.525 Y67.553
G01 F60 X71.474 Y67.553
G01 F60 X71.474 Y67.528
G01 F60 X71.426 Y67.528
G01 F60 X71.426 Y67.553
G01 F60 X71.401 Y67.553
G01 F60 X71.401 Y67.578
G01 F60 X71.376 Y67.578
G01 F60 X71.376 Y67.604
G01 F60 X70.991 Y67.604
G00 F3000 Z3.000
G00 F3000 X75.487 Y67.604
G00 F1500 Z0
G01 F60 Z-0.200
G01 F60 X75.487 Y67.578
G01 F60 X75.386 Y67.578
G01 F60 X75.386 Y67.553
G01 F60 X75.335 Y67.553
G01 F60 X75.335 Y67.528
G01 F60 X75.309 Y67.528
G01 F60 X75.309 Y67.502
G01 F60 X75.259 Y67.502
G01 F60 X75.259 Y67.477
G01 F60 X75.233 Y67.477
G01 F60 X75.233 Y67.451
G01 F60 X75.208 Y67.451
G01 F60 X75.208 Y67.426
G01 F60 X75.182 Y67.426
G01 F60 X75.182 Y67.401
G01 F60 X75.157 Y67.401
G01 F60 X75.157 Y67.375
G01 F60 X75.132 Y67.375
G01 F60 X75.132 Y67.350
G01 F60 X75.106 Y67.350
G01 F60 X75.106 Y67.324
G01 F60 X75.081 Y67.324
G01 F60 X75.081 Y67.273
G01 F60 X75.055 Y67.273
G01 F60 X75.055 Y67.223
G01 F60 X75.030 Y67.223
G01 F60 X75.030 Y67.070
G01 F60 X75.005 Y67.070
G01 F60 X75.005 Y66.178
G01 F60 X75.030 Y66.178
G01 F60 X75.030 Y66.026
G01 F60 X75.055 Y66.026
G01 F60 X75.055 Y65.975
G01 F60 X75.081 Y65.975
G01 F60 X75.081 Y65.924
G01 F60 X75.106 Y65.924
G01 F60 X75.106 Y65.899
G01 F60 X75.132 Y65.899
G01 F60 X75.132 Y65.873
G01 F60 X75.157 Y65.873
G01 F60 X75.157 Y65.848
G01 F60 X75.182 Y65.848
G01 F60 X75.182 Y65.823
G01 F60 X75.208 Y65.823
G01 F60 X75.208 Y65.797
G01 F60 X75.233 Y65.797
G01 F60 X75.233 Y65.772
G01 F60 X75.284 Y65.772
G01 F60 X75.284 Y65.746
G01 F60 X75.309 Y65.746
G01 F60 X75.309 Y65.721
G01 F60 X75.360 Y65.721
G01 F60 X75.360 Y65.696
G01 F60 X75.411 Y65.696
G01 F60 X75.411 Y65.670
G01 F60 X76.684 Y65.670
G01 F60 X76.684 Y65.696
G01 F60 X76.710 Y65.696
G01 F60 X76.710 Y65.721
G01 F60 X76.735 Y65.721
G01 F60 X76.735 Y65.772
G01 F60 X76.760 Y65.772
G01 F60 X76.760 Y66.156
G01 F60 X76.735 Y66.156
G01 F60 X76.735 Y66.207
G01 F60 X76.710 Y66.207
G01 F60 X76.710 Y66.232
G01 F60 X76.659 Y66.232
G01 F60 X76.659 Y66.258
G01 F60 X75.795 Y66.258
G01 F60 X75.795 Y66.280
G01 F60 X76.684 Y66.280
G01 F60 X76.684 Y66.305
G01 F60 X76.710 Y66.305
G01 F60 X76.710 Y66.331
G01 F60 X76.735 Y66.331
G01 F60 X76.735 Y66.381
G01 F60 X76.760 Y66.381
G01 F60 X76.760 Y67.121
G01 F60 X76.735 Y67.121
G01 F60 X76.735 Y67.223
G01 F60 X76.710 Y67.223
G01 F60 X76.710 Y67.273
G01 F60 X76.684 Y67.273
G01 F60 X76.684 Y67.324
G01 F60 X76.659 Y67.324
G01 F60 X76.659 Y67.350
G01 F60 X76.633 Y67.350
G01 F60 X76.633 Y67.375
G01 F60 X76.608 Y67.375
G01 F60 X76.608 Y67.401
G01 F60 X76.583 Y67.401
G01 F60 X76.583 Y67.426
G01 F60 X76.557 Y67.426
G01 F60 X76.557 Y67.451
G01 F60 X76.532 Y67.451
G01 F60 X76.532 Y67.477
G01 F60 X76.506 Y67.477
G01 F60 X76.506 Y67.502
G01 F60 X76.456 Y67.502
G01 F60 X76.456 Y67.528
G01 F60 X76.430 Y67.528
G01 F60 X76.430 Y67.553
G01 F60 X76.379 Y67.553
G01 F60 X76.379 Y67.578
G01 F60 X76.278 Y67.578
G01 F60 X76.278 Y67.604
G01 F60 X75.487 Y67.604
G00 F3000 Z3.000
G00 F3000 X83.898 Y67.600
G00 F1500 Z0
G01 F60 Z-0.200
G01 F60 X84.250 Y67.600
G01 F60 X84.250 Y67.575
G01 F60 X84.301 Y67.575
G01 F60 X84.301 Y67.550
G01 F60 X84.326 Y67.550
G01 F60 X84.326 Y67.524
G01 F60 X84.352 Y67.524
G01 F60 X84.352 Y67.499
G01 F60 X84.377 Y67.499
G01 F60 X84.377 Y67.474
G01 F60 X84.403 Y67.474
G01 F60 X84.403 Y67.423
G01 F60 X84.428 Y67.423
G01 F60 X84.428 Y67.401
G01 F60 X84.403 Y67.401
G01 F60 X84.403 Y67.375
G01 F60 X84.377 Y67.375
G01 F60 X84.377 Y67.324
G01 F60 X84.352 Y67.324
G01 F60 X84.352 Y67.299
G01 F60 X84.301 Y67.299
G01 F60 X84.301 Y67.273
G01 F60 X84.276 Y67.273
G01 F60 X84.276 Y67.248
G01 F60 X84.174 Y67.248
G01 F60 X84.174 Y67.223
G01 F60 X83.898 Y67.223
G01 F60 X83.898 Y67.600
G00 F3000 Z3.000
G00 F3000 X81.815 Y67.600
G00 F1500 Z0
G01 F60 Z-0.200
G01 F60 X82.167 Y67.600
G01 F60 X82.167 Y67.575
G01 F60 X82.218 Y67.575
G01 F60 X82.218 Y67.550
G01 F60 X82.269 Y67.550
G01 F60 X82.269 Y67.524
G01 F60 X82.294 Y67.524
G01 F60 X82.294 Y67.499
G01 F60 X82.320 Y67.499
G01 F60 X82.320 Y67.448
G01 F60 X82.345 Y67.448
G01 F60 X82.345 Y67.401
G01 F60 X82.320 Y67.401
G01 F60 X82.320 Y67.350
G01 F60 X82.294 Y67.350
G01 F60 X82.294 Y67.324
G01 F60 X82.269 Y67.324
G01 F60 X82.269 Y67.299
G01 F60 X82.244 Y67.299
G01 F60 X82.244 Y67.273
G01 F60 X82.193 Y67.273
G01 F60 X82.193 Y67.248
G01 F60 X82.117 Y67.248
G01 F60 X82.117 Y67.223
G01 F60 X81.840 Y67.223
G01 F60 X81.840 Y67.248
G01 F60 X81.815 Y67.248
G01 F60 X81.815 Y67.600
G00 F3000 Z3.000
G00 F3000 X85.444 Y67.223
G00 F1500 Z0
G01 F60 Z-0.200
G01 F60 X85.444 Y67.197
G01 F60 X85.419 Y67.197
G01 F60 X85.419 Y67.172
G01 F60 X85.393 Y67.172
G01 F60 X85.393 Y67.147
G01 F60 X85.368 Y67.147
G01 F60 X85.368 Y66.610
G01 F60 X85.393 Y66.610
G01 F60 X85.393 Y66.559
G01 F60 X85.419 Y66.559
G01 F60 X85.419 Y66.534
G01 F60 X85.469 Y66.534
G01 F60 X85.469 Y66.508
G01 F60 X86.997 Y66.508
G01 F60 X86.997 Y66.534
G01 F60 X87.047 Y66.534
G01 F60 X87.047 Y66.559
G01 F60 X87.073 Y66.559
G01 F60 X87.073 Y66.585
G01 F60 X87.098 Y66.585
G01 F60 X87.098 Y67.147
G01 F60 X87.073 Y67.147
G01 F60 X87.073 Y67.197
G01 F60 X87.022 Y67.197
G01 F60 X87.022 Y67.223
G01 F60 X85.444 Y67.223
G00 F3000 Z3.000
G00 F3000 X75.795 Y66.991
G00 F1500 Z0
G01 F60 Z-0.200
G01 F60 X75.995 Y66.991
G01 F60 X75.995 Y66.966
G01 F60 X76.021 Y66.966
G01 F60 X76.021 Y66.940
G01 F60 X76.071 Y66.940
G01 F60 X76.071 Y66.915
G01 F60 X76.097 Y66.915
G01 F60 X76.097 Y66.889
G01 F60 X76.122 Y66.889
G01 F60 X76.122 Y66.867
G01 F60 X75.668 Y66.867
G01 F60 X75.668 Y66.889
G01 F60 X75.694 Y66.889
G01 F60 X75.694 Y66.915
G01 F60 X75.719 Y66.915
G01 F60 X75.719 Y66.940
G01 F60 X75.744 Y66.940
G01 F60 X75.744 Y66.966
G01 F60 X75.795 Y66.966
G01 F60 X75.795 Y66.991
G00 F3000 Z3.000
G00 F3000 X59.209 Y66.991
G00 F1500 Z0
G01 F60 Z-0.200
G01 F60 X59.409 Y66.991
G01 F60 X59.409 Y66.966
G01 F60 X59.460 Y66.966
G01 F60 X59.460 Y66.940
G01 F60 X59.485 Y66.940
G01 F60 X59.485 Y66.915
G01 F60 X59.511 Y66.915
G01 F60 X59.511 Y66.889
G01 F60 X59.536 Y66.889
G01 F60 X59.536 Y66.864
G01 F60 X59.561 Y66.864
G01 F60 X59.561 Y66.838
G01 F60 X59.587 Y66.838
G01 F60 X59.587 Y66.435
G01 F60 X59.561 Y66.435
G01 F60 X59.561 Y66.385
G01 F60 X59.536 Y66.385
G01 F60 X59.536 Y66.359
G01 F60 X59.511 Y66.359
G01 F60 X59.511 Y66.334
G01 F60 X59.460 Y66.334
G01 F60 X59.460 Y66.308
G01 F60 X59.434 Y66.308
G01 F60 X59.434 Y66.283
G01 F60 X59.409 Y66.283
G01 F60 X59.409 Y66.258
G01 F60 X59.234 Y66.258
G01 F60 X59.234 Y66.283
G01 F60 X59.209 Y66.283
G01 F60 X59.209 Y66.308
G01 F60 X59.158 Y66.308
G01 F60 X59.158 Y66.334
G01 F60 X59.133 Y66.334
G01 F60 X59.133 Y66.359
G01 F60 X59.107 Y66.359
G01 F60 X59.107 Y66.385
G01 F60 X59.082 Y66.385
G01 F60 X59.082 Y66.410
G01 F60 X59.057 Y66.410
G01 F60 X59.057 Y66.838
G01 F60 X59.082 Y66.838
G01 F60 X59.082 Y66.864
G01 F60 X59.107 Y66.864
G01 F60 X59.107 Y66.889
G01 F60 X59.133 Y66.889
G01 F60 X59.133 Y66.915
G01 F60 X59.158 Y66.915
G01 F60 X59.158 Y66.940
G01 F60 X59.184 Y66.940
G01 F60 X59.184 Y66.966
G01 F60 X59.209 Y66.966
G01 F60 X59.209 Y66.991
G00 F3000 Z3.000
G00 F3000 X53.164 Y66.991
G00 F1500 Z0
G01 F60 Z-0.200
G01 F60 X53.186 Y66.991
G01 F60 X53.186 Y66.966
G01 F60 X53.237 Y66.966
G01 F60 X53.237 Y66.940
G01 F60 X53.262 Y66.940
G01 F60 X53.262 Y66.915
G01 F60 X53.288 Y66.915
G01 F60 X53.288 Y66.889
G01 F60 X53.313 Y66.889
G01 F60 X53.313 Y66.864
G01 F60 X53.338 Y66.864
G01 F60 X53.338 Y66.838
G01 F60 X53.364 Y66.838
G01 F60 X53.364 Y66.410
G01 F60 X53.338 Y66.410
G01 F60 X53.338 Y66.385
G01 F60 X53.313 Y66.385
G01 F60 X53.313 Y66.359
G01 F60 X53.288 Y66.359
G01 F60 X53.288 Y66.334
G01 F60 X53.262 Y66.334
G01 F60 X53.262 Y66.308
G01 F60 X53.237 Y66.308
G01 F60 X53.237 Y66.283
G01 F60 X53.186 Y66.283
G01 F60 X53.186 Y66.258
G01 F60 X53.164 Y66.258
G01 F60 X53.164 Y66.283
G01 F60 X53.138 Y66.283
G01 F60 X53.138 Y66.308
G01 F60 X53.088 Y66.308
G01 F60 X53.088 Y66.334
G01 F60 X53.062 Y66.334
G01 F60 X53.062 Y66.359
G01 F60 X53.037 Y66.359
G01 F60 X53.037 Y66.385
G01 F60 X53.011 Y66.385
G01 F60 X53.011 Y66.410
G01 F60 X52.986 Y66.410
G01 F60 X52.986 Y66.435
G01 F60 X52.961 Y66.435
G01 F60 X52.961 Y66.461
G01 F60 X52.910 Y66.461
G01 F60 X52.910 Y66.486
G01 F60 X52.884 Y66.486
G01 F60 X52.884 Y66.511
G01 F60 X52.859 Y66.511
G01 F60 X52.859 Y66.562
G01 F60 X52.834 Y66.562
G01 F60 X52.834 Y66.712
G01 F60 X52.859 Y66.712
G01 F60 X52.859 Y66.737
G01 F60 X52.884 Y66.737
G01 F60 X52.884 Y66.762
G01 F60 X52.910 Y66.762
G01 F60 X52.910 Y66.788
G01 F60 X52.935 Y66.788
G01 F60 X52.935 Y66.813
G01 F60 X52.961 Y66.813
G01 F60 X52.961 Y66.838
G01 F60 X53.011 Y66.838
G01 F60 X53.011 Y66.864
G01 F60 X53.037 Y66.864
G01 F60 X53.037 Y66.889
G01 F60 X53.062 Y66.889
G01 F60 X53.062 Y66.915
G01 F60 X53.088 Y66.915
G01 F60 X53.088 Y66.940
G01 F60 X53.113 Y66.940
G01 F60 X53.113 Y66.966
G01 F60 X53.164 Y66.966
G01 F60 X53.164 Y66.991
G00 F3000 Z3.000
G00 F3000 X42.648 Y66.991
G00 F1500 Z0
G01 F60 Z-0.200
G01 F60 X42.696 Y66.991
G01 F60 X42.696 Y66.966
G01 F60 X42.747 Y66.966
G01 F60 X42.747 Y66.940
G01 F60 X42.772 Y66.940
G01 F60 X42.772 Y66.915
G01 F60 X42.797 Y66.915
G01 F60 X42.797 Y66.889
G01 F60 X42.823 Y66.889
G01 F60 X42.823 Y66.864
G01 F60 X42.848 Y66.864
G01 F60 X42.848 Y66.838
G01 F60 X42.874 Y66.838
G01 F60 X42.874 Y66.813
G01 F60 X42.924 Y66.813
G01 F60 X42.924 Y66.788
G01 F60 X42.950 Y66.788
G01 F60 X42.950 Y66.762
G01 F60 X42.975 Y66.762
G01 F60 X42.975 Y66.737
G01 F60 X43.001 Y66.737
G01 F60 X43.001 Y66.639
G01 F60 X42.975 Y66.639
G01 F60 X42.975 Y66.613
G01 F60 X42.950 Y66.613
G01 F60 X42.950 Y66.588
G01 F60 X42.924 Y66.588
G01 F60 X42.924 Y66.562
G01 F60 X42.874 Y66.562
G01 F60 X42.874 Y66.537
G01 F60 X42.848 Y66.537
G01 F60 X42.848 Y66.511
G01 F60 X42.823 Y66.511
G01 F60 X42.823 Y66.486
G01 F60 X42.797 Y66.486
G01 F60 X42.797 Y66.461
G01 F60 X42.772 Y66.461
G01 F60 X42.772 Y66.435
G01 F60 X42.747 Y66.435
G01 F60 X42.747 Y66.410
G01 F60 X42.696 Y66.410
G01 F60 X42.696 Y66.385
G01 F60 X42.648 Y66.385
G01 F60 X42.648 Y66.410
G01 F60 X42.597 Y66.410
G01 F60 X42.597 Y66.435
G01 F60 X42.572 Y66.435
G01 F60 X42.572 Y66.461
G01 F60 X42.547 Y66.461
G01 F60 X42.547 Y66.486
G01 F60 X42.521 Y66.486
G01 F60 X42.521 Y66.511
G01 F60 X42.496 Y66.511
G01 F60 X42.496 Y66.588
G01 F60 X42.470 Y66.588
G01 F60 X42.470 Y66.788
G01 F60 X42.496 Y66.788
G01 F60 X42.496 Y66.838
G01 F60 X42.521 Y66.838
G01 F60 X42.521 Y66.889
G01 F60 X42.547 Y66.889
G01 F60 X42.547 Y66.915
G01 F60 X42.597 Y66.915
G01 F60 X42.597 Y66.940
G01 F60 X42.623 Y66.940
G01 F60 X42.623 Y66.966
G01 F60 X42.648 Y66.966
G01 F60 X42.648 Y66.991
G00 F3000 Z3.000
G00 F3000 X54.837 Y66.867
G00 F1500 Z0
G01 F60 Z-0.200
G01 F60 X54.837 Y66.842
G01 F60 X54.786 Y66.842
G01 F60 X54.786 Y66.816
G01 F60 X54.761 Y66.816
G01 F60 X54.761 Y66.791
G01 F60 X54.735 Y66.791
G01 F60 X54.735 Y66.102
G01 F60 X54.761 Y66.102
G01 F60 X54.761 Y66.077
G01 F60 X54.786 Y66.077
G01 F60 X54.786 Y66.051
G01 F60 X54.812 Y66.051
G01 F60 X54.812 Y66.026
G01 F60 X55.526 Y66.026
G01 F60 X55.526 Y66.051
G01 F60 X55.577 Y66.051
G01 F60 X55.577 Y66.102
G01 F60 X55.602 Y66.102
G01 F60 X55.602 Y66.153
G01 F60 X55.628 Y66.153
G01 F60 X55.628 Y66.740
G01 F60 X55.602 Y66.740
G01 F60 X55.602 Y66.791
G01 F60 X55.577 Y66.791
G01 F60 X55.577 Y66.842
G01 F60 X55.526 Y66.842
G01 F60 X55.526 Y66.867
G01 F60 X54.837 Y66.867
G00 F3000 Z3.000
G00 F3000 X83.898 Y66.635
G00 F1500 Z0
G01 F60 Z-0.200
G01 F60 X84.225 Y66.635
G01 F60 X84.225 Y66.610
G01 F60 X84.276 Y66.610
G01 F60 X84.276 Y66.585
G01 F60 X84.326 Y66.585
G01 F60 X84.326 Y66.559
G01 F60 X84.352 Y66.559
G01 F60 X84.352 Y66.534
G01 F60 X84.377 Y66.534
G01 F60 X84.377 Y66.508
G01 F60 X84.403 Y66.508
G01 F60 X84.403 Y66.458
G01 F60 X84.428 Y66.458
G01 F60 X84.428 Y66.435
G01 F60 X84.403 Y66.435
G01 F60 X84.403 Y66.385
G01 F60 X84.377 Y66.385
G01 F60 X84.377 Y66.359
G01 F60 X84.352 Y66.359
G01 F60 X84.352 Y66.334
G01 F60 X84.326 Y66.334
G01 F60 X84.326 Y66.308
G01 F60 X84.276 Y66.308
G01 F60 X84.276 Y66.283
G01 F60 X84.225 Y66.283
G01 F60 X84.225 Y66.258
G01 F60 X83.898 Y66.258
G01 F60 X83.898 Y66.635
G00 F3000 Z3.000
G00 F3000 X81.815 Y66.635
G00 F1500 Z0
G01 F60 Z-0.200
G01 F60 X82.167 Y66.635
G01 F60 X82.167 Y66.610
G01 F60 X82.218 Y66.610
G01 F60 X82.218 Y66.585
G01 F60 X82.244 Y66.585
G01 F60 X82.244 Y66.559
G01 F60 X82.294 Y66.559
G01 F60 X82.294 Y66.508
G01 F60 X82.320 Y66.508
G01 F60 X82.320 Y66.483
G01 F60 X82.345 Y66.483
G01 F60 X82.345 Y66.410
G01 F60 X82.320 Y66.410
G01 F60 X82.320 Y66.385
G01 F60 X82.294 Y66.385
G01 F60 X82.294 Y66.359
G01 F60 X82.269 Y66.359
G01 F60 X82.269 Y66.334
G01 F60 X82.244 Y66.334
G01 F60 X82.244 Y66.308
G01 F60 X82.218 Y66.308
G01 F60 X82.218 Y66.283
G01 F60 X82.142 Y66.283
G01 F60 X82.142 Y66.258
G01 F60 X81.815 Y66.258
G01 F60 X81.815 Y66.635
G00 F3000 Z3.000
G00 F3000 X20.793 Y64.999
G00 F1500 Z0
G01 F60 Z-0.200
G01 F60 X20.695 Y64.978
G01 F60 X20.636 Y64.948
G01 F60 X20.259 Y64.948
G01 F60 X20.165 Y64.928
G01 F60 X20.153 Y64.922
G01 F60 X19.929 Y64.922
G01 F60 X19.831 Y64.901
G01 F60 X19.772 Y64.871
G01 F60 X19.650 Y64.871
G01 F60 X19.556 Y64.852
G01 F60 X19.543 Y64.846
G01 F60 X19.497 Y64.846
G01 F60 X19.399 Y64.825
G01 F60 X19.340 Y64.795
G01 F60 X19.320 Y64.795
G01 F60 X19.226 Y64.775
G01 F60 X19.157 Y64.745
G01 F60 X19.141 Y64.739
G01 F60 X19.073 Y64.725
G01 F60 X19.061 Y64.719
G01 F60 X18.989 Y64.719
G01 F60 X18.895 Y64.699
G01 F60 X18.826 Y64.669
G01 F60 X18.811 Y64.663
G01 F60 X18.743 Y64.648
G01 F60 X18.703 Y64.631
G01 F60 X18.665 Y64.623
G01 F60 X18.601 Y64.592
G01 F60 X18.583 Y64.592
G01 F60 X18.489 Y64.572
G01 F60 X18.401 Y64.533
G01 F60 X18.377 Y64.515
G01 F60 X18.281 Y64.495
G01 F60 X18.203 Y64.455
G01 F60 X18.168 Y64.447
G01 F60 X18.129 Y64.435
G01 F60 X18.057 Y64.420
G01 F60 X17.969 Y64.381
G01 F60 X17.895 Y64.327
G01 F60 X17.888 Y64.320
G01 F60 X17.879 Y64.318
G01 F60 X17.867 Y64.313
G01 F60 X17.846 Y64.313
G01 F60 X17.752 Y64.293
G01 F60 X17.664 Y64.253
G01 F60 X17.620 Y64.221
G01 F60 X17.600 Y64.216
G01 F60 X17.512 Y64.178
G01 F60 X17.455 Y64.136
G01 F60 X17.435 Y64.125
G01 F60 X17.396 Y64.100
G01 F60 X17.346 Y64.090
G01 F60 X17.257 Y64.050
G01 F60 X17.214 Y64.018
G01 F60 X17.193 Y64.013
G01 F60 X17.106 Y63.974
G01 F60 X17.027 Y63.917
G01 F60 X16.994 Y63.880
G01 F60 X16.977 Y63.872
G01 F60 X16.935 Y63.840
G01 F60 X16.912 Y63.835
G01 F60 X16.830 Y63.796
G01 F60 X16.775 Y63.771
G01 F60 X16.719 Y63.730
G01 F60 X16.694 Y63.717
G01 F60 X16.643 Y63.679
G01 F60 X16.618 Y63.666
G01 F60 X16.544 Y63.612
G01 F60 X16.506 Y63.568
G01 F60 X16.501 Y63.566
G01 F60 X16.457 Y63.556
G01 F60 X16.369 Y63.517
G01 F60 X16.290 Y63.459
G01 F60 X16.243 Y63.405
G01 F60 X16.234 Y63.398
G01 F60 X16.214 Y63.386
G01 F60 X16.166 Y63.365
G01 F60 X16.091 Y63.311
G01 F60 X16.028 Y63.247
G01 F60 X15.989 Y63.201
G01 F60 X15.960 Y63.180
G01 F60 X15.936 Y63.152
G01 F60 X15.924 Y63.150
G01 F60 X15.836 Y63.111
G01 F60 X15.756 Y63.053
G01 F60 X15.709 Y62.998
G01 F60 X15.685 Y62.980
G01 F60 X15.621 Y62.917
G01 F60 X15.582 Y62.870
G01 F60 X15.564 Y62.857
G01 F60 X15.506 Y62.831
G01 F60 X15.428 Y62.775
G01 F60 X15.365 Y62.705
G01 F60 X15.334 Y62.654
G01 F60 X15.327 Y62.648
G01 F60 X15.288 Y62.618
G01 F60 X15.225 Y62.572
G01 F60 X15.162 Y62.502
G01 F60 X15.130 Y62.451
G01 F60 X15.118 Y62.438
G01 F60 X15.063 Y62.383
G01 F60 X15.024 Y62.338
G01 F60 X14.999 Y62.320
G01 F60 X14.912 Y62.232
G01 F60 X14.854 Y62.169
G01 F60 X14.829 Y62.122
G01 F60 X14.818 Y62.114
G01 F60 X14.754 Y62.043
G01 F60 X14.737 Y62.014
G01 F60 X14.669 Y61.964
G01 F60 X14.607 Y61.902
G01 F60 X14.551 Y61.840
G01 F60 X14.510 Y61.769
G01 F60 X14.490 Y61.733
G01 F60 X14.448 Y61.686
G01 F60 X14.437 Y61.666
G01 F60 X14.412 Y61.671
G01 F60 X14.366 Y61.671
G01 F60 X14.353 Y61.677
G01 F60 X14.264 Y61.696
G01 F60 X14.096 Y61.706
G01 F60 X14.049 Y61.727
G01 F60 X13.955 Y61.747
G01 F60 X13.705 Y61.747
G01 F60 X13.693 Y61.753
G01 F60 X13.599 Y61.773
G01 F60 X13.249 Y61.773
G01 F60 X13.155 Y61.753
G01 F60 X13.143 Y61.747
G01 F60 X12.614 Y61.747
G01 F60 X12.518 Y61.727
G01 F60 X12.454 Y61.697
G01 F60 X12.284 Y61.697
G01 F60 X12.190 Y61.677
G01 F60 X12.177 Y61.671
G01 F60 X12.081 Y61.671
G01 F60 X11.983 Y61.650
G01 F60 X11.923 Y61.620
G01 F60 X11.903 Y61.620
G01 F60 X11.809 Y61.600
G01 F60 X11.729 Y61.565
G01 F60 X11.693 Y61.544
G01 F60 X11.674 Y61.544
G01 F60 X11.580 Y61.524
G01 F60 X11.496 Y61.487
G01 F60 X11.467 Y61.468
G01 F60 X11.420 Y61.468
G01 F60 X11.326 Y61.448
G01 F60 X11.238 Y61.409
G01 F60 X11.182 Y61.368
G01 F60 X11.157 Y61.355
G01 F60 X11.138 Y61.340
G01 F60 X11.047 Y61.321
G01 F60 X10.963 Y61.284
G01 F60 X10.919 Y61.256
G01 F60 X10.869 Y61.245
G01 F60 X10.781 Y61.206
G01 F60 X10.710 Y61.154
G01 F60 X10.678 Y61.125
G01 F60 X10.633 Y61.103
G01 F60 X10.579 Y61.079
G01 F60 X10.530 Y61.045
G01 F60 X10.513 Y61.042
G01 F60 X10.426 Y61.003
G01 F60 X10.347 Y60.946
G01 F60 X10.314 Y60.908
G01 F60 X10.298 Y60.901
G01 F60 X10.229 Y60.851
G01 F60 X10.171 Y60.825
G01 F60 X10.097 Y60.771
G01 F60 X10.060 Y60.734
G01 F60 X10.011 Y60.679
G01 F60 X9.988 Y60.650
G01 F60 X9.948 Y60.621
G01 F60 X9.918 Y60.593
G01 F60 X9.867 Y60.571
G01 F60 X9.785 Y60.512
G01 F60 X9.731 Y60.445
G01 F60 X9.709 Y60.428
G01 F60 X9.684 Y60.415
G01 F60 X9.611 Y60.362
G01 F60 X9.554 Y60.298
G01 F60 X9.531 Y60.269
G01 F60 X9.482 Y60.234
G01 F60 X9.436 Y60.179
G01 F60 X9.408 Y60.159
G01 F60 X9.341 Y60.085
G01 F60 X9.312 Y60.029
G01 F60 X9.281 Y60.006
G01 F60 X9.218 Y59.937
G01 F60 X9.184 Y59.881
G01 F60 X9.156 Y59.849
G01 F60 X9.129 Y59.828
G01 F60 X9.064 Y59.757
G01 F60 X9.032 Y59.702
G01 F60 X9.013 Y59.680
G01 F60 X8.987 Y59.633
G01 F60 X8.976 Y59.625
G01 F60 X8.912 Y59.554
G01 F60 X8.884 Y59.506
G01 F60 X8.869 Y59.492
G01 F60 X8.812 Y59.428
G01 F60 X8.779 Y59.375
G01 F60 X8.734 Y59.325
G01 F60 X8.686 Y59.242
G01 F60 X8.680 Y59.222
G01 F60 X8.658 Y59.198
G01 F60 X8.626 Y59.143
G01 F60 X8.607 Y59.122
G01 F60 X8.559 Y59.039
G01 F60 X8.529 Y58.947
G01 F60 X8.529 Y58.940
G01 F60 X8.483 Y58.861
G01 F60 X8.463 Y58.801
G01 F60 X8.455 Y58.792
G01 F60 X8.423 Y58.737
G01 F60 X8.404 Y58.716
G01 F60 X8.356 Y58.632
G01 F60 X8.327 Y58.544
G01 F60 X8.322 Y58.508
G01 F60 X8.314 Y58.489
G01 F60 X8.282 Y58.434
G01 F60 X8.264 Y58.388
G01 F60 X8.229 Y58.328
G01 F60 X8.200 Y58.239
G01 F60 X8.194 Y58.194
G01 F60 X8.181 Y58.147
G01 F60 X8.153 Y58.099
G01 F60 X8.123 Y58.008
G01 F60 X8.114 Y57.920
G01 F60 X8.114 Y57.876
G01 F60 X8.104 Y57.843
G01 F60 X8.076 Y57.794
G01 F60 X8.047 Y57.703
G01 F60 X8.037 Y57.615
G01 F60 X8.037 Y57.586
G01 F60 X8.026 Y57.566
G01 F60 X7.996 Y57.474
G01 F60 X7.987 Y57.387
G01 F60 X7.987 Y57.320
G01 F60 X7.990 Y57.288
G01 F60 X7.989 Y57.277
G01 F60 X7.971 Y57.220
G01 F60 X7.961 Y57.133
G01 F60 X7.961 Y57.053
G01 F60 X7.949 Y57.032
G01 F60 X7.920 Y56.941
G01 F60 X7.911 Y56.853
G01 F60 X7.911 Y56.482
G01 F60 X7.920 Y56.394
G01 F60 X7.938 Y56.337
G01 F60 X7.920 Y56.280
G01 F60 X7.911 Y56.193
G01 F60 X7.911 Y56.151
G01 F60 X7.918 Y56.083
G01 F60 X7.763 Y56.083
G01 F60 X7.669 Y56.063
G01 F60 X7.581 Y56.024
G01 F60 X7.503 Y55.968
G01 F60 X7.439 Y55.896
G01 F60 X7.391 Y55.813
G01 F60 X7.361 Y55.722
G01 F60 X7.352 Y55.634
G01 F60 X7.352 Y55.542
G01 F60 X7.361 Y55.454
G01 F60 X7.391 Y55.363
G01 F60 X7.439 Y55.280
G01 F60 X7.503 Y55.208
G01 F60 X7.581 Y55.152
G01 F60 X7.669 Y55.113
G01 F60 X7.763 Y55.093
G01 F60 X8.011 Y55.093
G01 F60 X8.101 Y55.112
G01 F60 X8.114 Y55.074
G01 F60 X8.114 Y55.067
G01 F60 X6.289 Y55.067
G01 F60 X6.195 Y55.047
G01 F60 X6.107 Y55.008
G01 F60 X6.030 Y54.952
G01 F60 X5.963 Y54.878
G01 F60 X5.920 Y54.794
G01 F60 X5.892 Y54.746
G01 F60 X5.862 Y54.655
G01 F60 X5.853 Y54.567
G01 F60 X5.853 Y54.526
G01 F60 X5.862 Y54.438
G01 F60 X5.892 Y54.347
G01 F60 X5.940 Y54.264
G01 F60 X6.004 Y54.192
G01 F60 X6.082 Y54.136
G01 F60 X6.170 Y54.097
G01 F60 X6.264 Y54.077
G01 F60 X6.385 Y54.077
G01 F60 X6.479 Y54.097
G01 F60 X6.492 Y54.102
G01 F60 X8.469 Y54.102
G01 F60 X8.483 Y54.096
G01 F60 X8.502 Y54.092
G01 F60 X8.516 Y54.072
G01 F60 X8.535 Y54.015
G01 F60 X8.560 Y53.939
G01 F60 X8.598 Y53.877
G01 F60 X8.610 Y53.839
G01 F60 X8.658 Y53.755
G01 F60 X8.705 Y53.705
G01 F60 X8.736 Y53.651
G01 F60 X8.755 Y53.631
G01 F60 X8.762 Y53.610
G01 F60 X8.812 Y53.525
G01 F60 X8.882 Y53.453
G01 F60 X8.914 Y53.397
G01 F60 X8.959 Y53.351
G01 F60 X8.965 Y53.331
G01 F60 X9.016 Y53.244
G01 F60 X9.089 Y53.171
G01 F60 X9.088 Y53.171
G01 F60 X9.137 Y53.122
G01 F60 X9.163 Y53.095
G01 F60 X9.168 Y53.077
G01 F60 X9.219 Y52.991
G01 F60 X9.287 Y52.921
G01 F60 X9.328 Y52.876
G01 F60 X9.361 Y52.847
G01 F60 X9.404 Y52.800
G01 F60 X9.437 Y52.771
G01 F60 X9.486 Y52.717
G01 F60 X9.535 Y52.684
G01 F60 X9.547 Y52.663
G01 F60 X9.613 Y52.590
G01 F60 X9.662 Y52.557
G01 F60 X9.674 Y52.536
G01 F60 X9.734 Y52.470
G01 F60 X9.768 Y52.441
G01 F60 X9.814 Y52.389
G01 F60 X9.889 Y52.335
G01 F60 X9.964 Y52.296
G01 F60 X10.014 Y52.260
G01 F60 X10.033 Y52.249
G01 F60 X10.047 Y52.238
G01 F60 X10.094 Y52.186
G01 F60 X10.171 Y52.129
G01 F60 X10.250 Y52.094
G01 F60 X10.314 Y52.071
G01 F60 X10.348 Y52.033
G01 F60 X10.427 Y51.975
G01 F60 X10.480 Y51.954
G01 F60 X10.500 Y51.932
G01 F60 X10.575 Y51.877
G01 F60 X10.635 Y51.847
G01 F60 X10.648 Y51.840
G01 F60 X10.705 Y51.799
G01 F60 X10.793 Y51.760
G01 F60 X10.833 Y51.751
G01 F60 X10.855 Y51.743
G01 F60 X10.878 Y51.726
G01 F60 X10.902 Y51.713
G01 F60 X10.959 Y51.672
G01 F60 X11.041 Y51.636
G01 F60 X11.068 Y51.627
G01 F60 X11.111 Y51.596
G01 F60 X11.199 Y51.557
G01 F60 X11.293 Y51.537
G01 F60 X11.314 Y51.537
G01 F60 X11.326 Y51.531
G01 F60 X11.405 Y51.515
G01 F60 X11.449 Y51.506
G01 F60 X11.489 Y51.489
G01 F60 X11.518 Y51.469
G01 F60 X11.606 Y51.430
G01 F60 X11.700 Y51.410
G01 F60 X11.720 Y51.410
G01 F60 X11.723 Y51.409
G01 F60 X11.791 Y51.384
G01 F60 X11.860 Y51.353
G01 F60 X11.954 Y51.334
G01 F60 X11.974 Y51.334
G01 F60 X11.987 Y51.328
G01 F60 X12.070 Y51.310
G01 F60 X12.136 Y51.301
G01 F60 X12.190 Y51.277
G01 F60 X12.276 Y51.259
G01 F60 X12.367 Y51.249
G01 F60 X12.418 Y51.226
G01 F60 X12.512 Y51.207
G01 F60 X12.660 Y51.207
G01 F60 X12.672 Y51.201
G01 F60 X12.766 Y51.181
G01 F60 X13.751 Y51.181
G01 F60 X13.848 Y51.202
G01 F60 X13.858 Y51.207
G01 F60 X13.858 Y51.207
G01 F60 X14.005 Y51.207
G01 F60 X14.099 Y51.226
G01 F60 X14.168 Y51.257
G01 F60 X14.169 Y51.257
G01 F60 X14.285 Y51.257
G01 F60 X14.382 Y51.278
G01 F60 X14.418 Y51.296
G01 F60 X14.418 Y51.295
G01 F60 X14.463 Y51.245
G01 F60 X14.494 Y51.223
G01 F60 X14.503 Y51.197
G01 F60 X14.551 Y51.114
G01 F60 X14.570 Y51.093
G01 F60 X14.601 Y51.038
G01 F60 X14.662 Y50.971
G01 F60 X14.698 Y50.940
G01 F60 X14.751 Y50.886
G01 F60 X14.795 Y50.840
G01 F60 X14.829 Y50.808
G01 F60 X14.875 Y50.762
G01 F60 X14.916 Y50.717
G01 F60 X14.950 Y50.687
G01 F60 X14.998 Y50.637
G01 F60 X15.030 Y50.607
G01 F60 X15.030 Y50.607
G01 F60 X15.036 Y50.588
G01 F60 X15.084 Y50.504
G01 F60 X15.148 Y50.433
G01 F60 X15.223 Y50.379
G01 F60 X15.284 Y50.348
G01 F60 X15.295 Y50.343
G01 F60 X15.336 Y50.301
G01 F60 X15.358 Y50.279
G01 F60 X15.404 Y50.228
G01 F60 X15.453 Y50.195
G01 F60 X15.466 Y50.172
G01 F60 X15.532 Y50.103
G01 F60 X15.566 Y50.071
G01 F60 X15.603 Y50.033
G01 F60 X15.625 Y50.008
G01 F60 X15.685 Y49.953
G01 F60 X15.732 Y49.900
G01 F60 X15.810 Y49.843
G01 F60 X15.829 Y49.835
G01 F60 X15.885 Y49.773
G01 F60 X15.963 Y49.716
G01 F60 X16.020 Y49.691
G01 F60 X16.037 Y49.671
G01 F60 X16.117 Y49.613
G01 F60 X16.188 Y49.584
G01 F60 X16.212 Y49.567
G01 F60 X16.231 Y49.557
G01 F60 X16.245 Y49.545
G01 F60 X16.291 Y49.493
G01 F60 X16.366 Y49.439
G01 F60 X16.441 Y49.401
G01 F60 X16.483 Y49.370
G01 F60 X16.528 Y49.337
G01 F60 X16.571 Y49.290
G01 F60 X16.649 Y49.233
G01 F60 X16.729 Y49.198
G01 F60 X16.748 Y49.192
G01 F60 X16.774 Y49.163
G01 F60 X16.852 Y49.107
G01 F60 X16.942 Y49.066
G01 F60 X16.979 Y49.060
G01 F60 X17.057 Y49.003
G01 F60 X17.128 Y48.975
G01 F60 X17.157 Y48.954
G01 F60 X17.238 Y48.918
G01 F60 X17.265 Y48.910
G01 F60 X17.309 Y48.878
G01 F60 X17.397 Y48.839
G01 F60 X17.465 Y48.824
G01 F60 X17.477 Y48.820
G01 F60 X17.518 Y48.800
G01 F60 X17.532 Y48.792
G01 F60 X17.585 Y48.754
G01 F60 X17.660 Y48.715
G01 F60 X17.715 Y48.675
G01 F60 X17.803 Y48.636
G01 F60 X17.894 Y48.616
G01 F60 X17.918 Y48.599
G01 F60 X17.997 Y48.564
G01 F60 X18.065 Y48.539
G01 F60 X18.133 Y48.509
G01 F60 X18.201 Y48.494
G01 F60 X18.217 Y48.489
G01 F60 X18.286 Y48.458
G01 F60 X18.329 Y48.449
G01 F60 X18.348 Y48.441
G01 F60 X18.376 Y48.421
G01 F60 X18.466 Y48.381
G01 F60 X18.540 Y48.367
G01 F60 X18.555 Y48.361
G01 F60 X18.624 Y48.336
G01 F60 X18.692 Y48.305
G01 F60 X18.780 Y48.287
G01 F60 X18.897 Y48.277
G01 F60 X18.946 Y48.255
G01 F60 X18.983 Y48.247
G01 F60 X19.022 Y48.229
G01 F60 X19.106 Y48.212
G01 F60 X19.172 Y48.202
G01 F60 X19.226 Y48.178
G01 F60 X19.320 Y48.159
G01 F60 X19.340 Y48.159
G01 F60 X19.353 Y48.153
G01 F60 X19.447 Y48.133
G01 F60 X19.619 Y48.133
G01 F60 X19.632 Y48.136
G01 F60 X19.698 Y48.107
G01 F60 X19.767 Y48.082
G01 F60 X19.835 Y48.051
G01 F60 X19.929 Y48.032
G01 F60 X20.305 Y48.032
G01 F60 X20.318 Y48.026
G01 F60 X20.407 Y48.007
G01 F60 X20.575 Y47.997
G01 F60 X20.623 Y47.975
G01 F60 X20.716 Y47.955
G01 F60 X21.368 Y47.955
G01 F60 X21.429 Y47.966
G01 F60 X21.479 Y47.955
G01 F60 X21.701 Y47.955
G01 F60 X21.798 Y47.976
G01 F60 X21.860 Y48.006
G01 F60 X21.956 Y48.006
G01 F60 X21.984 Y48.012
G01 F60 X22.012 Y48.006
G01 F60 X22.184 Y48.006
G01 F60 X22.264 Y48.023
G01 F60 X22.300 Y48.032
G01 F60 X22.438 Y48.032
G01 F60 X22.536 Y48.052
G01 F60 X22.595 Y48.082
G01 F60 X22.718 Y48.082
G01 F60 X22.812 Y48.102
G01 F60 X22.880 Y48.133
G01 F60 X22.896 Y48.139
G01 F60 X22.966 Y48.154
G01 F60 X22.977 Y48.159
G01 F60 X22.997 Y48.159
G01 F60 X23.095 Y48.179
G01 F60 X23.154 Y48.209
G01 F60 X23.251 Y48.209
G01 F60 X23.345 Y48.229
G01 F60 X23.357 Y48.235
G01 F60 X23.403 Y48.235
G01 F60 X23.502 Y48.256
G01 F60 X23.580 Y48.296
G01 F60 X23.624 Y48.306
G01 F60 X23.693 Y48.336
G01 F60 X23.709 Y48.342
G01 F60 X23.777 Y48.356
G01 F60 X23.789 Y48.362
G01 F60 X23.810 Y48.362
G01 F60 X23.904 Y48.382
G01 F60 X23.992 Y48.421
G01 F60 X24.016 Y48.439
G01 F60 X24.111 Y48.459
G01 F60 X24.190 Y48.499
G01 F60 X24.234 Y48.509
G01 F60 X24.318 Y48.546
G01 F60 X24.361 Y48.574
G01 F60 X24.412 Y48.585
G01 F60 X24.481 Y48.616
G01 F60 X24.496 Y48.621
G01 F60 X24.564 Y48.636
G01 F60 X24.604 Y48.653
G01 F60 X24.640 Y48.661
G01 F60 X24.728 Y48.700
G01 F60 X24.785 Y48.741
G01 F60 X24.802 Y48.751
G01 F60 X24.840 Y48.772
G01 F60 X24.858 Y48.780
G01 F60 X24.894 Y48.788
G01 F60 X24.983 Y48.827
G01 F60 X25.027 Y48.860
G01 F60 X25.047 Y48.864
G01 F60 X25.135 Y48.903
G01 F60 X25.191 Y48.944
G01 F60 X25.208 Y48.954
G01 F60 X25.247 Y48.976
G01 F60 X25.264 Y48.983
G01 F60 X25.301 Y48.991
G01 F60 X25.389 Y49.030
G01 F60 X25.457 Y49.081
G01 F60 X25.516 Y49.107
G01 F60 X25.572 Y49.148
G01 F60 X25.597 Y49.161
G01 F60 X25.661 Y49.208
G01 F60 X25.719 Y49.233
G01 F60 X25.797 Y49.290
G01 F60 X25.810 Y49.305
G01 F60 X25.813 Y49.306
G01 F60 X25.856 Y49.331
G01 F60 X25.922 Y49.361
G01 F60 X26.000 Y49.417
G01 F60 X26.013 Y49.432
G01 F60 X26.024 Y49.437
G01 F60 X26.101 Y49.493
G01 F60 X26.140 Y49.537
G01 F60 X26.202 Y49.564
G01 F60 X26.270 Y49.614
G01 F60 X26.328 Y49.640
G01 F60 X26.406 Y49.696
G01 F60 X26.464 Y49.761
G01 F60 X26.495 Y49.801
G01 F60 X26.532 Y49.818
G01 F60 X26.611 Y49.875
G01 F60 X26.658 Y49.931
G01 F60 X26.676 Y49.944
G01 F60 X26.735 Y49.970
G01 F60 X26.813 Y50.027
G01 F60 X26.879 Y50.101
G01 F60 X26.914 Y50.167
G01 F60 X26.966 Y50.205
G01 F60 X26.999 Y50.243
G01 F60 X27.014 Y50.250
G01 F60 X27.092 Y50.306
G01 F60 X27.149 Y50.370
G01 F60 X27.172 Y50.399
G01 F60 X27.221 Y50.434
G01 F60 X27.267 Y50.489
G01 F60 X27.295 Y50.509
G01 F60 X27.352 Y50.573
G01 F60 X27.375 Y50.602
G01 F60 X27.424 Y50.637
G01 F60 X27.471 Y50.692
G01 F60 X27.495 Y50.710
G01 F60 X27.559 Y50.774
G01 F60 X27.597 Y50.819
G01 F60 X27.625 Y50.839
G01 F60 X27.692 Y50.913
G01 F60 X27.735 Y50.996
G01 F60 X27.741 Y51.007
G01 F60 X27.786 Y51.052
G01 F60 X27.842 Y51.114
G01 F60 X27.874 Y51.169
G01 F60 X27.886 Y51.182
G01 F60 X27.908 Y51.212
G01 F60 X27.956 Y51.246
G01 F60 X28.020 Y51.317
G01 F60 X28.068 Y51.401
G01 F60 X28.074 Y51.420
G01 F60 X28.098 Y51.447
G01 F60 X28.142 Y51.531
G01 F60 X28.155 Y51.553
G01 F60 X28.158 Y51.557
G01 F60 X28.184 Y51.576
G01 F60 X28.248 Y51.647
G01 F60 X28.296 Y51.731
G01 F60 X28.303 Y51.750
G01 F60 X28.325 Y51.775
G01 F60 X28.356 Y51.830
G01 F60 X28.375 Y51.851
G01 F60 X28.425 Y51.937
G01 F60 X28.446 Y52.013
G01 F60 X28.467 Y52.049
G01 F60 X28.485 Y52.081
G01 F60 X28.522 Y52.118
G01 F60 X28.579 Y52.181
G01 F60 X28.611 Y52.236
G01 F60 X28.629 Y52.257
G01 F60 X28.677 Y52.340
G01 F60 X28.697 Y52.400
G01 F60 X28.706 Y52.409
G01 F60 X28.754 Y52.493
G01 F60 X28.760 Y52.512
G01 F60 X28.782 Y52.536
G01 F60 X28.827 Y52.615
G01 F60 X28.846 Y52.661
G01 F60 X28.881 Y52.721
G01 F60 X28.910 Y52.810
G01 F60 X28.914 Y52.846
G01 F60 X28.922 Y52.864
G01 F60 X28.957 Y52.924
G01 F60 X28.977 Y52.984
G01 F60 X28.985 Y52.994
G01 F60 X29.017 Y53.049
G01 F60 X29.036 Y53.070
G01 F60 X29.084 Y53.153
G01 F60 X29.114 Y53.245
G01 F60 X29.117 Y53.282
G01 F60 X29.160 Y53.356
G01 F60 X29.190 Y53.448
G01 F60 X29.199 Y53.536
G01 F60 X29.199 Y53.546
G01 F60 X29.236 Y53.610
G01 F60 X29.266 Y53.702
G01 F60 X29.270 Y53.736
G01 F60 X29.285 Y53.766
G01 F60 X29.312 Y53.813
G01 F60 X29.342 Y53.905
G01 F60 X29.345 Y53.935
G01 F60 X29.363 Y53.966
G01 F60 X29.393 Y54.057
G01 F60 X29.402 Y54.145
G01 F60 X29.402 Y54.178
G01 F60 X29.404 Y54.184
G01 F60 X29.439 Y54.245
G01 F60 X29.469 Y54.337
G01 F60 X29.478 Y54.424
G01 F60 X29.478 Y54.479
G01 F60 X29.490 Y54.499
G01 F60 X29.520 Y54.591
G01 F60 X29.527 Y54.661
G01 F60 X29.545 Y54.718
G01 F60 X29.555 Y54.805
G01 F60 X29.555 Y54.885
G01 F60 X29.566 Y54.906
G01 F60 X29.596 Y54.997
G01 F60 X29.605 Y55.085
G01 F60 X29.605 Y55.088
G01 F60 X29.617 Y55.109
G01 F60 X29.647 Y55.200
G01 F60 X29.656 Y55.288
G01 F60 X29.656 Y55.353
G01 F60 X29.672 Y55.403
G01 F60 X29.681 Y55.491
G01 F60 X29.681 Y55.761
G01 F60 X29.672 Y55.849
G01 F60 X29.670 Y55.856
G01 F60 X29.693 Y55.896
G01 F60 X29.723 Y55.988
G01 F60 X29.732 Y56.075
G01 F60 X29.732 Y56.117
G01 F60 X29.730 Y56.134
G01 F60 X29.732 Y56.151
G01 F60 X29.732 Y56.193
G01 F60 X29.731 Y56.210
G01 F60 X29.732 Y56.227
G01 F60 X29.732 Y56.726
G01 F60 X29.727 Y56.782
G01 F60 X29.732 Y56.837
G01 F60 X29.732 Y56.930
G01 F60 X29.723 Y57.017
G01 F60 X29.696 Y57.102
G01 F60 X29.678 Y57.138
G01 F60 X29.681 Y57.167
G01 F60 X29.681 Y57.336
G01 F60 X29.673 Y57.421
G01 F60 X29.654 Y57.485
G01 F60 X29.650 Y57.518
G01 F60 X29.656 Y57.574
G01 F60 X29.656 Y57.666
G01 F60 X29.647 Y57.754
G01 F60 X29.617 Y57.845
G01 F60 X29.605 Y57.866
G01 F60 X29.605 Y57.946
G01 F60 X29.596 Y58.033
G01 F60 X29.566 Y58.124
G01 F60 X29.555 Y58.145
G01 F60 X29.555 Y58.149
G01 F60 X29.545 Y58.236
G01 F60 X29.517 Y58.323
G01 F60 X29.484 Y58.388
G01 F60 X29.478 Y58.399
G01 F60 X29.478 Y58.403
G01 F60 X29.469 Y58.490
G01 F60 X29.439 Y58.582
G01 F60 X29.428 Y58.602
G01 F60 X29.428 Y58.606
G01 F60 X29.418 Y58.693
G01 F60 X29.402 Y58.743
G01 F60 X29.402 Y58.809
G01 F60 X29.393 Y58.897
G01 F60 X29.365 Y58.982
G01 F60 X29.335 Y59.046
G01 F60 X29.324 Y59.085
G01 F60 X29.317 Y59.151
G01 F60 X29.287 Y59.242
G01 F60 X29.238 Y59.326
G01 F60 X29.215 Y59.351
G01 F60 X29.215 Y59.354
G01 F60 X29.184 Y59.447
G01 F60 X29.160 Y59.521
G01 F60 X29.121 Y59.589
G01 F60 X29.114 Y59.659
G01 F60 X29.083 Y59.752
G01 F60 X29.045 Y59.814
G01 F60 X29.033 Y59.852
G01 F60 X28.990 Y59.925
G01 F60 X28.975 Y59.949
G01 F60 X28.957 Y60.004
G01 F60 X28.914 Y60.078
G01 F60 X28.899 Y60.101
G01 F60 X28.880 Y60.158
G01 F60 X28.842 Y60.220
G01 F60 X28.830 Y60.258
G01 F60 X28.787 Y60.332
G01 F60 X28.783 Y60.370
G01 F60 X28.754 Y60.461
G01 F60 X28.706 Y60.544
G01 F60 X28.687 Y60.566
G01 F60 X28.655 Y60.620
G01 F60 X28.633 Y60.645
G01 F60 X28.627 Y60.664
G01 F60 X28.579 Y60.748
G01 F60 X28.527 Y60.805
G01 F60 X28.515 Y60.819
G01 F60 X28.500 Y60.868
G01 F60 X28.452 Y60.951
G01 F60 X28.389 Y61.020
G01 F60 X28.373 Y61.071
G01 F60 X28.324 Y61.156
G01 F60 X28.303 Y61.177
G01 F60 X28.296 Y61.198
G01 F60 X28.248 Y61.281
G01 F60 X28.188 Y61.348
G01 F60 X28.155 Y61.376
G01 F60 X28.150 Y61.382
G01 F60 X28.144 Y61.401
G01 F60 X28.095 Y61.485
G01 F60 X28.049 Y61.535
G01 F60 X28.020 Y61.586
G01 F60 X27.961 Y61.651
G01 F60 X27.950 Y61.662
G01 F60 X27.935 Y61.690
G01 F60 X27.893 Y61.764
G01 F60 X27.833 Y61.830
G01 F60 X27.796 Y61.861
G01 F60 X27.746 Y61.912
G01 F60 X27.706 Y61.957
G01 F60 X27.673 Y61.985
G01 F60 X27.656 Y62.021
G01 F60 X27.613 Y62.094
G01 F60 X27.549 Y62.165
G01 F60 X27.484 Y62.212
G01 F60 X27.484 Y62.214
G01 F60 X27.436 Y62.297
G01 F60 X27.371 Y62.368
G01 F60 X27.300 Y62.420
G01 F60 X27.281 Y62.453
G01 F60 X27.213 Y62.522
G01 F60 X27.168 Y62.572
G01 F60 X27.088 Y62.630
G01 F60 X27.031 Y62.653
G01 F60 X27.007 Y62.677
G01 F60 X26.955 Y62.729
G01 F60 X26.912 Y62.774
G01 F60 X26.881 Y62.804
G01 F60 X26.838 Y62.851
G01 F60 X26.767 Y62.903
G01 F60 X26.750 Y62.932
G01 F60 X26.686 Y63.003
G01 F60 X26.613 Y63.056
G01 F60 X26.586 Y63.071
G01 F60 X26.558 Y63.089
G01 F60 X26.547 Y63.110
G01 F60 X26.482 Y63.181
G01 F60 X26.410 Y63.234
G01 F60 X26.334 Y63.275
G01 F60 X26.305 Y63.308
G01 F60 X26.227 Y63.365
G01 F60 X26.217 Y63.369
G01 F60 X26.203 Y63.384
G01 F60 X26.123 Y63.442
G01 F60 X26.066 Y63.465
G01 F60 X26.025 Y63.511
G01 F60 X25.951 Y63.565
G01 F60 X25.876 Y63.604
G01 F60 X25.820 Y63.644
G01 F60 X25.733 Y63.683
G01 F60 X25.721 Y63.686
G01 F60 X25.695 Y63.715
G01 F60 X25.617 Y63.771
G01 F60 X25.529 Y63.810
G01 F60 X25.493 Y63.818
G01 F60 X25.463 Y63.831
G01 F60 X25.454 Y63.846
G01 F60 X25.390 Y63.918
G01 F60 X25.312 Y63.974
G01 F60 X25.223 Y64.014
G01 F60 X25.171 Y64.024
G01 F60 X25.135 Y64.050
G01 F60 X25.047 Y64.090
G01 F60 X25.010 Y64.097
G01 F60 X24.980 Y64.111
G01 F60 X24.912 Y64.136
G01 F60 X24.844 Y64.166
G01 F60 X24.800 Y64.175
G01 F60 X24.780 Y64.197
G01 F60 X24.703 Y64.254
G01 F60 X24.613 Y64.294
G01 F60 X24.562 Y64.303
G01 F60 X24.525 Y64.330
G01 F60 X24.447 Y64.365
G01 F60 X24.378 Y64.389
G01 F60 X24.310 Y64.420
G01 F60 X24.274 Y64.428
G01 F60 X24.244 Y64.441
G01 F60 X24.175 Y64.466
